; ════════════════════════════════════
; Part    : 6INCH_ARM
; Thickness: 6.00 mm
; Tool    : 3.0 mm carbide 2-flute end mill
; Spindle : 15000 RPM
; Feed XY : 600 mm/min
; Feed Z  : 120 mm/min
; Step-down: 0.5 mm/pass
; Z=0 = top surface of material
; ════════════════════════════════════
; !! CFRP DUST WARNING !!
; Use dust extraction + N95 respirator
; ════════════════════════════════════

G21       ; mm units
G90       ; absolute positioning
G17       ; XY plane
G0 Z10.0000  ; safe height
G0 X0 Y0
M3 S15000  ; spindle on (CW)
G4 P3     ; wait 3 s for spindle to spin up

; Outer profile (tool offset +1.5mm)
G0 Z10.0000
G0 X-11.0079 Y-58.1197
G1 Z-0.5000 F120
G1 X-11.1737 Y-58.2713 F600
G1 X-11.3783 Y-58.4951 F600
G1 X-11.5894 Y-58.7261 F600
G1 X-11.7753 Y-58.9772 F600
G1 X-11.9591 Y-59.2252 F600
G1 X-12.1178 Y-59.4902 F600
G1 X-12.2762 Y-59.7546 F600
G1 X-12.4083 Y-60.0333 F600
G1 X-12.5418 Y-60.3148 F600
G1 X-12.6462 Y-60.6081 F600
G1 X-12.7485 Y-60.8957 F600
G1 X-12.8237 Y-61.1912 F600
G1 X-12.9011 Y-61.4955 F600
G1 X-12.9464 Y-61.8073 F600
G1 X-12.9909 Y-62.1136 F600
G1 X-13.0053 Y-62.4206 F600
G1 X-13.0196 Y-62.7249 F600
G1 X-13.0054 Y-63.0301 F600
G1 X-12.9909 Y-63.3383 F600
G1 X-12.9464 Y-63.6447 F600
G1 X-12.9011 Y-63.9565 F600
G1 X-12.8237 Y-64.2608 F600
G1 X-12.7485 Y-64.5563 F600
G1 X-12.6462 Y-64.8439 F600
G1 X-12.5418 Y-65.1372 F600
G1 X-12.4083 Y-65.4187 F600
G1 X-12.2762 Y-65.6974 F600
G1 X-12.1178 Y-65.9618 F600
G1 X-11.9591 Y-66.2268 F600
G1 X-11.7753 Y-66.4748 F600
G1 X-11.5894 Y-66.7259 F600
G1 X-11.3783 Y-66.9569 F600
G1 X-11.1737 Y-67.1807 F600
G1 X-10.9499 Y-67.3853 F600
G1 X-10.7189 Y-67.5964 F600
G1 X-10.4678 Y-67.7823 F600
G1 X-10.2198 Y-67.9661 F600
G1 X-9.9548 Y-68.1248 F600
G1 X-9.6904 Y-68.2832 F600
G1 X-9.4117 Y-68.4153 F600
G1 X-9.1302 Y-68.5488 F600
G1 X-8.8369 Y-68.6532 F600
G1 X-8.5493 Y-68.7555 F600
G1 X-8.2538 Y-68.8307 F600
G1 X-7.9495 Y-68.9081 F600
G1 X-7.6377 Y-68.9534 F600
G1 X-7.3313 Y-68.9979 F600
G1 X-7.0231 Y-69.0124 F600
G1 X-6.7179 Y-69.0266 F600
G1 X-6.4136 Y-69.0123 F600
G1 X-6.1066 Y-68.9979 F600
G1 X-5.8003 Y-68.9534 F600
G1 X-5.4885 Y-68.9081 F600
G1 X-5.1842 Y-68.8307 F600
G1 X-4.8887 Y-68.7555 F600
G1 X-4.6011 Y-68.6532 F600
G1 X-4.3078 Y-68.5488 F600
G1 X-4.0263 Y-68.4153 F600
G1 X-3.7476 Y-68.2832 F600
G1 X-3.4832 Y-68.1248 F600
G1 X-3.2182 Y-67.9661 F600
G1 X-2.9702 Y-67.7823 F600
G1 X-2.7191 Y-67.5964 F600
G1 X-2.4881 Y-67.3853 F600
G1 X-2.2643 Y-67.1807 F600
G1 X-2.1127 Y-67.0149 F600
G1 X-2.4527 Y-67.3870 F600
G1 X-0.0010 Y-67.3870 F600
G1 X2.4465 Y-67.3870 F600
G1 X2.1049 Y-67.0096 F600
G1 X2.2576 Y-67.1783 F600
G1 X2.4841 Y-67.3853 F600
G1 X2.7165 Y-67.5977 F600
G1 X2.9702 Y-67.7846 F600
G1 X3.2178 Y-67.9670 F600
G1 X3.4812 Y-68.1248 F600
G1 X3.7444 Y-68.2825 F600
G1 X4.0209 Y-68.4142 F600
G1 X4.3025 Y-68.5483 F600
G1 X4.5971 Y-68.6532 F600
G1 X4.8855 Y-68.7558 F600
G1 X5.1827 Y-68.8311 F600
G1 X5.4868 Y-68.9081 F600
G1 X5.7964 Y-68.9533 F600
G1 X6.1023 Y-68.9979 F600
G1 X6.4109 Y-69.0124 F600
G1 X6.7160 Y-69.0266 F600
G1 X7.0211 Y-69.0124 F600
G1 X7.3297 Y-68.9979 F600
G1 X7.6356 Y-68.9533 F600
G1 X7.9460 Y-68.9080 F600
G1 X8.2498 Y-68.8307 F600
G1 X8.5453 Y-68.7555 F600
G1 X8.8329 Y-68.6532 F600
G1 X9.1250 Y-68.5493 F600
G1 X9.4062 Y-68.4165 F600
G1 X9.6887 Y-68.2832 F600
G1 X9.9546 Y-68.1231 F600
G1 X10.2171 Y-67.9651 F600
G1 X10.4638 Y-67.7823 F600
G1 X10.7131 Y-67.5977 F600
G1 X10.9437 Y-67.3882 F600
G1 X11.1720 Y-67.1807 F600
G1 X11.3785 Y-66.9534 F600
G1 X11.5868 Y-66.7240 F600
G1 X11.7713 Y-66.4748 F600
G1 X11.9534 Y-66.2290 F600
G1 X12.1120 Y-65.9665 F600
G1 X12.2745 Y-65.6974 F600
G1 X12.4078 Y-65.4135 F600
G1 X12.5375 Y-65.1372 F600
G1 X12.6412 Y-64.8495 F600
G1 X12.7468 Y-64.5563 F600
G1 X12.8222 Y-64.2548 F600
G1 X12.8975 Y-63.9535 F600
G1 X12.9424 Y-63.6447 F600
G1 X12.9865 Y-63.3414 F600
G1 X13.0020 Y-63.0365 F600
G1 X13.0180 Y-62.7248 F600
G1 X13.0020 Y-62.4142 F600
G1 X12.9865 Y-62.1104 F600
G1 X12.9424 Y-61.8073 F600
G1 X12.8975 Y-61.4985 F600
G1 X12.8222 Y-61.1972 F600
G1 X12.7468 Y-60.8957 F600
G1 X12.6412 Y-60.6025 F600
G1 X12.5375 Y-60.3148 F600
G1 X12.4078 Y-60.0385 F600
G1 X12.2745 Y-59.7546 F600
G1 X12.1120 Y-59.4855 F600
G1 X11.9534 Y-59.2230 F600
G1 X11.7713 Y-58.9772 F600
G1 X11.5868 Y-58.7280 F600
G1 X11.3785 Y-58.4986 F600
G1 X11.1735 Y-58.2729 F600
G1 X11.0059 Y-58.1197 F600
G1 X11.3780 Y-58.4597 F600
G1 X11.3780 Y-56.0080 F600
G1 X11.3780 Y-53.5605 F600
G1 X11.0006 Y-53.9021 F600
G1 X11.1711 Y-53.7478 F600
G1 X11.3785 Y-53.5194 F600
G1 X11.5881 Y-53.2886 F600
G1 X11.7736 Y-53.0368 F600
G1 X11.9544 Y-52.7914 F600
G1 X12.1120 Y-52.5305 F600
G1 X12.2738 Y-52.2626 F600
G1 X12.4066 Y-51.9809 F600
G1 X12.5370 Y-51.7045 F600
G1 X12.6412 Y-51.4155 F600
G1 X12.7471 Y-51.1216 F600
G1 X12.8226 Y-50.8183 F600
G1 X12.8975 Y-50.5172 F600
G1 X12.9423 Y-50.2106 F600
G1 X12.9865 Y-49.9079 F600
G1 X13.0020 Y-49.6025 F600
G1 X13.0180 Y-49.2910 F600
G1 X13.0020 Y-48.9795 F600
G1 X12.9865 Y-48.6741 F600
G1 X12.9423 Y-48.3714 F600
G1 X12.8974 Y-48.0641 F600
G1 X12.8222 Y-47.7632 F600
G1 X12.7468 Y-47.4617 F600
G1 X12.6412 Y-47.1685 F600
G1 X12.5379 Y-46.8820 F600
G1 X12.4090 Y-46.6060 F600
G1 X12.2745 Y-46.3183 F600
G1 X12.1103 Y-46.0477 F600
G1 X11.9524 Y-45.7877 F600
G1 X11.7713 Y-45.5432 F600
G1 X11.5881 Y-45.2957 F600
G1 X11.3814 Y-45.0668 F600
G1 X11.1720 Y-44.8350 F600
G1 X10.9402 Y-44.6256 F600
G1 X10.7113 Y-44.4189 F600
G1 X10.4638 Y-44.2357 F600
G1 X10.2193 Y-44.0546 F600
G1 X9.9593 Y-43.8967 F600
G1 X9.6887 Y-43.7325 F600
G1 X9.4010 Y-43.5980 F600
G1 X9.1250 Y-43.4691 F600
G1 X8.8385 Y-43.3658 F600
G1 X8.5453 Y-43.2602 F600
G1 X8.2438 Y-43.1848 F600
G1 X7.9429 Y-43.1096 F600
G1 X7.6356 Y-43.0647 F600
G1 X7.3329 Y-43.0205 F600
G1 X7.0275 Y-43.0050 F600
G1 X6.7160 Y-42.9890 F600
G1 X6.4045 Y-43.0050 F600
G1 X6.0997 Y-43.0205 F600
G1 X5.9065 Y-43.0486 F600
G1 X7.4980 Y-42.8175 F600
G1 X7.4980 Y-28.7850 F600
G1 X7.4980 Y-20.9130 F600
G1 X7.4980 Y2.6960 F600
G1 X7.4980 Y2.7270 F600
G1 X7.4980 Y2.7590 F600
G1 X7.4980 Y26.3670 F600
G1 X7.4980 Y34.2470 F600
G1 X7.4980 Y50.6263 F600
G1 X4.9777 Y53.1467 F600
G1 X1.9344 Y56.1899 F600
G1 X0.6863 Y55.1636 F600
G1 X0.6034 Y55.0954 F600
G1 X0.5097 Y55.0452 F600
G1 X0.4166 Y54.9953 F600
G1 X0.3147 Y54.9644 F600
G1 X0.2120 Y54.9333 F600
G1 X0.1051 Y54.9228 F600
G1 X-0.0020 Y54.9122 F600
G1 X-0.1091 Y54.9228 F600
G1 X-0.2152 Y54.9332 F600
G1 X-0.3160 Y54.9639 F600
G1 X-0.4191 Y54.9953 F600
G1 X-0.5151 Y55.0465 F600
G1 X-0.6085 Y55.0963 F600
G1 X-0.6903 Y55.1636 F600
G1 X-1.9384 Y56.1899 F600
G1 X-4.9817 Y53.1467 F600
G1 X-7.5020 Y50.6263 F600
G1 X-7.5020 Y34.2400 F600
G1 X-7.5020 Y26.3670 F600
G1 X-7.5020 Y2.7590 F600
G1 X-7.5020 Y2.7270 F600
G1 X-7.5020 Y2.6960 F600
G1 X-7.5020 Y-20.9130 F600
G1 X-7.5020 Y-28.7920 F600
G1 X-7.5020 Y-42.8175 F600
G1 X-5.9105 Y-43.0486 F600
G1 X-6.1035 Y-43.0205 F600
G1 X-6.4072 Y-43.0050 F600
G1 X-6.7178 Y-42.9890 F600
G1 X-7.0295 Y-43.0050 F600
G1 X-7.3344 Y-43.0205 F600
G1 X-7.6377 Y-43.0646 F600
G1 X-7.9465 Y-43.1095 F600
G1 X-8.2478 Y-43.1848 F600
G1 X-8.5493 Y-43.2602 F600
G1 X-8.8425 Y-43.3658 F600
G1 X-9.1302 Y-43.4695 F600
G1 X-9.4065 Y-43.5992 F600
G1 X-9.6904 Y-43.7325 F600
G1 X-9.9595 Y-43.8950 F600
G1 X-10.2220 Y-44.0536 F600
G1 X-10.4678 Y-44.2357 F600
G1 X-10.7170 Y-44.4202 F600
G1 X-10.9464 Y-44.6285 F600
G1 X-11.1737 Y-44.8350 F600
G1 X-11.3812 Y-45.0633 F600
G1 X-11.5907 Y-45.2939 F600
G1 X-11.7753 Y-45.5432 F600
G1 X-11.9581 Y-45.7899 F600
G1 X-12.1161 Y-46.0524 F600
G1 X-12.2762 Y-46.3183 F600
G1 X-12.4095 Y-46.6008 F600
G1 X-12.5423 Y-46.8820 F600
G1 X-12.6462 Y-47.1741 F600
G1 X-12.7485 Y-47.4617 F600
G1 X-12.8237 Y-47.7572 F600
G1 X-12.9010 Y-48.0610 F600
G1 X-12.9463 Y-48.3714 F600
G1 X-12.9909 Y-48.6773 F600
G1 X-13.0054 Y-48.9859 F600
G1 X-13.0196 Y-49.2910 F600
G1 X-13.0054 Y-49.5961 F600
G1 X-12.9909 Y-49.9047 F600
G1 X-12.9463 Y-50.2106 F600
G1 X-12.9011 Y-50.5202 F600
G1 X-12.8241 Y-50.8243 F600
G1 X-12.7488 Y-51.1215 F600
G1 X-12.6462 Y-51.4099 F600
G1 X-12.5413 Y-51.7045 F600
G1 X-12.4072 Y-51.9861 F600
G1 X-12.2755 Y-52.2626 F600
G1 X-12.1178 Y-52.5258 F600
G1 X-11.9600 Y-52.7892 F600
G1 X-11.7776 Y-53.0368 F600
G1 X-11.5907 Y-53.2905 F600
G1 X-11.3783 Y-53.5229 F600
G1 X-11.1713 Y-53.7494 F600
G1 X-11.0026 Y-53.9021 F600
G1 X-11.3800 Y-53.5605 F600
G1 X-11.3800 Y-56.0080 F600
G1 X-11.3800 Y-58.4597 F600
G1 X-11.0079 Y-58.1197 F600
G1 Z-1.0000 F120
G1 X-11.1737 Y-58.2713 F600
G1 X-11.3783 Y-58.4951 F600
G1 X-11.5894 Y-58.7261 F600
G1 X-11.7753 Y-58.9772 F600
G1 X-11.9591 Y-59.2252 F600
G1 X-12.1178 Y-59.4902 F600
G1 X-12.2762 Y-59.7546 F600
G1 X-12.4083 Y-60.0333 F600
G1 X-12.5418 Y-60.3148 F600
G1 X-12.6462 Y-60.6081 F600
G1 X-12.7485 Y-60.8957 F600
G1 X-12.8237 Y-61.1912 F600
G1 X-12.9011 Y-61.4955 F600
G1 X-12.9464 Y-61.8073 F600
G1 X-12.9909 Y-62.1136 F600
G1 X-13.0053 Y-62.4206 F600
G1 X-13.0196 Y-62.7249 F600
G1 X-13.0054 Y-63.0301 F600
G1 X-12.9909 Y-63.3383 F600
G1 X-12.9464 Y-63.6447 F600
G1 X-12.9011 Y-63.9565 F600
G1 X-12.8237 Y-64.2608 F600
G1 X-12.7485 Y-64.5563 F600
G1 X-12.6462 Y-64.8439 F600
G1 X-12.5418 Y-65.1372 F600
G1 X-12.4083 Y-65.4187 F600
G1 X-12.2762 Y-65.6974 F600
G1 X-12.1178 Y-65.9618 F600
G1 X-11.9591 Y-66.2268 F600
G1 X-11.7753 Y-66.4748 F600
G1 X-11.5894 Y-66.7259 F600
G1 X-11.3783 Y-66.9569 F600
G1 X-11.1737 Y-67.1807 F600
G1 X-10.9499 Y-67.3853 F600
G1 X-10.7189 Y-67.5964 F600
G1 X-10.4678 Y-67.7823 F600
G1 X-10.2198 Y-67.9661 F600
G1 X-9.9548 Y-68.1248 F600
G1 X-9.6904 Y-68.2832 F600
G1 X-9.4117 Y-68.4153 F600
G1 X-9.1302 Y-68.5488 F600
G1 X-8.8369 Y-68.6532 F600
G1 X-8.5493 Y-68.7555 F600
G1 X-8.2538 Y-68.8307 F600
G1 X-7.9495 Y-68.9081 F600
G1 X-7.6377 Y-68.9534 F600
G1 X-7.3313 Y-68.9979 F600
G1 X-7.0231 Y-69.0124 F600
G1 X-6.7179 Y-69.0266 F600
G1 X-6.4136 Y-69.0123 F600
G1 X-6.1066 Y-68.9979 F600
G1 X-5.8003 Y-68.9534 F600
G1 X-5.4885 Y-68.9081 F600
G1 X-5.1842 Y-68.8307 F600
G1 X-4.8887 Y-68.7555 F600
G1 X-4.6011 Y-68.6532 F600
G1 X-4.3078 Y-68.5488 F600
G1 X-4.0263 Y-68.4153 F600
G1 X-3.7476 Y-68.2832 F600
G1 X-3.4832 Y-68.1248 F600
G1 X-3.2182 Y-67.9661 F600
G1 X-2.9702 Y-67.7823 F600
G1 X-2.7191 Y-67.5964 F600
G1 X-2.4881 Y-67.3853 F600
G1 X-2.2643 Y-67.1807 F600
G1 X-2.1127 Y-67.0149 F600
G1 X-2.4527 Y-67.3870 F600
G1 X-0.0010 Y-67.3870 F600
G1 X2.4465 Y-67.3870 F600
G1 X2.1049 Y-67.0096 F600
G1 X2.2576 Y-67.1783 F600
G1 X2.4841 Y-67.3853 F600
G1 X2.7165 Y-67.5977 F600
G1 X2.9702 Y-67.7846 F600
G1 X3.2178 Y-67.9670 F600
G1 X3.4812 Y-68.1248 F600
G1 X3.7444 Y-68.2825 F600
G1 X4.0209 Y-68.4142 F600
G1 X4.3025 Y-68.5483 F600
G1 X4.5971 Y-68.6532 F600
G1 X4.8855 Y-68.7558 F600
G1 X5.1827 Y-68.8311 F600
G1 X5.4868 Y-68.9081 F600
G1 X5.7964 Y-68.9533 F600
G1 X6.1023 Y-68.9979 F600
G1 X6.4109 Y-69.0124 F600
G1 X6.7160 Y-69.0266 F600
G1 X7.0211 Y-69.0124 F600
G1 X7.3297 Y-68.9979 F600
G1 X7.6356 Y-68.9533 F600
G1 X7.9460 Y-68.9080 F600
G1 X8.2498 Y-68.8307 F600
G1 X8.5453 Y-68.7555 F600
G1 X8.8329 Y-68.6532 F600
G1 X9.1250 Y-68.5493 F600
G1 X9.4062 Y-68.4165 F600
G1 X9.6887 Y-68.2832 F600
G1 X9.9546 Y-68.1231 F600
G1 X10.2171 Y-67.9651 F600
G1 X10.4638 Y-67.7823 F600
G1 X10.7131 Y-67.5977 F600
G1 X10.9437 Y-67.3882 F600
G1 X11.1720 Y-67.1807 F600
G1 X11.3785 Y-66.9534 F600
G1 X11.5868 Y-66.7240 F600
G1 X11.7713 Y-66.4748 F600
G1 X11.9534 Y-66.2290 F600
G1 X12.1120 Y-65.9665 F600
G1 X12.2745 Y-65.6974 F600
G1 X12.4078 Y-65.4135 F600
G1 X12.5375 Y-65.1372 F600
G1 X12.6412 Y-64.8495 F600
G1 X12.7468 Y-64.5563 F600
G1 X12.8222 Y-64.2548 F600
G1 X12.8975 Y-63.9535 F600
G1 X12.9424 Y-63.6447 F600
G1 X12.9865 Y-63.3414 F600
G1 X13.0020 Y-63.0365 F600
G1 X13.0180 Y-62.7248 F600
G1 X13.0020 Y-62.4142 F600
G1 X12.9865 Y-62.1104 F600
G1 X12.9424 Y-61.8073 F600
G1 X12.8975 Y-61.4985 F600
G1 X12.8222 Y-61.1972 F600
G1 X12.7468 Y-60.8957 F600
G1 X12.6412 Y-60.6025 F600
G1 X12.5375 Y-60.3148 F600
G1 X12.4078 Y-60.0385 F600
G1 X12.2745 Y-59.7546 F600
G1 X12.1120 Y-59.4855 F600
G1 X11.9534 Y-59.2230 F600
G1 X11.7713 Y-58.9772 F600
G1 X11.5868 Y-58.7280 F600
G1 X11.3785 Y-58.4986 F600
G1 X11.1735 Y-58.2729 F600
G1 X11.0059 Y-58.1197 F600
G1 X11.3780 Y-58.4597 F600
G1 X11.3780 Y-56.0080 F600
G1 X11.3780 Y-53.5605 F600
G1 X11.0006 Y-53.9021 F600
G1 X11.1711 Y-53.7478 F600
G1 X11.3785 Y-53.5194 F600
G1 X11.5881 Y-53.2886 F600
G1 X11.7736 Y-53.0368 F600
G1 X11.9544 Y-52.7914 F600
G1 X12.1120 Y-52.5305 F600
G1 X12.2738 Y-52.2626 F600
G1 X12.4066 Y-51.9809 F600
G1 X12.5370 Y-51.7045 F600
G1 X12.6412 Y-51.4155 F600
G1 X12.7471 Y-51.1216 F600
G1 X12.8226 Y-50.8183 F600
G1 X12.8975 Y-50.5172 F600
G1 X12.9423 Y-50.2106 F600
G1 X12.9865 Y-49.9079 F600
G1 X13.0020 Y-49.6025 F600
G1 X13.0180 Y-49.2910 F600
G1 X13.0020 Y-48.9795 F600
G1 X12.9865 Y-48.6741 F600
G1 X12.9423 Y-48.3714 F600
G1 X12.8974 Y-48.0641 F600
G1 X12.8222 Y-47.7632 F600
G1 X12.7468 Y-47.4617 F600
G1 X12.6412 Y-47.1685 F600
G1 X12.5379 Y-46.8820 F600
G1 X12.4090 Y-46.6060 F600
G1 X12.2745 Y-46.3183 F600
G1 X12.1103 Y-46.0477 F600
G1 X11.9524 Y-45.7877 F600
G1 X11.7713 Y-45.5432 F600
G1 X11.5881 Y-45.2957 F600
G1 X11.3814 Y-45.0668 F600
G1 X11.1720 Y-44.8350 F600
G1 X10.9402 Y-44.6256 F600
G1 X10.7113 Y-44.4189 F600
G1 X10.4638 Y-44.2357 F600
G1 X10.2193 Y-44.0546 F600
G1 X9.9593 Y-43.8967 F600
G1 X9.6887 Y-43.7325 F600
G1 X9.4010 Y-43.5980 F600
G1 X9.1250 Y-43.4691 F600
G1 X8.8385 Y-43.3658 F600
G1 X8.5453 Y-43.2602 F600
G1 X8.2438 Y-43.1848 F600
G1 X7.9429 Y-43.1096 F600
G1 X7.6356 Y-43.0647 F600
G1 X7.3329 Y-43.0205 F600
G1 X7.0275 Y-43.0050 F600
G1 X6.7160 Y-42.9890 F600
G1 X6.4045 Y-43.0050 F600
G1 X6.0997 Y-43.0205 F600
G1 X5.9065 Y-43.0486 F600
G1 X7.4980 Y-42.8175 F600
G1 X7.4980 Y-28.7850 F600
G1 X7.4980 Y-20.9130 F600
G1 X7.4980 Y2.6960 F600
G1 X7.4980 Y2.7270 F600
G1 X7.4980 Y2.7590 F600
G1 X7.4980 Y26.3670 F600
G1 X7.4980 Y34.2470 F600
G1 X7.4980 Y50.6263 F600
G1 X4.9777 Y53.1467 F600
G1 X1.9344 Y56.1899 F600
G1 X0.6863 Y55.1636 F600
G1 X0.6034 Y55.0954 F600
G1 X0.5097 Y55.0452 F600
G1 X0.4166 Y54.9953 F600
G1 X0.3147 Y54.9644 F600
G1 X0.2120 Y54.9333 F600
G1 X0.1051 Y54.9228 F600
G1 X-0.0020 Y54.9122 F600
G1 X-0.1091 Y54.9228 F600
G1 X-0.2152 Y54.9332 F600
G1 X-0.3160 Y54.9639 F600
G1 X-0.4191 Y54.9953 F600
G1 X-0.5151 Y55.0465 F600
G1 X-0.6085 Y55.0963 F600
G1 X-0.6903 Y55.1636 F600
G1 X-1.9384 Y56.1899 F600
G1 X-4.9817 Y53.1467 F600
G1 X-7.5020 Y50.6263 F600
G1 X-7.5020 Y34.2400 F600
G1 X-7.5020 Y26.3670 F600
G1 X-7.5020 Y2.7590 F600
G1 X-7.5020 Y2.7270 F600
G1 X-7.5020 Y2.6960 F600
G1 X-7.5020 Y-20.9130 F600
G1 X-7.5020 Y-28.7920 F600
G1 X-7.5020 Y-42.8175 F600
G1 X-5.9105 Y-43.0486 F600
G1 X-6.1035 Y-43.0205 F600
G1 X-6.4072 Y-43.0050 F600
G1 X-6.7178 Y-42.9890 F600
G1 X-7.0295 Y-43.0050 F600
G1 X-7.3344 Y-43.0205 F600
G1 X-7.6377 Y-43.0646 F600
G1 X-7.9465 Y-43.1095 F600
G1 X-8.2478 Y-43.1848 F600
G1 X-8.5493 Y-43.2602 F600
G1 X-8.8425 Y-43.3658 F600
G1 X-9.1302 Y-43.4695 F600
G1 X-9.4065 Y-43.5992 F600
G1 X-9.6904 Y-43.7325 F600
G1 X-9.9595 Y-43.8950 F600
G1 X-10.2220 Y-44.0536 F600
G1 X-10.4678 Y-44.2357 F600
G1 X-10.7170 Y-44.4202 F600
G1 X-10.9464 Y-44.6285 F600
G1 X-11.1737 Y-44.8350 F600
G1 X-11.3812 Y-45.0633 F600
G1 X-11.5907 Y-45.2939 F600
G1 X-11.7753 Y-45.5432 F600
G1 X-11.9581 Y-45.7899 F600
G1 X-12.1161 Y-46.0524 F600
G1 X-12.2762 Y-46.3183 F600
G1 X-12.4095 Y-46.6008 F600
G1 X-12.5423 Y-46.8820 F600
G1 X-12.6462 Y-47.1741 F600
G1 X-12.7485 Y-47.4617 F600
G1 X-12.8237 Y-47.7572 F600
G1 X-12.9010 Y-48.0610 F600
G1 X-12.9463 Y-48.3714 F600
G1 X-12.9909 Y-48.6773 F600
G1 X-13.0054 Y-48.9859 F600
G1 X-13.0196 Y-49.2910 F600
G1 X-13.0054 Y-49.5961 F600
G1 X-12.9909 Y-49.9047 F600
G1 X-12.9463 Y-50.2106 F600
G1 X-12.9011 Y-50.5202 F600
G1 X-12.8241 Y-50.8243 F600
G1 X-12.7488 Y-51.1215 F600
G1 X-12.6462 Y-51.4099 F600
G1 X-12.5413 Y-51.7045 F600
G1 X-12.4072 Y-51.9861 F600
G1 X-12.2755 Y-52.2626 F600
G1 X-12.1178 Y-52.5258 F600
G1 X-11.9600 Y-52.7892 F600
G1 X-11.7776 Y-53.0368 F600
G1 X-11.5907 Y-53.2905 F600
G1 X-11.3783 Y-53.5229 F600
G1 X-11.1713 Y-53.7494 F600
G1 X-11.0026 Y-53.9021 F600
G1 X-11.3800 Y-53.5605 F600
G1 X-11.3800 Y-56.0080 F600
G1 X-11.3800 Y-58.4597 F600
G1 X-11.0079 Y-58.1197 F600
G1 Z-1.5000 F120
G1 X-11.1737 Y-58.2713 F600
G1 X-11.3783 Y-58.4951 F600
G1 X-11.5894 Y-58.7261 F600
G1 X-11.7753 Y-58.9772 F600
G1 X-11.9591 Y-59.2252 F600
G1 X-12.1178 Y-59.4902 F600
G1 X-12.2762 Y-59.7546 F600
G1 X-12.4083 Y-60.0333 F600
G1 X-12.5418 Y-60.3148 F600
G1 X-12.6462 Y-60.6081 F600
G1 X-12.7485 Y-60.8957 F600
G1 X-12.8237 Y-61.1912 F600
G1 X-12.9011 Y-61.4955 F600
G1 X-12.9464 Y-61.8073 F600
G1 X-12.9909 Y-62.1136 F600
G1 X-13.0053 Y-62.4206 F600
G1 X-13.0196 Y-62.7249 F600
G1 X-13.0054 Y-63.0301 F600
G1 X-12.9909 Y-63.3383 F600
G1 X-12.9464 Y-63.6447 F600
G1 X-12.9011 Y-63.9565 F600
G1 X-12.8237 Y-64.2608 F600
G1 X-12.7485 Y-64.5563 F600
G1 X-12.6462 Y-64.8439 F600
G1 X-12.5418 Y-65.1372 F600
G1 X-12.4083 Y-65.4187 F600
G1 X-12.2762 Y-65.6974 F600
G1 X-12.1178 Y-65.9618 F600
G1 X-11.9591 Y-66.2268 F600
G1 X-11.7753 Y-66.4748 F600
G1 X-11.5894 Y-66.7259 F600
G1 X-11.3783 Y-66.9569 F600
G1 X-11.1737 Y-67.1807 F600
G1 X-10.9499 Y-67.3853 F600
G1 X-10.7189 Y-67.5964 F600
G1 X-10.4678 Y-67.7823 F600
G1 X-10.2198 Y-67.9661 F600
G1 X-9.9548 Y-68.1248 F600
G1 X-9.6904 Y-68.2832 F600
G1 X-9.4117 Y-68.4153 F600
G1 X-9.1302 Y-68.5488 F600
G1 X-8.8369 Y-68.6532 F600
G1 X-8.5493 Y-68.7555 F600
G1 X-8.2538 Y-68.8307 F600
G1 X-7.9495 Y-68.9081 F600
G1 X-7.6377 Y-68.9534 F600
G1 X-7.3313 Y-68.9979 F600
G1 X-7.0231 Y-69.0124 F600
G1 X-6.7179 Y-69.0266 F600
G1 X-6.4136 Y-69.0123 F600
G1 X-6.1066 Y-68.9979 F600
G1 X-5.8003 Y-68.9534 F600
G1 X-5.4885 Y-68.9081 F600
G1 X-5.1842 Y-68.8307 F600
G1 X-4.8887 Y-68.7555 F600
G1 X-4.6011 Y-68.6532 F600
G1 X-4.3078 Y-68.5488 F600
G1 X-4.0263 Y-68.4153 F600
G1 X-3.7476 Y-68.2832 F600
G1 X-3.4832 Y-68.1248 F600
G1 X-3.2182 Y-67.9661 F600
G1 X-2.9702 Y-67.7823 F600
G1 X-2.7191 Y-67.5964 F600
G1 X-2.4881 Y-67.3853 F600
G1 X-2.2643 Y-67.1807 F600
G1 X-2.1127 Y-67.0149 F600
G1 X-2.4527 Y-67.3870 F600
G1 X-0.0010 Y-67.3870 F600
G1 X2.4465 Y-67.3870 F600
G1 X2.1049 Y-67.0096 F600
G1 X2.2576 Y-67.1783 F600
G1 X2.4841 Y-67.3853 F600
G1 X2.7165 Y-67.5977 F600
G1 X2.9702 Y-67.7846 F600
G1 X3.2178 Y-67.9670 F600
G1 X3.4812 Y-68.1248 F600
G1 X3.7444 Y-68.2825 F600
G1 X4.0209 Y-68.4142 F600
G1 X4.3025 Y-68.5483 F600
G1 X4.5971 Y-68.6532 F600
G1 X4.8855 Y-68.7558 F600
G1 X5.1827 Y-68.8311 F600
G1 X5.4868 Y-68.9081 F600
G1 X5.7964 Y-68.9533 F600
G1 X6.1023 Y-68.9979 F600
G1 X6.4109 Y-69.0124 F600
G1 X6.7160 Y-69.0266 F600
G1 X7.0211 Y-69.0124 F600
G1 X7.3297 Y-68.9979 F600
G1 X7.6356 Y-68.9533 F600
G1 X7.9460 Y-68.9080 F600
G1 X8.2498 Y-68.8307 F600
G1 X8.5453 Y-68.7555 F600
G1 X8.8329 Y-68.6532 F600
G1 X9.1250 Y-68.5493 F600
G1 X9.4062 Y-68.4165 F600
G1 X9.6887 Y-68.2832 F600
G1 X9.9546 Y-68.1231 F600
G1 X10.2171 Y-67.9651 F600
G1 X10.4638 Y-67.7823 F600
G1 X10.7131 Y-67.5977 F600
G1 X10.9437 Y-67.3882 F600
G1 X11.1720 Y-67.1807 F600
G1 X11.3785 Y-66.9534 F600
G1 X11.5868 Y-66.7240 F600
G1 X11.7713 Y-66.4748 F600
G1 X11.9534 Y-66.2290 F600
G1 X12.1120 Y-65.9665 F600
G1 X12.2745 Y-65.6974 F600
G1 X12.4078 Y-65.4135 F600
G1 X12.5375 Y-65.1372 F600
G1 X12.6412 Y-64.8495 F600
G1 X12.7468 Y-64.5563 F600
G1 X12.8222 Y-64.2548 F600
G1 X12.8975 Y-63.9535 F600
G1 X12.9424 Y-63.6447 F600
G1 X12.9865 Y-63.3414 F600
G1 X13.0020 Y-63.0365 F600
G1 X13.0180 Y-62.7248 F600
G1 X13.0020 Y-62.4142 F600
G1 X12.9865 Y-62.1104 F600
G1 X12.9424 Y-61.8073 F600
G1 X12.8975 Y-61.4985 F600
G1 X12.8222 Y-61.1972 F600
G1 X12.7468 Y-60.8957 F600
G1 X12.6412 Y-60.6025 F600
G1 X12.5375 Y-60.3148 F600
G1 X12.4078 Y-60.0385 F600
G1 X12.2745 Y-59.7546 F600
G1 X12.1120 Y-59.4855 F600
G1 X11.9534 Y-59.2230 F600
G1 X11.7713 Y-58.9772 F600
G1 X11.5868 Y-58.7280 F600
G1 X11.3785 Y-58.4986 F600
G1 X11.1735 Y-58.2729 F600
G1 X11.0059 Y-58.1197 F600
G1 X11.3780 Y-58.4597 F600
G1 X11.3780 Y-56.0080 F600
G1 X11.3780 Y-53.5605 F600
G1 X11.0006 Y-53.9021 F600
G1 X11.1711 Y-53.7478 F600
G1 X11.3785 Y-53.5194 F600
G1 X11.5881 Y-53.2886 F600
G1 X11.7736 Y-53.0368 F600
G1 X11.9544 Y-52.7914 F600
G1 X12.1120 Y-52.5305 F600
G1 X12.2738 Y-52.2626 F600
G1 X12.4066 Y-51.9809 F600
G1 X12.5370 Y-51.7045 F600
G1 X12.6412 Y-51.4155 F600
G1 X12.7471 Y-51.1216 F600
G1 X12.8226 Y-50.8183 F600
G1 X12.8975 Y-50.5172 F600
G1 X12.9423 Y-50.2106 F600
G1 X12.9865 Y-49.9079 F600
G1 X13.0020 Y-49.6025 F600
G1 X13.0180 Y-49.2910 F600
G1 X13.0020 Y-48.9795 F600
G1 X12.9865 Y-48.6741 F600
G1 X12.9423 Y-48.3714 F600
G1 X12.8974 Y-48.0641 F600
G1 X12.8222 Y-47.7632 F600
G1 X12.7468 Y-47.4617 F600
G1 X12.6412 Y-47.1685 F600
G1 X12.5379 Y-46.8820 F600
G1 X12.4090 Y-46.6060 F600
G1 X12.2745 Y-46.3183 F600
G1 X12.1103 Y-46.0477 F600
G1 X11.9524 Y-45.7877 F600
G1 X11.7713 Y-45.5432 F600
G1 X11.5881 Y-45.2957 F600
G1 X11.3814 Y-45.0668 F600
G1 X11.1720 Y-44.8350 F600
G1 X10.9402 Y-44.6256 F600
G1 X10.7113 Y-44.4189 F600
G1 X10.4638 Y-44.2357 F600
G1 X10.2193 Y-44.0546 F600
G1 X9.9593 Y-43.8967 F600
G1 X9.6887 Y-43.7325 F600
G1 X9.4010 Y-43.5980 F600
G1 X9.1250 Y-43.4691 F600
G1 X8.8385 Y-43.3658 F600
G1 X8.5453 Y-43.2602 F600
G1 X8.2438 Y-43.1848 F600
G1 X7.9429 Y-43.1096 F600
G1 X7.6356 Y-43.0647 F600
G1 X7.3329 Y-43.0205 F600
G1 X7.0275 Y-43.0050 F600
G1 X6.7160 Y-42.9890 F600
G1 X6.4045 Y-43.0050 F600
G1 X6.0997 Y-43.0205 F600
G1 X5.9065 Y-43.0486 F600
G1 X7.4980 Y-42.8175 F600
G1 X7.4980 Y-28.7850 F600
G1 X7.4980 Y-20.9130 F600
G1 X7.4980 Y2.6960 F600
G1 X7.4980 Y2.7270 F600
G1 X7.4980 Y2.7590 F600
G1 X7.4980 Y26.3670 F600
G1 X7.4980 Y34.2470 F600
G1 X7.4980 Y50.6263 F600
G1 X4.9777 Y53.1467 F600
G1 X1.9344 Y56.1899 F600
G1 X0.6863 Y55.1636 F600
G1 X0.6034 Y55.0954 F600
G1 X0.5097 Y55.0452 F600
G1 X0.4166 Y54.9953 F600
G1 X0.3147 Y54.9644 F600
G1 X0.2120 Y54.9333 F600
G1 X0.1051 Y54.9228 F600
G1 X-0.0020 Y54.9122 F600
G1 X-0.1091 Y54.9228 F600
G1 X-0.2152 Y54.9332 F600
G1 X-0.3160 Y54.9639 F600
G1 X-0.4191 Y54.9953 F600
G1 X-0.5151 Y55.0465 F600
G1 X-0.6085 Y55.0963 F600
G1 X-0.6903 Y55.1636 F600
G1 X-1.9384 Y56.1899 F600
G1 X-4.9817 Y53.1467 F600
G1 X-7.5020 Y50.6263 F600
G1 X-7.5020 Y34.2400 F600
G1 X-7.5020 Y26.3670 F600
G1 X-7.5020 Y2.7590 F600
G1 X-7.5020 Y2.7270 F600
G1 X-7.5020 Y2.6960 F600
G1 X-7.5020 Y-20.9130 F600
G1 X-7.5020 Y-28.7920 F600
G1 X-7.5020 Y-42.8175 F600
G1 X-5.9105 Y-43.0486 F600
G1 X-6.1035 Y-43.0205 F600
G1 X-6.4072 Y-43.0050 F600
G1 X-6.7178 Y-42.9890 F600
G1 X-7.0295 Y-43.0050 F600
G1 X-7.3344 Y-43.0205 F600
G1 X-7.6377 Y-43.0646 F600
G1 X-7.9465 Y-43.1095 F600
G1 X-8.2478 Y-43.1848 F600
G1 X-8.5493 Y-43.2602 F600
G1 X-8.8425 Y-43.3658 F600
G1 X-9.1302 Y-43.4695 F600
G1 X-9.4065 Y-43.5992 F600
G1 X-9.6904 Y-43.7325 F600
G1 X-9.9595 Y-43.8950 F600
G1 X-10.2220 Y-44.0536 F600
G1 X-10.4678 Y-44.2357 F600
G1 X-10.7170 Y-44.4202 F600
G1 X-10.9464 Y-44.6285 F600
G1 X-11.1737 Y-44.8350 F600
G1 X-11.3812 Y-45.0633 F600
G1 X-11.5907 Y-45.2939 F600
G1 X-11.7753 Y-45.5432 F600
G1 X-11.9581 Y-45.7899 F600
G1 X-12.1161 Y-46.0524 F600
G1 X-12.2762 Y-46.3183 F600
G1 X-12.4095 Y-46.6008 F600
G1 X-12.5423 Y-46.8820 F600
G1 X-12.6462 Y-47.1741 F600
G1 X-12.7485 Y-47.4617 F600
G1 X-12.8237 Y-47.7572 F600
G1 X-12.9010 Y-48.0610 F600
G1 X-12.9463 Y-48.3714 F600
G1 X-12.9909 Y-48.6773 F600
G1 X-13.0054 Y-48.9859 F600
G1 X-13.0196 Y-49.2910 F600
G1 X-13.0054 Y-49.5961 F600
G1 X-12.9909 Y-49.9047 F600
G1 X-12.9463 Y-50.2106 F600
G1 X-12.9011 Y-50.5202 F600
G1 X-12.8241 Y-50.8243 F600
G1 X-12.7488 Y-51.1215 F600
G1 X-12.6462 Y-51.4099 F600
G1 X-12.5413 Y-51.7045 F600
G1 X-12.4072 Y-51.9861 F600
G1 X-12.2755 Y-52.2626 F600
G1 X-12.1178 Y-52.5258 F600
G1 X-11.9600 Y-52.7892 F600
G1 X-11.7776 Y-53.0368 F600
G1 X-11.5907 Y-53.2905 F600
G1 X-11.3783 Y-53.5229 F600
G1 X-11.1713 Y-53.7494 F600
G1 X-11.0026 Y-53.9021 F600
G1 X-11.3800 Y-53.5605 F600
G1 X-11.3800 Y-56.0080 F600
G1 X-11.3800 Y-58.4597 F600
G1 X-11.0079 Y-58.1197 F600
G1 Z-2.0000 F120
G1 X-11.1737 Y-58.2713 F600
G1 X-11.3783 Y-58.4951 F600
G1 X-11.5894 Y-58.7261 F600
G1 X-11.7753 Y-58.9772 F600
G1 X-11.9591 Y-59.2252 F600
G1 X-12.1178 Y-59.4902 F600
G1 X-12.2762 Y-59.7546 F600
G1 X-12.4083 Y-60.0333 F600
G1 X-12.5418 Y-60.3148 F600
G1 X-12.6462 Y-60.6081 F600
G1 X-12.7485 Y-60.8957 F600
G1 X-12.8237 Y-61.1912 F600
G1 X-12.9011 Y-61.4955 F600
G1 X-12.9464 Y-61.8073 F600
G1 X-12.9909 Y-62.1136 F600
G1 X-13.0053 Y-62.4206 F600
G1 X-13.0196 Y-62.7249 F600
G1 X-13.0054 Y-63.0301 F600
G1 X-12.9909 Y-63.3383 F600
G1 X-12.9464 Y-63.6447 F600
G1 X-12.9011 Y-63.9565 F600
G1 X-12.8237 Y-64.2608 F600
G1 X-12.7485 Y-64.5563 F600
G1 X-12.6462 Y-64.8439 F600
G1 X-12.5418 Y-65.1372 F600
G1 X-12.4083 Y-65.4187 F600
G1 X-12.2762 Y-65.6974 F600
G1 X-12.1178 Y-65.9618 F600
G1 X-11.9591 Y-66.2268 F600
G1 X-11.7753 Y-66.4748 F600
G1 X-11.5894 Y-66.7259 F600
G1 X-11.3783 Y-66.9569 F600
G1 X-11.1737 Y-67.1807 F600
G1 X-10.9499 Y-67.3853 F600
G1 X-10.7189 Y-67.5964 F600
G1 X-10.4678 Y-67.7823 F600
G1 X-10.2198 Y-67.9661 F600
G1 X-9.9548 Y-68.1248 F600
G1 X-9.6904 Y-68.2832 F600
G1 X-9.4117 Y-68.4153 F600
G1 X-9.1302 Y-68.5488 F600
G1 X-8.8369 Y-68.6532 F600
G1 X-8.5493 Y-68.7555 F600
G1 X-8.2538 Y-68.8307 F600
G1 X-7.9495 Y-68.9081 F600
G1 X-7.6377 Y-68.9534 F600
G1 X-7.3313 Y-68.9979 F600
G1 X-7.0231 Y-69.0124 F600
G1 X-6.7179 Y-69.0266 F600
G1 X-6.4136 Y-69.0123 F600
G1 X-6.1066 Y-68.9979 F600
G1 X-5.8003 Y-68.9534 F600
G1 X-5.4885 Y-68.9081 F600
G1 X-5.1842 Y-68.8307 F600
G1 X-4.8887 Y-68.7555 F600
G1 X-4.6011 Y-68.6532 F600
G1 X-4.3078 Y-68.5488 F600
G1 X-4.0263 Y-68.4153 F600
G1 X-3.7476 Y-68.2832 F600
G1 X-3.4832 Y-68.1248 F600
G1 X-3.2182 Y-67.9661 F600
G1 X-2.9702 Y-67.7823 F600
G1 X-2.7191 Y-67.5964 F600
G1 X-2.4881 Y-67.3853 F600
G1 X-2.2643 Y-67.1807 F600
G1 X-2.1127 Y-67.0149 F600
G1 X-2.4527 Y-67.3870 F600
G1 X-0.0010 Y-67.3870 F600
G1 X2.4465 Y-67.3870 F600
G1 X2.1049 Y-67.0096 F600
G1 X2.2576 Y-67.1783 F600
G1 X2.4841 Y-67.3853 F600
G1 X2.7165 Y-67.5977 F600
G1 X2.9702 Y-67.7846 F600
G1 X3.2178 Y-67.9670 F600
G1 X3.4812 Y-68.1248 F600
G1 X3.7444 Y-68.2825 F600
G1 X4.0209 Y-68.4142 F600
G1 X4.3025 Y-68.5483 F600
G1 X4.5971 Y-68.6532 F600
G1 X4.8855 Y-68.7558 F600
G1 X5.1827 Y-68.8311 F600
G1 X5.4868 Y-68.9081 F600
G1 X5.7964 Y-68.9533 F600
G1 X6.1023 Y-68.9979 F600
G1 X6.4109 Y-69.0124 F600
G1 X6.7160 Y-69.0266 F600
G1 X7.0211 Y-69.0124 F600
G1 X7.3297 Y-68.9979 F600
G1 X7.6356 Y-68.9533 F600
G1 X7.9460 Y-68.9080 F600
G1 X8.2498 Y-68.8307 F600
G1 X8.5453 Y-68.7555 F600
G1 X8.8329 Y-68.6532 F600
G1 X9.1250 Y-68.5493 F600
G1 X9.4062 Y-68.4165 F600
G1 X9.6887 Y-68.2832 F600
G1 X9.9546 Y-68.1231 F600
G1 X10.2171 Y-67.9651 F600
G1 X10.4638 Y-67.7823 F600
G1 X10.7131 Y-67.5977 F600
G1 X10.9437 Y-67.3882 F600
G1 X11.1720 Y-67.1807 F600
G1 X11.3785 Y-66.9534 F600
G1 X11.5868 Y-66.7240 F600
G1 X11.7713 Y-66.4748 F600
G1 X11.9534 Y-66.2290 F600
G1 X12.1120 Y-65.9665 F600
G1 X12.2745 Y-65.6974 F600
G1 X12.4078 Y-65.4135 F600
G1 X12.5375 Y-65.1372 F600
G1 X12.6412 Y-64.8495 F600
G1 X12.7468 Y-64.5563 F600
G1 X12.8222 Y-64.2548 F600
G1 X12.8975 Y-63.9535 F600
G1 X12.9424 Y-63.6447 F600
G1 X12.9865 Y-63.3414 F600
G1 X13.0020 Y-63.0365 F600
G1 X13.0180 Y-62.7248 F600
G1 X13.0020 Y-62.4142 F600
G1 X12.9865 Y-62.1104 F600
G1 X12.9424 Y-61.8073 F600
G1 X12.8975 Y-61.4985 F600
G1 X12.8222 Y-61.1972 F600
G1 X12.7468 Y-60.8957 F600
G1 X12.6412 Y-60.6025 F600
G1 X12.5375 Y-60.3148 F600
G1 X12.4078 Y-60.0385 F600
G1 X12.2745 Y-59.7546 F600
G1 X12.1120 Y-59.4855 F600
G1 X11.9534 Y-59.2230 F600
G1 X11.7713 Y-58.9772 F600
G1 X11.5868 Y-58.7280 F600
G1 X11.3785 Y-58.4986 F600
G1 X11.1735 Y-58.2729 F600
G1 X11.0059 Y-58.1197 F600
G1 X11.3780 Y-58.4597 F600
G1 X11.3780 Y-56.0080 F600
G1 X11.3780 Y-53.5605 F600
G1 X11.0006 Y-53.9021 F600
G1 X11.1711 Y-53.7478 F600
G1 X11.3785 Y-53.5194 F600
G1 X11.5881 Y-53.2886 F600
G1 X11.7736 Y-53.0368 F600
G1 X11.9544 Y-52.7914 F600
G1 X12.1120 Y-52.5305 F600
G1 X12.2738 Y-52.2626 F600
G1 X12.4066 Y-51.9809 F600
G1 X12.5370 Y-51.7045 F600
G1 X12.6412 Y-51.4155 F600
G1 X12.7471 Y-51.1216 F600
G1 X12.8226 Y-50.8183 F600
G1 X12.8975 Y-50.5172 F600
G1 X12.9423 Y-50.2106 F600
G1 X12.9865 Y-49.9079 F600
G1 X13.0020 Y-49.6025 F600
G1 X13.0180 Y-49.2910 F600
G1 X13.0020 Y-48.9795 F600
G1 X12.9865 Y-48.6741 F600
G1 X12.9423 Y-48.3714 F600
G1 X12.8974 Y-48.0641 F600
G1 X12.8222 Y-47.7632 F600
G1 X12.7468 Y-47.4617 F600
G1 X12.6412 Y-47.1685 F600
G1 X12.5379 Y-46.8820 F600
G1 X12.4090 Y-46.6060 F600
G1 X12.2745 Y-46.3183 F600
G1 X12.1103 Y-46.0477 F600
G1 X11.9524 Y-45.7877 F600
G1 X11.7713 Y-45.5432 F600
G1 X11.5881 Y-45.2957 F600
G1 X11.3814 Y-45.0668 F600
G1 X11.1720 Y-44.8350 F600
G1 X10.9402 Y-44.6256 F600
G1 X10.7113 Y-44.4189 F600
G1 X10.4638 Y-44.2357 F600
G1 X10.2193 Y-44.0546 F600
G1 X9.9593 Y-43.8967 F600
G1 X9.6887 Y-43.7325 F600
G1 X9.4010 Y-43.5980 F600
G1 X9.1250 Y-43.4691 F600
G1 X8.8385 Y-43.3658 F600
G1 X8.5453 Y-43.2602 F600
G1 X8.2438 Y-43.1848 F600
G1 X7.9429 Y-43.1096 F600
G1 X7.6356 Y-43.0647 F600
G1 X7.3329 Y-43.0205 F600
G1 X7.0275 Y-43.0050 F600
G1 X6.7160 Y-42.9890 F600
G1 X6.4045 Y-43.0050 F600
G1 X6.0997 Y-43.0205 F600
G1 X5.9065 Y-43.0486 F600
G1 X7.4980 Y-42.8175 F600
G1 X7.4980 Y-28.7850 F600
G1 X7.4980 Y-20.9130 F600
G1 X7.4980 Y2.6960 F600
G1 X7.4980 Y2.7270 F600
G1 X7.4980 Y2.7590 F600
G1 X7.4980 Y26.3670 F600
G1 X7.4980 Y34.2470 F600
G1 X7.4980 Y50.6263 F600
G1 X4.9777 Y53.1467 F600
G1 X1.9344 Y56.1899 F600
G1 X0.6863 Y55.1636 F600
G1 X0.6034 Y55.0954 F600
G1 X0.5097 Y55.0452 F600
G1 X0.4166 Y54.9953 F600
G1 X0.3147 Y54.9644 F600
G1 X0.2120 Y54.9333 F600
G1 X0.1051 Y54.9228 F600
G1 X-0.0020 Y54.9122 F600
G1 X-0.1091 Y54.9228 F600
G1 X-0.2152 Y54.9332 F600
G1 X-0.3160 Y54.9639 F600
G1 X-0.4191 Y54.9953 F600
G1 X-0.5151 Y55.0465 F600
G1 X-0.6085 Y55.0963 F600
G1 X-0.6903 Y55.1636 F600
G1 X-1.9384 Y56.1899 F600
G1 X-4.9817 Y53.1467 F600
G1 X-7.5020 Y50.6263 F600
G1 X-7.5020 Y34.2400 F600
G1 X-7.5020 Y26.3670 F600
G1 X-7.5020 Y2.7590 F600
G1 X-7.5020 Y2.7270 F600
G1 X-7.5020 Y2.6960 F600
G1 X-7.5020 Y-20.9130 F600
G1 X-7.5020 Y-28.7920 F600
G1 X-7.5020 Y-42.8175 F600
G1 X-5.9105 Y-43.0486 F600
G1 X-6.1035 Y-43.0205 F600
G1 X-6.4072 Y-43.0050 F600
G1 X-6.7178 Y-42.9890 F600
G1 X-7.0295 Y-43.0050 F600
G1 X-7.3344 Y-43.0205 F600
G1 X-7.6377 Y-43.0646 F600
G1 X-7.9465 Y-43.1095 F600
G1 X-8.2478 Y-43.1848 F600
G1 X-8.5493 Y-43.2602 F600
G1 X-8.8425 Y-43.3658 F600
G1 X-9.1302 Y-43.4695 F600
G1 X-9.4065 Y-43.5992 F600
G1 X-9.6904 Y-43.7325 F600
G1 X-9.9595 Y-43.8950 F600
G1 X-10.2220 Y-44.0536 F600
G1 X-10.4678 Y-44.2357 F600
G1 X-10.7170 Y-44.4202 F600
G1 X-10.9464 Y-44.6285 F600
G1 X-11.1737 Y-44.8350 F600
G1 X-11.3812 Y-45.0633 F600
G1 X-11.5907 Y-45.2939 F600
G1 X-11.7753 Y-45.5432 F600
G1 X-11.9581 Y-45.7899 F600
G1 X-12.1161 Y-46.0524 F600
G1 X-12.2762 Y-46.3183 F600
G1 X-12.4095 Y-46.6008 F600
G1 X-12.5423 Y-46.8820 F600
G1 X-12.6462 Y-47.1741 F600
G1 X-12.7485 Y-47.4617 F600
G1 X-12.8237 Y-47.7572 F600
G1 X-12.9010 Y-48.0610 F600
G1 X-12.9463 Y-48.3714 F600
G1 X-12.9909 Y-48.6773 F600
G1 X-13.0054 Y-48.9859 F600
G1 X-13.0196 Y-49.2910 F600
G1 X-13.0054 Y-49.5961 F600
G1 X-12.9909 Y-49.9047 F600
G1 X-12.9463 Y-50.2106 F600
G1 X-12.9011 Y-50.5202 F600
G1 X-12.8241 Y-50.8243 F600
G1 X-12.7488 Y-51.1215 F600
G1 X-12.6462 Y-51.4099 F600
G1 X-12.5413 Y-51.7045 F600
G1 X-12.4072 Y-51.9861 F600
G1 X-12.2755 Y-52.2626 F600
G1 X-12.1178 Y-52.5258 F600
G1 X-11.9600 Y-52.7892 F600
G1 X-11.7776 Y-53.0368 F600
G1 X-11.5907 Y-53.2905 F600
G1 X-11.3783 Y-53.5229 F600
G1 X-11.1713 Y-53.7494 F600
G1 X-11.0026 Y-53.9021 F600
G1 X-11.3800 Y-53.5605 F600
G1 X-11.3800 Y-56.0080 F600
G1 X-11.3800 Y-58.4597 F600
G1 X-11.0079 Y-58.1197 F600
G1 Z-2.5000 F120
G1 X-11.1737 Y-58.2713 F600
G1 X-11.3783 Y-58.4951 F600
G1 X-11.5894 Y-58.7261 F600
G1 X-11.7753 Y-58.9772 F600
G1 X-11.9591 Y-59.2252 F600
G1 X-12.1178 Y-59.4902 F600
G1 X-12.2762 Y-59.7546 F600
G1 X-12.4083 Y-60.0333 F600
G1 X-12.5418 Y-60.3148 F600
G1 X-12.6462 Y-60.6081 F600
G1 X-12.7485 Y-60.8957 F600
G1 X-12.8237 Y-61.1912 F600
G1 X-12.9011 Y-61.4955 F600
G1 X-12.9464 Y-61.8073 F600
G1 X-12.9909 Y-62.1136 F600
G1 X-13.0053 Y-62.4206 F600
G1 X-13.0196 Y-62.7249 F600
G1 X-13.0054 Y-63.0301 F600
G1 X-12.9909 Y-63.3383 F600
G1 X-12.9464 Y-63.6447 F600
G1 X-12.9011 Y-63.9565 F600
G1 X-12.8237 Y-64.2608 F600
G1 X-12.7485 Y-64.5563 F600
G1 X-12.6462 Y-64.8439 F600
G1 X-12.5418 Y-65.1372 F600
G1 X-12.4083 Y-65.4187 F600
G1 X-12.2762 Y-65.6974 F600
G1 X-12.1178 Y-65.9618 F600
G1 X-11.9591 Y-66.2268 F600
G1 X-11.7753 Y-66.4748 F600
G1 X-11.5894 Y-66.7259 F600
G1 X-11.3783 Y-66.9569 F600
G1 X-11.1737 Y-67.1807 F600
G1 X-10.9499 Y-67.3853 F600
G1 X-10.7189 Y-67.5964 F600
G1 X-10.4678 Y-67.7823 F600
G1 X-10.2198 Y-67.9661 F600
G1 X-9.9548 Y-68.1248 F600
G1 X-9.6904 Y-68.2832 F600
G1 X-9.4117 Y-68.4153 F600
G1 X-9.1302 Y-68.5488 F600
G1 X-8.8369 Y-68.6532 F600
G1 X-8.5493 Y-68.7555 F600
G1 X-8.2538 Y-68.8307 F600
G1 X-7.9495 Y-68.9081 F600
G1 X-7.6377 Y-68.9534 F600
G1 X-7.3313 Y-68.9979 F600
G1 X-7.0231 Y-69.0124 F600
G1 X-6.7179 Y-69.0266 F600
G1 X-6.4136 Y-69.0123 F600
G1 X-6.1066 Y-68.9979 F600
G1 X-5.8003 Y-68.9534 F600
G1 X-5.4885 Y-68.9081 F600
G1 X-5.1842 Y-68.8307 F600
G1 X-4.8887 Y-68.7555 F600
G1 X-4.6011 Y-68.6532 F600
G1 X-4.3078 Y-68.5488 F600
G1 X-4.0263 Y-68.4153 F600
G1 X-3.7476 Y-68.2832 F600
G1 X-3.4832 Y-68.1248 F600
G1 X-3.2182 Y-67.9661 F600
G1 X-2.9702 Y-67.7823 F600
G1 X-2.7191 Y-67.5964 F600
G1 X-2.4881 Y-67.3853 F600
G1 X-2.2643 Y-67.1807 F600
G1 X-2.1127 Y-67.0149 F600
G1 X-2.4527 Y-67.3870 F600
G1 X-0.0010 Y-67.3870 F600
G1 X2.4465 Y-67.3870 F600
G1 X2.1049 Y-67.0096 F600
G1 X2.2576 Y-67.1783 F600
G1 X2.4841 Y-67.3853 F600
G1 X2.7165 Y-67.5977 F600
G1 X2.9702 Y-67.7846 F600
G1 X3.2178 Y-67.9670 F600
G1 X3.4812 Y-68.1248 F600
G1 X3.7444 Y-68.2825 F600
G1 X4.0209 Y-68.4142 F600
G1 X4.3025 Y-68.5483 F600
G1 X4.5971 Y-68.6532 F600
G1 X4.8855 Y-68.7558 F600
G1 X5.1827 Y-68.8311 F600
G1 X5.4868 Y-68.9081 F600
G1 X5.7964 Y-68.9533 F600
G1 X6.1023 Y-68.9979 F600
G1 X6.4109 Y-69.0124 F600
G1 X6.7160 Y-69.0266 F600
G1 X7.0211 Y-69.0124 F600
G1 X7.3297 Y-68.9979 F600
G1 X7.6356 Y-68.9533 F600
G1 X7.9460 Y-68.9080 F600
G1 X8.2498 Y-68.8307 F600
G1 X8.5453 Y-68.7555 F600
G1 X8.8329 Y-68.6532 F600
G1 X9.1250 Y-68.5493 F600
G1 X9.4062 Y-68.4165 F600
G1 X9.6887 Y-68.2832 F600
G1 X9.9546 Y-68.1231 F600
G1 X10.2171 Y-67.9651 F600
G1 X10.4638 Y-67.7823 F600
G1 X10.7131 Y-67.5977 F600
G1 X10.9437 Y-67.3882 F600
G1 X11.1720 Y-67.1807 F600
G1 X11.3785 Y-66.9534 F600
G1 X11.5868 Y-66.7240 F600
G1 X11.7713 Y-66.4748 F600
G1 X11.9534 Y-66.2290 F600
G1 X12.1120 Y-65.9665 F600
G1 X12.2745 Y-65.6974 F600
G1 X12.4078 Y-65.4135 F600
G1 X12.5375 Y-65.1372 F600
G1 X12.6412 Y-64.8495 F600
G1 X12.7468 Y-64.5563 F600
G1 X12.8222 Y-64.2548 F600
G1 X12.8975 Y-63.9535 F600
G1 X12.9424 Y-63.6447 F600
G1 X12.9865 Y-63.3414 F600
G1 X13.0020 Y-63.0365 F600
G1 X13.0180 Y-62.7248 F600
G1 X13.0020 Y-62.4142 F600
G1 X12.9865 Y-62.1104 F600
G1 X12.9424 Y-61.8073 F600
G1 X12.8975 Y-61.4985 F600
G1 X12.8222 Y-61.1972 F600
G1 X12.7468 Y-60.8957 F600
G1 X12.6412 Y-60.6025 F600
G1 X12.5375 Y-60.3148 F600
G1 X12.4078 Y-60.0385 F600
G1 X12.2745 Y-59.7546 F600
G1 X12.1120 Y-59.4855 F600
G1 X11.9534 Y-59.2230 F600
G1 X11.7713 Y-58.9772 F600
G1 X11.5868 Y-58.7280 F600
G1 X11.3785 Y-58.4986 F600
G1 X11.1735 Y-58.2729 F600
G1 X11.0059 Y-58.1197 F600
G1 X11.3780 Y-58.4597 F600
G1 X11.3780 Y-56.0080 F600
G1 X11.3780 Y-53.5605 F600
G1 X11.0006 Y-53.9021 F600
G1 X11.1711 Y-53.7478 F600
G1 X11.3785 Y-53.5194 F600
G1 X11.5881 Y-53.2886 F600
G1 X11.7736 Y-53.0368 F600
G1 X11.9544 Y-52.7914 F600
G1 X12.1120 Y-52.5305 F600
G1 X12.2738 Y-52.2626 F600
G1 X12.4066 Y-51.9809 F600
G1 X12.5370 Y-51.7045 F600
G1 X12.6412 Y-51.4155 F600
G1 X12.7471 Y-51.1216 F600
G1 X12.8226 Y-50.8183 F600
G1 X12.8975 Y-50.5172 F600
G1 X12.9423 Y-50.2106 F600
G1 X12.9865 Y-49.9079 F600
G1 X13.0020 Y-49.6025 F600
G1 X13.0180 Y-49.2910 F600
G1 X13.0020 Y-48.9795 F600
G1 X12.9865 Y-48.6741 F600
G1 X12.9423 Y-48.3714 F600
G1 X12.8974 Y-48.0641 F600
G1 X12.8222 Y-47.7632 F600
G1 X12.7468 Y-47.4617 F600
G1 X12.6412 Y-47.1685 F600
G1 X12.5379 Y-46.8820 F600
G1 X12.4090 Y-46.6060 F600
G1 X12.2745 Y-46.3183 F600
G1 X12.1103 Y-46.0477 F600
G1 X11.9524 Y-45.7877 F600
G1 X11.7713 Y-45.5432 F600
G1 X11.5881 Y-45.2957 F600
G1 X11.3814 Y-45.0668 F600
G1 X11.1720 Y-44.8350 F600
G1 X10.9402 Y-44.6256 F600
G1 X10.7113 Y-44.4189 F600
G1 X10.4638 Y-44.2357 F600
G1 X10.2193 Y-44.0546 F600
G1 X9.9593 Y-43.8967 F600
G1 X9.6887 Y-43.7325 F600
G1 X9.4010 Y-43.5980 F600
G1 X9.1250 Y-43.4691 F600
G1 X8.8385 Y-43.3658 F600
G1 X8.5453 Y-43.2602 F600
G1 X8.2438 Y-43.1848 F600
G1 X7.9429 Y-43.1096 F600
G1 X7.6356 Y-43.0647 F600
G1 X7.3329 Y-43.0205 F600
G1 X7.0275 Y-43.0050 F600
G1 X6.7160 Y-42.9890 F600
G1 X6.4045 Y-43.0050 F600
G1 X6.0997 Y-43.0205 F600
G1 X5.9065 Y-43.0486 F600
G1 X7.4980 Y-42.8175 F600
G1 X7.4980 Y-28.7850 F600
G1 X7.4980 Y-20.9130 F600
G1 X7.4980 Y2.6960 F600
G1 X7.4980 Y2.7270 F600
G1 X7.4980 Y2.7590 F600
G1 X7.4980 Y26.3670 F600
G1 X7.4980 Y34.2470 F600
G1 X7.4980 Y50.6263 F600
G1 X4.9777 Y53.1467 F600
G1 X1.9344 Y56.1899 F600
G1 X0.6863 Y55.1636 F600
G1 X0.6034 Y55.0954 F600
G1 X0.5097 Y55.0452 F600
G1 X0.4166 Y54.9953 F600
G1 X0.3147 Y54.9644 F600
G1 X0.2120 Y54.9333 F600
G1 X0.1051 Y54.9228 F600
G1 X-0.0020 Y54.9122 F600
G1 X-0.1091 Y54.9228 F600
G1 X-0.2152 Y54.9332 F600
G1 X-0.3160 Y54.9639 F600
G1 X-0.4191 Y54.9953 F600
G1 X-0.5151 Y55.0465 F600
G1 X-0.6085 Y55.0963 F600
G1 X-0.6903 Y55.1636 F600
G1 X-1.9384 Y56.1899 F600
G1 X-4.9817 Y53.1467 F600
G1 X-7.5020 Y50.6263 F600
G1 X-7.5020 Y34.2400 F600
G1 X-7.5020 Y26.3670 F600
G1 X-7.5020 Y2.7590 F600
G1 X-7.5020 Y2.7270 F600
G1 X-7.5020 Y2.6960 F600
G1 X-7.5020 Y-20.9130 F600
G1 X-7.5020 Y-28.7920 F600
G1 X-7.5020 Y-42.8175 F600
G1 X-5.9105 Y-43.0486 F600
G1 X-6.1035 Y-43.0205 F600
G1 X-6.4072 Y-43.0050 F600
G1 X-6.7178 Y-42.9890 F600
G1 X-7.0295 Y-43.0050 F600
G1 X-7.3344 Y-43.0205 F600
G1 X-7.6377 Y-43.0646 F600
G1 X-7.9465 Y-43.1095 F600
G1 X-8.2478 Y-43.1848 F600
G1 X-8.5493 Y-43.2602 F600
G1 X-8.8425 Y-43.3658 F600
G1 X-9.1302 Y-43.4695 F600
G1 X-9.4065 Y-43.5992 F600
G1 X-9.6904 Y-43.7325 F600
G1 X-9.9595 Y-43.8950 F600
G1 X-10.2220 Y-44.0536 F600
G1 X-10.4678 Y-44.2357 F600
G1 X-10.7170 Y-44.4202 F600
G1 X-10.9464 Y-44.6285 F600
G1 X-11.1737 Y-44.8350 F600
G1 X-11.3812 Y-45.0633 F600
G1 X-11.5907 Y-45.2939 F600
G1 X-11.7753 Y-45.5432 F600
G1 X-11.9581 Y-45.7899 F600
G1 X-12.1161 Y-46.0524 F600
G1 X-12.2762 Y-46.3183 F600
G1 X-12.4095 Y-46.6008 F600
G1 X-12.5423 Y-46.8820 F600
G1 X-12.6462 Y-47.1741 F600
G1 X-12.7485 Y-47.4617 F600
G1 X-12.8237 Y-47.7572 F600
G1 X-12.9010 Y-48.0610 F600
G1 X-12.9463 Y-48.3714 F600
G1 X-12.9909 Y-48.6773 F600
G1 X-13.0054 Y-48.9859 F600
G1 X-13.0196 Y-49.2910 F600
G1 X-13.0054 Y-49.5961 F600
G1 X-12.9909 Y-49.9047 F600
G1 X-12.9463 Y-50.2106 F600
G1 X-12.9011 Y-50.5202 F600
G1 X-12.8241 Y-50.8243 F600
G1 X-12.7488 Y-51.1215 F600
G1 X-12.6462 Y-51.4099 F600
G1 X-12.5413 Y-51.7045 F600
G1 X-12.4072 Y-51.9861 F600
G1 X-12.2755 Y-52.2626 F600
G1 X-12.1178 Y-52.5258 F600
G1 X-11.9600 Y-52.7892 F600
G1 X-11.7776 Y-53.0368 F600
G1 X-11.5907 Y-53.2905 F600
G1 X-11.3783 Y-53.5229 F600
G1 X-11.1713 Y-53.7494 F600
G1 X-11.0026 Y-53.9021 F600
G1 X-11.3800 Y-53.5605 F600
G1 X-11.3800 Y-56.0080 F600
G1 X-11.3800 Y-58.4597 F600
G1 X-11.0079 Y-58.1197 F600
G1 Z-3.0000 F120
G1 X-11.1737 Y-58.2713 F600
G1 X-11.3783 Y-58.4951 F600
G1 X-11.5894 Y-58.7261 F600
G1 X-11.7753 Y-58.9772 F600
G1 X-11.9591 Y-59.2252 F600
G1 X-12.1178 Y-59.4902 F600
G1 X-12.2762 Y-59.7546 F600
G1 X-12.4083 Y-60.0333 F600
G1 X-12.5418 Y-60.3148 F600
G1 X-12.6462 Y-60.6081 F600
G1 X-12.7485 Y-60.8957 F600
G1 X-12.8237 Y-61.1912 F600
G1 X-12.9011 Y-61.4955 F600
G1 X-12.9464 Y-61.8073 F600
G1 X-12.9909 Y-62.1136 F600
G1 X-13.0053 Y-62.4206 F600
G1 X-13.0196 Y-62.7249 F600
G1 X-13.0054 Y-63.0301 F600
G1 X-12.9909 Y-63.3383 F600
G1 X-12.9464 Y-63.6447 F600
G1 X-12.9011 Y-63.9565 F600
G1 X-12.8237 Y-64.2608 F600
G1 X-12.7485 Y-64.5563 F600
G1 X-12.6462 Y-64.8439 F600
G1 X-12.5418 Y-65.1372 F600
G1 X-12.4083 Y-65.4187 F600
G1 X-12.2762 Y-65.6974 F600
G1 X-12.1178 Y-65.9618 F600
G1 X-11.9591 Y-66.2268 F600
G1 X-11.7753 Y-66.4748 F600
G1 X-11.5894 Y-66.7259 F600
G1 X-11.3783 Y-66.9569 F600
G1 X-11.1737 Y-67.1807 F600
G1 X-10.9499 Y-67.3853 F600
G1 X-10.7189 Y-67.5964 F600
G1 X-10.4678 Y-67.7823 F600
G1 X-10.2198 Y-67.9661 F600
G1 X-9.9548 Y-68.1248 F600
G1 X-9.6904 Y-68.2832 F600
G1 X-9.4117 Y-68.4153 F600
G1 X-9.1302 Y-68.5488 F600
G1 X-8.8369 Y-68.6532 F600
G1 X-8.5493 Y-68.7555 F600
G1 X-8.2538 Y-68.8307 F600
G1 X-7.9495 Y-68.9081 F600
G1 X-7.6377 Y-68.9534 F600
G1 X-7.3313 Y-68.9979 F600
G1 X-7.0231 Y-69.0124 F600
G1 X-6.7179 Y-69.0266 F600
G1 X-6.4136 Y-69.0123 F600
G1 X-6.1066 Y-68.9979 F600
G1 X-5.8003 Y-68.9534 F600
G1 X-5.4885 Y-68.9081 F600
G1 X-5.1842 Y-68.8307 F600
G1 X-4.8887 Y-68.7555 F600
G1 X-4.6011 Y-68.6532 F600
G1 X-4.3078 Y-68.5488 F600
G1 X-4.0263 Y-68.4153 F600
G1 X-3.7476 Y-68.2832 F600
G1 X-3.4832 Y-68.1248 F600
G1 X-3.2182 Y-67.9661 F600
G1 X-2.9702 Y-67.7823 F600
G1 X-2.7191 Y-67.5964 F600
G1 X-2.4881 Y-67.3853 F600
G1 X-2.2643 Y-67.1807 F600
G1 X-2.1127 Y-67.0149 F600
G1 X-2.4527 Y-67.3870 F600
G1 X-0.0010 Y-67.3870 F600
G1 X2.4465 Y-67.3870 F600
G1 X2.1049 Y-67.0096 F600
G1 X2.2576 Y-67.1783 F600
G1 X2.4841 Y-67.3853 F600
G1 X2.7165 Y-67.5977 F600
G1 X2.9702 Y-67.7846 F600
G1 X3.2178 Y-67.9670 F600
G1 X3.4812 Y-68.1248 F600
G1 X3.7444 Y-68.2825 F600
G1 X4.0209 Y-68.4142 F600
G1 X4.3025 Y-68.5483 F600
G1 X4.5971 Y-68.6532 F600
G1 X4.8855 Y-68.7558 F600
G1 X5.1827 Y-68.8311 F600
G1 X5.4868 Y-68.9081 F600
G1 X5.7964 Y-68.9533 F600
G1 X6.1023 Y-68.9979 F600
G1 X6.4109 Y-69.0124 F600
G1 X6.7160 Y-69.0266 F600
G1 X7.0211 Y-69.0124 F600
G1 X7.3297 Y-68.9979 F600
G1 X7.6356 Y-68.9533 F600
G1 X7.9460 Y-68.9080 F600
G1 X8.2498 Y-68.8307 F600
G1 X8.5453 Y-68.7555 F600
G1 X8.8329 Y-68.6532 F600
G1 X9.1250 Y-68.5493 F600
G1 X9.4062 Y-68.4165 F600
G1 X9.6887 Y-68.2832 F600
G1 X9.9546 Y-68.1231 F600
G1 X10.2171 Y-67.9651 F600
G1 X10.4638 Y-67.7823 F600
G1 X10.7131 Y-67.5977 F600
G1 X10.9437 Y-67.3882 F600
G1 X11.1720 Y-67.1807 F600
G1 X11.3785 Y-66.9534 F600
G1 X11.5868 Y-66.7240 F600
G1 X11.7713 Y-66.4748 F600
G1 X11.9534 Y-66.2290 F600
G1 X12.1120 Y-65.9665 F600
G1 X12.2745 Y-65.6974 F600
G1 X12.4078 Y-65.4135 F600
G1 X12.5375 Y-65.1372 F600
G1 X12.6412 Y-64.8495 F600
G1 X12.7468 Y-64.5563 F600
G1 X12.8222 Y-64.2548 F600
G1 X12.8975 Y-63.9535 F600
G1 X12.9424 Y-63.6447 F600
G1 X12.9865 Y-63.3414 F600
G1 X13.0020 Y-63.0365 F600
G1 X13.0180 Y-62.7248 F600
G1 X13.0020 Y-62.4142 F600
G1 X12.9865 Y-62.1104 F600
G1 X12.9424 Y-61.8073 F600
G1 X12.8975 Y-61.4985 F600
G1 X12.8222 Y-61.1972 F600
G1 X12.7468 Y-60.8957 F600
G1 X12.6412 Y-60.6025 F600
G1 X12.5375 Y-60.3148 F600
G1 X12.4078 Y-60.0385 F600
G1 X12.2745 Y-59.7546 F600
G1 X12.1120 Y-59.4855 F600
G1 X11.9534 Y-59.2230 F600
G1 X11.7713 Y-58.9772 F600
G1 X11.5868 Y-58.7280 F600
G1 X11.3785 Y-58.4986 F600
G1 X11.1735 Y-58.2729 F600
G1 X11.0059 Y-58.1197 F600
G1 X11.3780 Y-58.4597 F600
G1 X11.3780 Y-56.0080 F600
G1 X11.3780 Y-53.5605 F600
G1 X11.0006 Y-53.9021 F600
G1 X11.1711 Y-53.7478 F600
G1 X11.3785 Y-53.5194 F600
G1 X11.5881 Y-53.2886 F600
G1 X11.7736 Y-53.0368 F600
G1 X11.9544 Y-52.7914 F600
G1 X12.1120 Y-52.5305 F600
G1 X12.2738 Y-52.2626 F600
G1 X12.4066 Y-51.9809 F600
G1 X12.5370 Y-51.7045 F600
G1 X12.6412 Y-51.4155 F600
G1 X12.7471 Y-51.1216 F600
G1 X12.8226 Y-50.8183 F600
G1 X12.8975 Y-50.5172 F600
G1 X12.9423 Y-50.2106 F600
G1 X12.9865 Y-49.9079 F600
G1 X13.0020 Y-49.6025 F600
G1 X13.0180 Y-49.2910 F600
G1 X13.0020 Y-48.9795 F600
G1 X12.9865 Y-48.6741 F600
G1 X12.9423 Y-48.3714 F600
G1 X12.8974 Y-48.0641 F600
G1 X12.8222 Y-47.7632 F600
G1 X12.7468 Y-47.4617 F600
G1 X12.6412 Y-47.1685 F600
G1 X12.5379 Y-46.8820 F600
G1 X12.4090 Y-46.6060 F600
G1 X12.2745 Y-46.3183 F600
G1 X12.1103 Y-46.0477 F600
G1 X11.9524 Y-45.7877 F600
G1 X11.7713 Y-45.5432 F600
G1 X11.5881 Y-45.2957 F600
G1 X11.3814 Y-45.0668 F600
G1 X11.1720 Y-44.8350 F600
G1 X10.9402 Y-44.6256 F600
G1 X10.7113 Y-44.4189 F600
G1 X10.4638 Y-44.2357 F600
G1 X10.2193 Y-44.0546 F600
G1 X9.9593 Y-43.8967 F600
G1 X9.6887 Y-43.7325 F600
G1 X9.4010 Y-43.5980 F600
G1 X9.1250 Y-43.4691 F600
G1 X8.8385 Y-43.3658 F600
G1 X8.5453 Y-43.2602 F600
G1 X8.2438 Y-43.1848 F600
G1 X7.9429 Y-43.1096 F600
G1 X7.6356 Y-43.0647 F600
G1 X7.3329 Y-43.0205 F600
G1 X7.0275 Y-43.0050 F600
G1 X6.7160 Y-42.9890 F600
G1 X6.4045 Y-43.0050 F600
G1 X6.0997 Y-43.0205 F600
G1 X5.9065 Y-43.0486 F600
G1 X7.4980 Y-42.8175 F600
G1 X7.4980 Y-28.7850 F600
G1 X7.4980 Y-20.9130 F600
G1 X7.4980 Y2.6960 F600
G1 X7.4980 Y2.7270 F600
G1 X7.4980 Y2.7590 F600
G1 X7.4980 Y26.3670 F600
G1 X7.4980 Y34.2470 F600
G1 X7.4980 Y50.6263 F600
G1 X4.9777 Y53.1467 F600
G1 X1.9344 Y56.1899 F600
G1 X0.6863 Y55.1636 F600
G1 X0.6034 Y55.0954 F600
G1 X0.5097 Y55.0452 F600
G1 X0.4166 Y54.9953 F600
G1 X0.3147 Y54.9644 F600
G1 X0.2120 Y54.9333 F600
G1 X0.1051 Y54.9228 F600
G1 X-0.0020 Y54.9122 F600
G1 X-0.1091 Y54.9228 F600
G1 X-0.2152 Y54.9332 F600
G1 X-0.3160 Y54.9639 F600
G1 X-0.4191 Y54.9953 F600
G1 X-0.5151 Y55.0465 F600
G1 X-0.6085 Y55.0963 F600
G1 X-0.6903 Y55.1636 F600
G1 X-1.9384 Y56.1899 F600
G1 X-4.9817 Y53.1467 F600
G1 X-7.5020 Y50.6263 F600
G1 X-7.5020 Y34.2400 F600
G1 X-7.5020 Y26.3670 F600
G1 X-7.5020 Y2.7590 F600
G1 X-7.5020 Y2.7270 F600
G1 X-7.5020 Y2.6960 F600
G1 X-7.5020 Y-20.9130 F600
G1 X-7.5020 Y-28.7920 F600
G1 X-7.5020 Y-42.8175 F600
G1 X-5.9105 Y-43.0486 F600
G1 X-6.1035 Y-43.0205 F600
G1 X-6.4072 Y-43.0050 F600
G1 X-6.7178 Y-42.9890 F600
G1 X-7.0295 Y-43.0050 F600
G1 X-7.3344 Y-43.0205 F600
G1 X-7.6377 Y-43.0646 F600
G1 X-7.9465 Y-43.1095 F600
G1 X-8.2478 Y-43.1848 F600
G1 X-8.5493 Y-43.2602 F600
G1 X-8.8425 Y-43.3658 F600
G1 X-9.1302 Y-43.4695 F600
G1 X-9.4065 Y-43.5992 F600
G1 X-9.6904 Y-43.7325 F600
G1 X-9.9595 Y-43.8950 F600
G1 X-10.2220 Y-44.0536 F600
G1 X-10.4678 Y-44.2357 F600
G1 X-10.7170 Y-44.4202 F600
G1 X-10.9464 Y-44.6285 F600
G1 X-11.1737 Y-44.8350 F600
G1 X-11.3812 Y-45.0633 F600
G1 X-11.5907 Y-45.2939 F600
G1 X-11.7753 Y-45.5432 F600
G1 X-11.9581 Y-45.7899 F600
G1 X-12.1161 Y-46.0524 F600
G1 X-12.2762 Y-46.3183 F600
G1 X-12.4095 Y-46.6008 F600
G1 X-12.5423 Y-46.8820 F600
G1 X-12.6462 Y-47.1741 F600
G1 X-12.7485 Y-47.4617 F600
G1 X-12.8237 Y-47.7572 F600
G1 X-12.9010 Y-48.0610 F600
G1 X-12.9463 Y-48.3714 F600
G1 X-12.9909 Y-48.6773 F600
G1 X-13.0054 Y-48.9859 F600
G1 X-13.0196 Y-49.2910 F600
G1 X-13.0054 Y-49.5961 F600
G1 X-12.9909 Y-49.9047 F600
G1 X-12.9463 Y-50.2106 F600
G1 X-12.9011 Y-50.5202 F600
G1 X-12.8241 Y-50.8243 F600
G1 X-12.7488 Y-51.1215 F600
G1 X-12.6462 Y-51.4099 F600
G1 X-12.5413 Y-51.7045 F600
G1 X-12.4072 Y-51.9861 F600
G1 X-12.2755 Y-52.2626 F600
G1 X-12.1178 Y-52.5258 F600
G1 X-11.9600 Y-52.7892 F600
G1 X-11.7776 Y-53.0368 F600
G1 X-11.5907 Y-53.2905 F600
G1 X-11.3783 Y-53.5229 F600
G1 X-11.1713 Y-53.7494 F600
G1 X-11.0026 Y-53.9021 F600
G1 X-11.3800 Y-53.5605 F600
G1 X-11.3800 Y-56.0080 F600
G1 X-11.3800 Y-58.4597 F600
G1 X-11.0079 Y-58.1197 F600
G1 Z-3.5000 F120
G1 X-11.1737 Y-58.2713 F600
G1 X-11.3783 Y-58.4951 F600
G1 X-11.5894 Y-58.7261 F600
G1 X-11.7753 Y-58.9772 F600
G1 X-11.9591 Y-59.2252 F600
G1 X-12.1178 Y-59.4902 F600
G1 X-12.2762 Y-59.7546 F600
G1 X-12.4083 Y-60.0333 F600
G1 X-12.5418 Y-60.3148 F600
G1 X-12.6462 Y-60.6081 F600
G1 X-12.7485 Y-60.8957 F600
G1 X-12.8237 Y-61.1912 F600
G1 X-12.9011 Y-61.4955 F600
G1 X-12.9464 Y-61.8073 F600
G1 X-12.9909 Y-62.1136 F600
G1 X-13.0053 Y-62.4206 F600
G1 X-13.0196 Y-62.7249 F600
G1 X-13.0054 Y-63.0301 F600
G1 X-12.9909 Y-63.3383 F600
G1 X-12.9464 Y-63.6447 F600
G1 X-12.9011 Y-63.9565 F600
G1 X-12.8237 Y-64.2608 F600
G1 X-12.7485 Y-64.5563 F600
G1 X-12.6462 Y-64.8439 F600
G1 X-12.5418 Y-65.1372 F600
G1 X-12.4083 Y-65.4187 F600
G1 X-12.2762 Y-65.6974 F600
G1 X-12.1178 Y-65.9618 F600
G1 X-11.9591 Y-66.2268 F600
G1 X-11.7753 Y-66.4748 F600
G1 X-11.5894 Y-66.7259 F600
G1 X-11.3783 Y-66.9569 F600
G1 X-11.1737 Y-67.1807 F600
G1 X-10.9499 Y-67.3853 F600
G1 X-10.7189 Y-67.5964 F600
G1 X-10.4678 Y-67.7823 F600
G1 X-10.2198 Y-67.9661 F600
G1 X-9.9548 Y-68.1248 F600
G1 X-9.6904 Y-68.2832 F600
G1 X-9.4117 Y-68.4153 F600
G1 X-9.1302 Y-68.5488 F600
G1 X-8.8369 Y-68.6532 F600
G1 X-8.5493 Y-68.7555 F600
G1 X-8.2538 Y-68.8307 F600
G1 X-7.9495 Y-68.9081 F600
G1 X-7.6377 Y-68.9534 F600
G1 X-7.3313 Y-68.9979 F600
G1 X-7.0231 Y-69.0124 F600
G1 X-6.7179 Y-69.0266 F600
G1 X-6.4136 Y-69.0123 F600
G1 X-6.1066 Y-68.9979 F600
G1 X-5.8003 Y-68.9534 F600
G1 X-5.4885 Y-68.9081 F600
G1 X-5.1842 Y-68.8307 F600
G1 X-4.8887 Y-68.7555 F600
G1 X-4.6011 Y-68.6532 F600
G1 X-4.3078 Y-68.5488 F600
G1 X-4.0263 Y-68.4153 F600
G1 X-3.7476 Y-68.2832 F600
G1 X-3.4832 Y-68.1248 F600
G1 X-3.2182 Y-67.9661 F600
G1 X-2.9702 Y-67.7823 F600
G1 X-2.7191 Y-67.5964 F600
G1 X-2.4881 Y-67.3853 F600
G1 X-2.2643 Y-67.1807 F600
G1 X-2.1127 Y-67.0149 F600
G1 X-2.4527 Y-67.3870 F600
G1 X-0.0010 Y-67.3870 F600
G1 X2.4465 Y-67.3870 F600
G1 X2.1049 Y-67.0096 F600
G1 X2.2576 Y-67.1783 F600
G1 X2.4841 Y-67.3853 F600
G1 X2.7165 Y-67.5977 F600
G1 X2.9702 Y-67.7846 F600
G1 X3.2178 Y-67.9670 F600
G1 X3.4812 Y-68.1248 F600
G1 X3.7444 Y-68.2825 F600
G1 X4.0209 Y-68.4142 F600
G1 X4.3025 Y-68.5483 F600
G1 X4.5971 Y-68.6532 F600
G1 X4.8855 Y-68.7558 F600
G1 X5.1827 Y-68.8311 F600
G1 X5.4868 Y-68.9081 F600
G1 X5.7964 Y-68.9533 F600
G1 X6.1023 Y-68.9979 F600
G1 X6.4109 Y-69.0124 F600
G1 X6.7160 Y-69.0266 F600
G1 X7.0211 Y-69.0124 F600
G1 X7.3297 Y-68.9979 F600
G1 X7.6356 Y-68.9533 F600
G1 X7.9460 Y-68.9080 F600
G1 X8.2498 Y-68.8307 F600
G1 X8.5453 Y-68.7555 F600
G1 X8.8329 Y-68.6532 F600
G1 X9.1250 Y-68.5493 F600
G1 X9.4062 Y-68.4165 F600
G1 X9.6887 Y-68.2832 F600
G1 X9.9546 Y-68.1231 F600
G1 X10.2171 Y-67.9651 F600
G1 X10.4638 Y-67.7823 F600
G1 X10.7131 Y-67.5977 F600
G1 X10.9437 Y-67.3882 F600
G1 X11.1720 Y-67.1807 F600
G1 X11.3785 Y-66.9534 F600
G1 X11.5868 Y-66.7240 F600
G1 X11.7713 Y-66.4748 F600
G1 X11.9534 Y-66.2290 F600
G1 X12.1120 Y-65.9665 F600
G1 X12.2745 Y-65.6974 F600
G1 X12.4078 Y-65.4135 F600
G1 X12.5375 Y-65.1372 F600
G1 X12.6412 Y-64.8495 F600
G1 X12.7468 Y-64.5563 F600
G1 X12.8222 Y-64.2548 F600
G1 X12.8975 Y-63.9535 F600
G1 X12.9424 Y-63.6447 F600
G1 X12.9865 Y-63.3414 F600
G1 X13.0020 Y-63.0365 F600
G1 X13.0180 Y-62.7248 F600
G1 X13.0020 Y-62.4142 F600
G1 X12.9865 Y-62.1104 F600
G1 X12.9424 Y-61.8073 F600
G1 X12.8975 Y-61.4985 F600
G1 X12.8222 Y-61.1972 F600
G1 X12.7468 Y-60.8957 F600
G1 X12.6412 Y-60.6025 F600
G1 X12.5375 Y-60.3148 F600
G1 X12.4078 Y-60.0385 F600
G1 X12.2745 Y-59.7546 F600
G1 X12.1120 Y-59.4855 F600
G1 X11.9534 Y-59.2230 F600
G1 X11.7713 Y-58.9772 F600
G1 X11.5868 Y-58.7280 F600
G1 X11.3785 Y-58.4986 F600
G1 X11.1735 Y-58.2729 F600
G1 X11.0059 Y-58.1197 F600
G1 X11.3780 Y-58.4597 F600
G1 X11.3780 Y-56.0080 F600
G1 X11.3780 Y-53.5605 F600
G1 X11.0006 Y-53.9021 F600
G1 X11.1711 Y-53.7478 F600
G1 X11.3785 Y-53.5194 F600
G1 X11.5881 Y-53.2886 F600
G1 X11.7736 Y-53.0368 F600
G1 X11.9544 Y-52.7914 F600
G1 X12.1120 Y-52.5305 F600
G1 X12.2738 Y-52.2626 F600
G1 X12.4066 Y-51.9809 F600
G1 X12.5370 Y-51.7045 F600
G1 X12.6412 Y-51.4155 F600
G1 X12.7471 Y-51.1216 F600
G1 X12.8226 Y-50.8183 F600
G1 X12.8975 Y-50.5172 F600
G1 X12.9423 Y-50.2106 F600
G1 X12.9865 Y-49.9079 F600
G1 X13.0020 Y-49.6025 F600
G1 X13.0180 Y-49.2910 F600
G1 X13.0020 Y-48.9795 F600
G1 X12.9865 Y-48.6741 F600
G1 X12.9423 Y-48.3714 F600
G1 X12.8974 Y-48.0641 F600
G1 X12.8222 Y-47.7632 F600
G1 X12.7468 Y-47.4617 F600
G1 X12.6412 Y-47.1685 F600
G1 X12.5379 Y-46.8820 F600
G1 X12.4090 Y-46.6060 F600
G1 X12.2745 Y-46.3183 F600
G1 X12.1103 Y-46.0477 F600
G1 X11.9524 Y-45.7877 F600
G1 X11.7713 Y-45.5432 F600
G1 X11.5881 Y-45.2957 F600
G1 X11.3814 Y-45.0668 F600
G1 X11.1720 Y-44.8350 F600
G1 X10.9402 Y-44.6256 F600
G1 X10.7113 Y-44.4189 F600
G1 X10.4638 Y-44.2357 F600
G1 X10.2193 Y-44.0546 F600
G1 X9.9593 Y-43.8967 F600
G1 X9.6887 Y-43.7325 F600
G1 X9.4010 Y-43.5980 F600
G1 X9.1250 Y-43.4691 F600
G1 X8.8385 Y-43.3658 F600
G1 X8.5453 Y-43.2602 F600
G1 X8.2438 Y-43.1848 F600
G1 X7.9429 Y-43.1096 F600
G1 X7.6356 Y-43.0647 F600
G1 X7.3329 Y-43.0205 F600
G1 X7.0275 Y-43.0050 F600
G1 X6.7160 Y-42.9890 F600
G1 X6.4045 Y-43.0050 F600
G1 X6.0997 Y-43.0205 F600
G1 X5.9065 Y-43.0486 F600
G1 X7.4980 Y-42.8175 F600
G1 X7.4980 Y-28.7850 F600
G1 X7.4980 Y-20.9130 F600
G1 X7.4980 Y2.6960 F600
G1 X7.4980 Y2.7270 F600
G1 X7.4980 Y2.7590 F600
G1 X7.4980 Y26.3670 F600
G1 X7.4980 Y34.2470 F600
G1 X7.4980 Y50.6263 F600
G1 X4.9777 Y53.1467 F600
G1 X1.9344 Y56.1899 F600
G1 X0.6863 Y55.1636 F600
G1 X0.6034 Y55.0954 F600
G1 X0.5097 Y55.0452 F600
G1 X0.4166 Y54.9953 F600
G1 X0.3147 Y54.9644 F600
G1 X0.2120 Y54.9333 F600
G1 X0.1051 Y54.9228 F600
G1 X-0.0020 Y54.9122 F600
G1 X-0.1091 Y54.9228 F600
G1 X-0.2152 Y54.9332 F600
G1 X-0.3160 Y54.9639 F600
G1 X-0.4191 Y54.9953 F600
G1 X-0.5151 Y55.0465 F600
G1 X-0.6085 Y55.0963 F600
G1 X-0.6903 Y55.1636 F600
G1 X-1.9384 Y56.1899 F600
G1 X-4.9817 Y53.1467 F600
G1 X-7.5020 Y50.6263 F600
G1 X-7.5020 Y34.2400 F600
G1 X-7.5020 Y26.3670 F600
G1 X-7.5020 Y2.7590 F600
G1 X-7.5020 Y2.7270 F600
G1 X-7.5020 Y2.6960 F600
G1 X-7.5020 Y-20.9130 F600
G1 X-7.5020 Y-28.7920 F600
G1 X-7.5020 Y-42.8175 F600
G1 X-5.9105 Y-43.0486 F600
G1 X-6.1035 Y-43.0205 F600
G1 X-6.4072 Y-43.0050 F600
G1 X-6.7178 Y-42.9890 F600
G1 X-7.0295 Y-43.0050 F600
G1 X-7.3344 Y-43.0205 F600
G1 X-7.6377 Y-43.0646 F600
G1 X-7.9465 Y-43.1095 F600
G1 X-8.2478 Y-43.1848 F600
G1 X-8.5493 Y-43.2602 F600
G1 X-8.8425 Y-43.3658 F600
G1 X-9.1302 Y-43.4695 F600
G1 X-9.4065 Y-43.5992 F600
G1 X-9.6904 Y-43.7325 F600
G1 X-9.9595 Y-43.8950 F600
G1 X-10.2220 Y-44.0536 F600
G1 X-10.4678 Y-44.2357 F600
G1 X-10.7170 Y-44.4202 F600
G1 X-10.9464 Y-44.6285 F600
G1 X-11.1737 Y-44.8350 F600
G1 X-11.3812 Y-45.0633 F600
G1 X-11.5907 Y-45.2939 F600
G1 X-11.7753 Y-45.5432 F600
G1 X-11.9581 Y-45.7899 F600
G1 X-12.1161 Y-46.0524 F600
G1 X-12.2762 Y-46.3183 F600
G1 X-12.4095 Y-46.6008 F600
G1 X-12.5423 Y-46.8820 F600
G1 X-12.6462 Y-47.1741 F600
G1 X-12.7485 Y-47.4617 F600
G1 X-12.8237 Y-47.7572 F600
G1 X-12.9010 Y-48.0610 F600
G1 X-12.9463 Y-48.3714 F600
G1 X-12.9909 Y-48.6773 F600
G1 X-13.0054 Y-48.9859 F600
G1 X-13.0196 Y-49.2910 F600
G1 X-13.0054 Y-49.5961 F600
G1 X-12.9909 Y-49.9047 F600
G1 X-12.9463 Y-50.2106 F600
G1 X-12.9011 Y-50.5202 F600
G1 X-12.8241 Y-50.8243 F600
G1 X-12.7488 Y-51.1215 F600
G1 X-12.6462 Y-51.4099 F600
G1 X-12.5413 Y-51.7045 F600
G1 X-12.4072 Y-51.9861 F600
G1 X-12.2755 Y-52.2626 F600
G1 X-12.1178 Y-52.5258 F600
G1 X-11.9600 Y-52.7892 F600
G1 X-11.7776 Y-53.0368 F600
G1 X-11.5907 Y-53.2905 F600
G1 X-11.3783 Y-53.5229 F600
G1 X-11.1713 Y-53.7494 F600
G1 X-11.0026 Y-53.9021 F600
G1 X-11.3800 Y-53.5605 F600
G1 X-11.3800 Y-56.0080 F600
G1 X-11.3800 Y-58.4597 F600
G1 X-11.0079 Y-58.1197 F600
G1 Z-4.0000 F120
G1 X-11.1737 Y-58.2713 F600
G1 X-11.3783 Y-58.4951 F600
G1 X-11.5894 Y-58.7261 F600
G1 X-11.7753 Y-58.9772 F600
G1 X-11.9591 Y-59.2252 F600
G1 X-12.1178 Y-59.4902 F600
G1 X-12.2762 Y-59.7546 F600
G1 X-12.4083 Y-60.0333 F600
G1 X-12.5418 Y-60.3148 F600
G1 X-12.6462 Y-60.6081 F600
G1 X-12.7485 Y-60.8957 F600
G1 X-12.8237 Y-61.1912 F600
G1 X-12.9011 Y-61.4955 F600
G1 X-12.9464 Y-61.8073 F600
G1 X-12.9909 Y-62.1136 F600
G1 X-13.0053 Y-62.4206 F600
G1 X-13.0196 Y-62.7249 F600
G1 X-13.0054 Y-63.0301 F600
G1 X-12.9909 Y-63.3383 F600
G1 X-12.9464 Y-63.6447 F600
G1 X-12.9011 Y-63.9565 F600
G1 X-12.8237 Y-64.2608 F600
G1 X-12.7485 Y-64.5563 F600
G1 X-12.6462 Y-64.8439 F600
G1 X-12.5418 Y-65.1372 F600
G1 X-12.4083 Y-65.4187 F600
G1 X-12.2762 Y-65.6974 F600
G1 X-12.1178 Y-65.9618 F600
G1 X-11.9591 Y-66.2268 F600
G1 X-11.7753 Y-66.4748 F600
G1 X-11.5894 Y-66.7259 F600
G1 X-11.3783 Y-66.9569 F600
G1 X-11.1737 Y-67.1807 F600
G1 X-10.9499 Y-67.3853 F600
G1 X-10.7189 Y-67.5964 F600
G1 X-10.4678 Y-67.7823 F600
G1 X-10.2198 Y-67.9661 F600
G1 X-9.9548 Y-68.1248 F600
G1 X-9.6904 Y-68.2832 F600
G1 X-9.4117 Y-68.4153 F600
G1 X-9.1302 Y-68.5488 F600
G1 X-8.8369 Y-68.6532 F600
G1 X-8.5493 Y-68.7555 F600
G1 X-8.2538 Y-68.8307 F600
G1 X-7.9495 Y-68.9081 F600
G1 X-7.6377 Y-68.9534 F600
G1 X-7.3313 Y-68.9979 F600
G1 X-7.0231 Y-69.0124 F600
G1 X-6.7179 Y-69.0266 F600
G1 X-6.4136 Y-69.0123 F600
G1 X-6.1066 Y-68.9979 F600
G1 X-5.8003 Y-68.9534 F600
G1 X-5.4885 Y-68.9081 F600
G1 X-5.1842 Y-68.8307 F600
G1 X-4.8887 Y-68.7555 F600
G1 X-4.6011 Y-68.6532 F600
G1 X-4.3078 Y-68.5488 F600
G1 X-4.0263 Y-68.4153 F600
G1 X-3.7476 Y-68.2832 F600
G1 X-3.4832 Y-68.1248 F600
G1 X-3.2182 Y-67.9661 F600
G1 X-2.9702 Y-67.7823 F600
G1 X-2.7191 Y-67.5964 F600
G1 X-2.4881 Y-67.3853 F600
G1 X-2.2643 Y-67.1807 F600
G1 X-2.1127 Y-67.0149 F600
G1 X-2.4527 Y-67.3870 F600
G1 X-0.0010 Y-67.3870 F600
G1 X2.4465 Y-67.3870 F600
G1 X2.1049 Y-67.0096 F600
G1 X2.2576 Y-67.1783 F600
G1 X2.4841 Y-67.3853 F600
G1 X2.7165 Y-67.5977 F600
G1 X2.9702 Y-67.7846 F600
G1 X3.2178 Y-67.9670 F600
G1 X3.4812 Y-68.1248 F600
G1 X3.7444 Y-68.2825 F600
G1 X4.0209 Y-68.4142 F600
G1 X4.3025 Y-68.5483 F600
G1 X4.5971 Y-68.6532 F600
G1 X4.8855 Y-68.7558 F600
G1 X5.1827 Y-68.8311 F600
G1 X5.4868 Y-68.9081 F600
G1 X5.7964 Y-68.9533 F600
G1 X6.1023 Y-68.9979 F600
G1 X6.4109 Y-69.0124 F600
G1 X6.7160 Y-69.0266 F600
G1 X7.0211 Y-69.0124 F600
G1 X7.3297 Y-68.9979 F600
G1 X7.6356 Y-68.9533 F600
G1 X7.9460 Y-68.9080 F600
G1 X8.2498 Y-68.8307 F600
G1 X8.5453 Y-68.7555 F600
G1 X8.8329 Y-68.6532 F600
G1 X9.1250 Y-68.5493 F600
G1 X9.4062 Y-68.4165 F600
G1 X9.6887 Y-68.2832 F600
G1 X9.9546 Y-68.1231 F600
G1 X10.2171 Y-67.9651 F600
G1 X10.4638 Y-67.7823 F600
G1 X10.7131 Y-67.5977 F600
G1 X10.9437 Y-67.3882 F600
G1 X11.1720 Y-67.1807 F600
G1 X11.3785 Y-66.9534 F600
G1 X11.5868 Y-66.7240 F600
G1 X11.7713 Y-66.4748 F600
G1 X11.9534 Y-66.2290 F600
G1 X12.1120 Y-65.9665 F600
G1 X12.2745 Y-65.6974 F600
G1 X12.4078 Y-65.4135 F600
G1 X12.5375 Y-65.1372 F600
G1 X12.6412 Y-64.8495 F600
G1 X12.7468 Y-64.5563 F600
G1 X12.8222 Y-64.2548 F600
G1 X12.8975 Y-63.9535 F600
G1 X12.9424 Y-63.6447 F600
G1 X12.9865 Y-63.3414 F600
G1 X13.0020 Y-63.0365 F600
G1 X13.0180 Y-62.7248 F600
G1 X13.0020 Y-62.4142 F600
G1 X12.9865 Y-62.1104 F600
G1 X12.9424 Y-61.8073 F600
G1 X12.8975 Y-61.4985 F600
G1 X12.8222 Y-61.1972 F600
G1 X12.7468 Y-60.8957 F600
G1 X12.6412 Y-60.6025 F600
G1 X12.5375 Y-60.3148 F600
G1 X12.4078 Y-60.0385 F600
G1 X12.2745 Y-59.7546 F600
G1 X12.1120 Y-59.4855 F600
G1 X11.9534 Y-59.2230 F600
G1 X11.7713 Y-58.9772 F600
G1 X11.5868 Y-58.7280 F600
G1 X11.3785 Y-58.4986 F600
G1 X11.1735 Y-58.2729 F600
G1 X11.0059 Y-58.1197 F600
G1 X11.3780 Y-58.4597 F600
G1 X11.3780 Y-56.0080 F600
G1 X11.3780 Y-53.5605 F600
G1 X11.0006 Y-53.9021 F600
G1 X11.1711 Y-53.7478 F600
G1 X11.3785 Y-53.5194 F600
G1 X11.5881 Y-53.2886 F600
G1 X11.7736 Y-53.0368 F600
G1 X11.9544 Y-52.7914 F600
G1 X12.1120 Y-52.5305 F600
G1 X12.2738 Y-52.2626 F600
G1 X12.4066 Y-51.9809 F600
G1 X12.5370 Y-51.7045 F600
G1 X12.6412 Y-51.4155 F600
G1 X12.7471 Y-51.1216 F600
G1 X12.8226 Y-50.8183 F600
G1 X12.8975 Y-50.5172 F600
G1 X12.9423 Y-50.2106 F600
G1 X12.9865 Y-49.9079 F600
G1 X13.0020 Y-49.6025 F600
G1 X13.0180 Y-49.2910 F600
G1 X13.0020 Y-48.9795 F600
G1 X12.9865 Y-48.6741 F600
G1 X12.9423 Y-48.3714 F600
G1 X12.8974 Y-48.0641 F600
G1 X12.8222 Y-47.7632 F600
G1 X12.7468 Y-47.4617 F600
G1 X12.6412 Y-47.1685 F600
G1 X12.5379 Y-46.8820 F600
G1 X12.4090 Y-46.6060 F600
G1 X12.2745 Y-46.3183 F600
G1 X12.1103 Y-46.0477 F600
G1 X11.9524 Y-45.7877 F600
G1 X11.7713 Y-45.5432 F600
G1 X11.5881 Y-45.2957 F600
G1 X11.3814 Y-45.0668 F600
G1 X11.1720 Y-44.8350 F600
G1 X10.9402 Y-44.6256 F600
G1 X10.7113 Y-44.4189 F600
G1 X10.4638 Y-44.2357 F600
G1 X10.2193 Y-44.0546 F600
G1 X9.9593 Y-43.8967 F600
G1 X9.6887 Y-43.7325 F600
G1 X9.4010 Y-43.5980 F600
G1 X9.1250 Y-43.4691 F600
G1 X8.8385 Y-43.3658 F600
G1 X8.5453 Y-43.2602 F600
G1 X8.2438 Y-43.1848 F600
G1 X7.9429 Y-43.1096 F600
G1 X7.6356 Y-43.0647 F600
G1 X7.3329 Y-43.0205 F600
G1 X7.0275 Y-43.0050 F600
G1 X6.7160 Y-42.9890 F600
G1 X6.4045 Y-43.0050 F600
G1 X6.0997 Y-43.0205 F600
G1 X5.9065 Y-43.0486 F600
G1 X7.4980 Y-42.8175 F600
G1 X7.4980 Y-28.7850 F600
G1 X7.4980 Y-20.9130 F600
G1 X7.4980 Y2.6960 F600
G1 X7.4980 Y2.7270 F600
G1 X7.4980 Y2.7590 F600
G1 X7.4980 Y26.3670 F600
G1 X7.4980 Y34.2470 F600
G1 X7.4980 Y50.6263 F600
G1 X4.9777 Y53.1467 F600
G1 X1.9344 Y56.1899 F600
G1 X0.6863 Y55.1636 F600
G1 X0.6034 Y55.0954 F600
G1 X0.5097 Y55.0452 F600
G1 X0.4166 Y54.9953 F600
G1 X0.3147 Y54.9644 F600
G1 X0.2120 Y54.9333 F600
G1 X0.1051 Y54.9228 F600
G1 X-0.0020 Y54.9122 F600
G1 X-0.1091 Y54.9228 F600
G1 X-0.2152 Y54.9332 F600
G1 X-0.3160 Y54.9639 F600
G1 X-0.4191 Y54.9953 F600
G1 X-0.5151 Y55.0465 F600
G1 X-0.6085 Y55.0963 F600
G1 X-0.6903 Y55.1636 F600
G1 X-1.9384 Y56.1899 F600
G1 X-4.9817 Y53.1467 F600
G1 X-7.5020 Y50.6263 F600
G1 X-7.5020 Y34.2400 F600
G1 X-7.5020 Y26.3670 F600
G1 X-7.5020 Y2.7590 F600
G1 X-7.5020 Y2.7270 F600
G1 X-7.5020 Y2.6960 F600
G1 X-7.5020 Y-20.9130 F600
G1 X-7.5020 Y-28.7920 F600
G1 X-7.5020 Y-42.8175 F600
G1 X-5.9105 Y-43.0486 F600
G1 X-6.1035 Y-43.0205 F600
G1 X-6.4072 Y-43.0050 F600
G1 X-6.7178 Y-42.9890 F600
G1 X-7.0295 Y-43.0050 F600
G1 X-7.3344 Y-43.0205 F600
G1 X-7.6377 Y-43.0646 F600
G1 X-7.9465 Y-43.1095 F600
G1 X-8.2478 Y-43.1848 F600
G1 X-8.5493 Y-43.2602 F600
G1 X-8.8425 Y-43.3658 F600
G1 X-9.1302 Y-43.4695 F600
G1 X-9.4065 Y-43.5992 F600
G1 X-9.6904 Y-43.7325 F600
G1 X-9.9595 Y-43.8950 F600
G1 X-10.2220 Y-44.0536 F600
G1 X-10.4678 Y-44.2357 F600
G1 X-10.7170 Y-44.4202 F600
G1 X-10.9464 Y-44.6285 F600
G1 X-11.1737 Y-44.8350 F600
G1 X-11.3812 Y-45.0633 F600
G1 X-11.5907 Y-45.2939 F600
G1 X-11.7753 Y-45.5432 F600
G1 X-11.9581 Y-45.7899 F600
G1 X-12.1161 Y-46.0524 F600
G1 X-12.2762 Y-46.3183 F600
G1 X-12.4095 Y-46.6008 F600
G1 X-12.5423 Y-46.8820 F600
G1 X-12.6462 Y-47.1741 F600
G1 X-12.7485 Y-47.4617 F600
G1 X-12.8237 Y-47.7572 F600
G1 X-12.9010 Y-48.0610 F600
G1 X-12.9463 Y-48.3714 F600
G1 X-12.9909 Y-48.6773 F600
G1 X-13.0054 Y-48.9859 F600
G1 X-13.0196 Y-49.2910 F600
G1 X-13.0054 Y-49.5961 F600
G1 X-12.9909 Y-49.9047 F600
G1 X-12.9463 Y-50.2106 F600
G1 X-12.9011 Y-50.5202 F600
G1 X-12.8241 Y-50.8243 F600
G1 X-12.7488 Y-51.1215 F600
G1 X-12.6462 Y-51.4099 F600
G1 X-12.5413 Y-51.7045 F600
G1 X-12.4072 Y-51.9861 F600
G1 X-12.2755 Y-52.2626 F600
G1 X-12.1178 Y-52.5258 F600
G1 X-11.9600 Y-52.7892 F600
G1 X-11.7776 Y-53.0368 F600
G1 X-11.5907 Y-53.2905 F600
G1 X-11.3783 Y-53.5229 F600
G1 X-11.1713 Y-53.7494 F600
G1 X-11.0026 Y-53.9021 F600
G1 X-11.3800 Y-53.5605 F600
G1 X-11.3800 Y-56.0080 F600
G1 X-11.3800 Y-58.4597 F600
G1 X-11.0079 Y-58.1197 F600
G1 Z-4.5000 F120
G1 X-11.1737 Y-58.2713 F600
G1 X-11.3783 Y-58.4951 F600
G1 X-11.5894 Y-58.7261 F600
G1 X-11.7753 Y-58.9772 F600
G1 X-11.9591 Y-59.2252 F600
G1 X-12.1178 Y-59.4902 F600
G1 X-12.2762 Y-59.7546 F600
G1 X-12.4083 Y-60.0333 F600
G1 X-12.5418 Y-60.3148 F600
G1 X-12.6462 Y-60.6081 F600
G1 X-12.7485 Y-60.8957 F600
G1 X-12.8237 Y-61.1912 F600
G1 X-12.9011 Y-61.4955 F600
G1 X-12.9464 Y-61.8073 F600
G1 X-12.9909 Y-62.1136 F600
G1 X-13.0053 Y-62.4206 F600
G1 X-13.0196 Y-62.7249 F600
G1 X-13.0054 Y-63.0301 F600
G1 X-12.9909 Y-63.3383 F600
G1 X-12.9464 Y-63.6447 F600
G1 X-12.9011 Y-63.9565 F600
G1 X-12.8237 Y-64.2608 F600
G1 X-12.7485 Y-64.5563 F600
G1 X-12.6462 Y-64.8439 F600
G1 X-12.5418 Y-65.1372 F600
G1 X-12.4083 Y-65.4187 F600
G1 X-12.2762 Y-65.6974 F600
G1 X-12.1178 Y-65.9618 F600
G1 X-11.9591 Y-66.2268 F600
G1 X-11.7753 Y-66.4748 F600
G1 X-11.5894 Y-66.7259 F600
G1 X-11.3783 Y-66.9569 F600
G1 X-11.1737 Y-67.1807 F600
G1 X-10.9499 Y-67.3853 F600
G1 X-10.7189 Y-67.5964 F600
G1 X-10.4678 Y-67.7823 F600
G1 X-10.2198 Y-67.9661 F600
G1 X-9.9548 Y-68.1248 F600
G1 X-9.6904 Y-68.2832 F600
G1 X-9.4117 Y-68.4153 F600
G1 X-9.1302 Y-68.5488 F600
G1 X-8.8369 Y-68.6532 F600
G1 X-8.5493 Y-68.7555 F600
G1 X-8.2538 Y-68.8307 F600
G1 X-7.9495 Y-68.9081 F600
G1 X-7.6377 Y-68.9534 F600
G1 X-7.3313 Y-68.9979 F600
G1 X-7.0231 Y-69.0124 F600
G1 X-6.7179 Y-69.0266 F600
G1 X-6.4136 Y-69.0123 F600
G1 X-6.1066 Y-68.9979 F600
G1 X-5.8003 Y-68.9534 F600
G1 X-5.4885 Y-68.9081 F600
G1 X-5.1842 Y-68.8307 F600
G1 X-4.8887 Y-68.7555 F600
G1 X-4.6011 Y-68.6532 F600
G1 X-4.3078 Y-68.5488 F600
G1 X-4.0263 Y-68.4153 F600
G1 X-3.7476 Y-68.2832 F600
G1 X-3.4832 Y-68.1248 F600
G1 X-3.2182 Y-67.9661 F600
G1 X-2.9702 Y-67.7823 F600
G1 X-2.7191 Y-67.5964 F600
G1 X-2.4881 Y-67.3853 F600
G1 X-2.2643 Y-67.1807 F600
G1 X-2.1127 Y-67.0149 F600
G1 X-2.4527 Y-67.3870 F600
G1 X-0.0010 Y-67.3870 F600
G1 X2.4465 Y-67.3870 F600
G1 X2.1049 Y-67.0096 F600
G1 X2.2576 Y-67.1783 F600
G1 X2.4841 Y-67.3853 F600
G1 X2.7165 Y-67.5977 F600
G1 X2.9702 Y-67.7846 F600
G1 X3.2178 Y-67.9670 F600
G1 X3.4812 Y-68.1248 F600
G1 X3.7444 Y-68.2825 F600
G1 X4.0209 Y-68.4142 F600
G1 X4.3025 Y-68.5483 F600
G1 X4.5971 Y-68.6532 F600
G1 X4.8855 Y-68.7558 F600
G1 X5.1827 Y-68.8311 F600
G1 X5.4868 Y-68.9081 F600
G1 X5.7964 Y-68.9533 F600
G1 X6.1023 Y-68.9979 F600
G1 X6.4109 Y-69.0124 F600
G1 X6.7160 Y-69.0266 F600
G1 X7.0211 Y-69.0124 F600
G1 X7.3297 Y-68.9979 F600
G1 X7.6356 Y-68.9533 F600
G1 X7.9460 Y-68.9080 F600
G1 X8.2498 Y-68.8307 F600
G1 X8.5453 Y-68.7555 F600
G1 X8.8329 Y-68.6532 F600
G1 X9.1250 Y-68.5493 F600
G1 X9.4062 Y-68.4165 F600
G1 X9.6887 Y-68.2832 F600
G1 X9.9546 Y-68.1231 F600
G1 X10.2171 Y-67.9651 F600
G1 X10.4638 Y-67.7823 F600
G1 X10.7131 Y-67.5977 F600
G1 X10.9437 Y-67.3882 F600
G1 X11.1720 Y-67.1807 F600
G1 X11.3785 Y-66.9534 F600
G1 X11.5868 Y-66.7240 F600
G1 X11.7713 Y-66.4748 F600
G1 X11.9534 Y-66.2290 F600
G1 X12.1120 Y-65.9665 F600
G1 X12.2745 Y-65.6974 F600
G1 X12.4078 Y-65.4135 F600
G1 X12.5375 Y-65.1372 F600
G1 X12.6412 Y-64.8495 F600
G1 X12.7468 Y-64.5563 F600
G1 X12.8222 Y-64.2548 F600
G1 X12.8975 Y-63.9535 F600
G1 X12.9424 Y-63.6447 F600
G1 X12.9865 Y-63.3414 F600
G1 X13.0020 Y-63.0365 F600
G1 X13.0180 Y-62.7248 F600
G1 X13.0020 Y-62.4142 F600
G1 X12.9865 Y-62.1104 F600
G1 X12.9424 Y-61.8073 F600
G1 X12.8975 Y-61.4985 F600
G1 X12.8222 Y-61.1972 F600
G1 X12.7468 Y-60.8957 F600
G1 X12.6412 Y-60.6025 F600
G1 X12.5375 Y-60.3148 F600
G1 X12.4078 Y-60.0385 F600
G1 X12.2745 Y-59.7546 F600
G1 X12.1120 Y-59.4855 F600
G1 X11.9534 Y-59.2230 F600
G1 X11.7713 Y-58.9772 F600
G1 X11.5868 Y-58.7280 F600
G1 X11.3785 Y-58.4986 F600
G1 X11.1735 Y-58.2729 F600
G1 X11.0059 Y-58.1197 F600
G1 X11.3780 Y-58.4597 F600
G1 X11.3780 Y-56.0080 F600
G1 X11.3780 Y-53.5605 F600
G1 X11.0006 Y-53.9021 F600
G1 X11.1711 Y-53.7478 F600
G1 X11.3785 Y-53.5194 F600
G1 X11.5881 Y-53.2886 F600
G1 X11.7736 Y-53.0368 F600
G1 X11.9544 Y-52.7914 F600
G1 X12.1120 Y-52.5305 F600
G1 X12.2738 Y-52.2626 F600
G1 X12.4066 Y-51.9809 F600
G1 X12.5370 Y-51.7045 F600
G1 X12.6412 Y-51.4155 F600
G1 X12.7471 Y-51.1216 F600
G1 X12.8226 Y-50.8183 F600
G1 X12.8975 Y-50.5172 F600
G1 X12.9423 Y-50.2106 F600
G1 X12.9865 Y-49.9079 F600
G1 X13.0020 Y-49.6025 F600
G1 X13.0180 Y-49.2910 F600
G1 X13.0020 Y-48.9795 F600
G1 X12.9865 Y-48.6741 F600
G1 X12.9423 Y-48.3714 F600
G1 X12.8974 Y-48.0641 F600
G1 X12.8222 Y-47.7632 F600
G1 X12.7468 Y-47.4617 F600
G1 X12.6412 Y-47.1685 F600
G1 X12.5379 Y-46.8820 F600
G1 X12.4090 Y-46.6060 F600
G1 X12.2745 Y-46.3183 F600
G1 X12.1103 Y-46.0477 F600
G1 X11.9524 Y-45.7877 F600
G1 X11.7713 Y-45.5432 F600
G1 X11.5881 Y-45.2957 F600
G1 X11.3814 Y-45.0668 F600
G1 X11.1720 Y-44.8350 F600
G1 X10.9402 Y-44.6256 F600
G1 X10.7113 Y-44.4189 F600
G1 X10.4638 Y-44.2357 F600
G1 X10.2193 Y-44.0546 F600
G1 X9.9593 Y-43.8967 F600
G1 X9.6887 Y-43.7325 F600
G1 X9.4010 Y-43.5980 F600
G1 X9.1250 Y-43.4691 F600
G1 X8.8385 Y-43.3658 F600
G1 X8.5453 Y-43.2602 F600
G1 X8.2438 Y-43.1848 F600
G1 X7.9429 Y-43.1096 F600
G1 X7.6356 Y-43.0647 F600
G1 X7.3329 Y-43.0205 F600
G1 X7.0275 Y-43.0050 F600
G1 X6.7160 Y-42.9890 F600
G1 X6.4045 Y-43.0050 F600
G1 X6.0997 Y-43.0205 F600
G1 X5.9065 Y-43.0486 F600
G1 X7.4980 Y-42.8175 F600
G1 X7.4980 Y-28.7850 F600
G1 X7.4980 Y-20.9130 F600
G1 X7.4980 Y2.6960 F600
G1 X7.4980 Y2.7270 F600
G1 X7.4980 Y2.7590 F600
G1 X7.4980 Y26.3670 F600
G1 X7.4980 Y34.2470 F600
G1 X7.4980 Y50.6263 F600
G1 X4.9777 Y53.1467 F600
G1 X1.9344 Y56.1899 F600
G1 X0.6863 Y55.1636 F600
G1 X0.6034 Y55.0954 F600
G1 X0.5097 Y55.0452 F600
G1 X0.4166 Y54.9953 F600
G1 X0.3147 Y54.9644 F600
G1 X0.2120 Y54.9333 F600
G1 X0.1051 Y54.9228 F600
G1 X-0.0020 Y54.9122 F600
G1 X-0.1091 Y54.9228 F600
G1 X-0.2152 Y54.9332 F600
G1 X-0.3160 Y54.9639 F600
G1 X-0.4191 Y54.9953 F600
G1 X-0.5151 Y55.0465 F600
G1 X-0.6085 Y55.0963 F600
G1 X-0.6903 Y55.1636 F600
G1 X-1.9384 Y56.1899 F600
G1 X-4.9817 Y53.1467 F600
G1 X-7.5020 Y50.6263 F600
G1 X-7.5020 Y34.2400 F600
G1 X-7.5020 Y26.3670 F600
G1 X-7.5020 Y2.7590 F600
G1 X-7.5020 Y2.7270 F600
G1 X-7.5020 Y2.6960 F600
G1 X-7.5020 Y-20.9130 F600
G1 X-7.5020 Y-28.7920 F600
G1 X-7.5020 Y-42.8175 F600
G1 X-5.9105 Y-43.0486 F600
G1 X-6.1035 Y-43.0205 F600
G1 X-6.4072 Y-43.0050 F600
G1 X-6.7178 Y-42.9890 F600
G1 X-7.0295 Y-43.0050 F600
G1 X-7.3344 Y-43.0205 F600
G1 X-7.6377 Y-43.0646 F600
G1 X-7.9465 Y-43.1095 F600
G1 X-8.2478 Y-43.1848 F600
G1 X-8.5493 Y-43.2602 F600
G1 X-8.8425 Y-43.3658 F600
G1 X-9.1302 Y-43.4695 F600
G1 X-9.4065 Y-43.5992 F600
G1 X-9.6904 Y-43.7325 F600
G1 X-9.9595 Y-43.8950 F600
G1 X-10.2220 Y-44.0536 F600
G1 X-10.4678 Y-44.2357 F600
G1 X-10.7170 Y-44.4202 F600
G1 X-10.9464 Y-44.6285 F600
G1 X-11.1737 Y-44.8350 F600
G1 X-11.3812 Y-45.0633 F600
G1 X-11.5907 Y-45.2939 F600
G1 X-11.7753 Y-45.5432 F600
G1 X-11.9581 Y-45.7899 F600
G1 X-12.1161 Y-46.0524 F600
G1 X-12.2762 Y-46.3183 F600
G1 X-12.4095 Y-46.6008 F600
G1 X-12.5423 Y-46.8820 F600
G1 X-12.6462 Y-47.1741 F600
G1 X-12.7485 Y-47.4617 F600
G1 X-12.8237 Y-47.7572 F600
G1 X-12.9010 Y-48.0610 F600
G1 X-12.9463 Y-48.3714 F600
G1 X-12.9909 Y-48.6773 F600
G1 X-13.0054 Y-48.9859 F600
G1 X-13.0196 Y-49.2910 F600
G1 X-13.0054 Y-49.5961 F600
G1 X-12.9909 Y-49.9047 F600
G1 X-12.9463 Y-50.2106 F600
G1 X-12.9011 Y-50.5202 F600
G1 X-12.8241 Y-50.8243 F600
G1 X-12.7488 Y-51.1215 F600
G1 X-12.6462 Y-51.4099 F600
G1 X-12.5413 Y-51.7045 F600
G1 X-12.4072 Y-51.9861 F600
G1 X-12.2755 Y-52.2626 F600
G1 X-12.1178 Y-52.5258 F600
G1 X-11.9600 Y-52.7892 F600
G1 X-11.7776 Y-53.0368 F600
G1 X-11.5907 Y-53.2905 F600
G1 X-11.3783 Y-53.5229 F600
G1 X-11.1713 Y-53.7494 F600
G1 X-11.0026 Y-53.9021 F600
G1 X-11.3800 Y-53.5605 F600
G1 X-11.3800 Y-56.0080 F600
G1 X-11.3800 Y-58.4597 F600
G1 X-11.0079 Y-58.1197 F600
G1 Z-5.0000 F120
G1 X-11.1737 Y-58.2713 F600
G1 X-11.3783 Y-58.4951 F600
G1 X-11.5894 Y-58.7261 F600
G1 X-11.7753 Y-58.9772 F600
G1 X-11.9591 Y-59.2252 F600
G1 X-12.1178 Y-59.4902 F600
G1 X-12.2762 Y-59.7546 F600
G1 X-12.4083 Y-60.0333 F600
G1 X-12.5418 Y-60.3148 F600
G1 X-12.6462 Y-60.6081 F600
G1 X-12.7485 Y-60.8957 F600
G1 X-12.8237 Y-61.1912 F600
G1 X-12.9011 Y-61.4955 F600
G1 X-12.9464 Y-61.8073 F600
G1 X-12.9909 Y-62.1136 F600
G1 X-13.0053 Y-62.4206 F600
G1 X-13.0196 Y-62.7249 F600
G1 X-13.0054 Y-63.0301 F600
G1 X-12.9909 Y-63.3383 F600
G1 X-12.9464 Y-63.6447 F600
G1 X-12.9011 Y-63.9565 F600
G1 X-12.8237 Y-64.2608 F600
G1 X-12.7485 Y-64.5563 F600
G1 X-12.6462 Y-64.8439 F600
G1 X-12.5418 Y-65.1372 F600
G1 X-12.4083 Y-65.4187 F600
G1 X-12.2762 Y-65.6974 F600
G1 X-12.1178 Y-65.9618 F600
G1 X-11.9591 Y-66.2268 F600
G1 X-11.7753 Y-66.4748 F600
G1 X-11.5894 Y-66.7259 F600
G1 X-11.3783 Y-66.9569 F600
G1 X-11.1737 Y-67.1807 F600
G1 X-10.9499 Y-67.3853 F600
G1 X-10.7189 Y-67.5964 F600
G1 X-10.4678 Y-67.7823 F600
G1 X-10.2198 Y-67.9661 F600
G1 X-9.9548 Y-68.1248 F600
G1 X-9.6904 Y-68.2832 F600
G1 X-9.4117 Y-68.4153 F600
G1 X-9.1302 Y-68.5488 F600
G1 X-8.8369 Y-68.6532 F600
G1 X-8.5493 Y-68.7555 F600
G1 X-8.2538 Y-68.8307 F600
G1 X-7.9495 Y-68.9081 F600
G1 X-7.6377 Y-68.9534 F600
G1 X-7.3313 Y-68.9979 F600
G1 X-7.0231 Y-69.0124 F600
G1 X-6.7179 Y-69.0266 F600
G1 X-6.4136 Y-69.0123 F600
G1 X-6.1066 Y-68.9979 F600
G1 X-5.8003 Y-68.9534 F600
G1 X-5.4885 Y-68.9081 F600
G1 X-5.1842 Y-68.8307 F600
G1 X-4.8887 Y-68.7555 F600
G1 X-4.6011 Y-68.6532 F600
G1 X-4.3078 Y-68.5488 F600
G1 X-4.0263 Y-68.4153 F600
G1 X-3.7476 Y-68.2832 F600
G1 X-3.4832 Y-68.1248 F600
G1 X-3.2182 Y-67.9661 F600
G1 X-2.9702 Y-67.7823 F600
G1 X-2.7191 Y-67.5964 F600
G1 X-2.4881 Y-67.3853 F600
G1 X-2.2643 Y-67.1807 F600
G1 X-2.1127 Y-67.0149 F600
G1 X-2.4527 Y-67.3870 F600
G1 X-0.0010 Y-67.3870 F600
G1 X2.4465 Y-67.3870 F600
G1 X2.1049 Y-67.0096 F600
G1 X2.2576 Y-67.1783 F600
G1 X2.4841 Y-67.3853 F600
G1 X2.7165 Y-67.5977 F600
G1 X2.9702 Y-67.7846 F600
G1 X3.2178 Y-67.9670 F600
G1 X3.4812 Y-68.1248 F600
G1 X3.7444 Y-68.2825 F600
G1 X4.0209 Y-68.4142 F600
G1 X4.3025 Y-68.5483 F600
G1 X4.5971 Y-68.6532 F600
G1 X4.8855 Y-68.7558 F600
G1 X5.1827 Y-68.8311 F600
G1 X5.4868 Y-68.9081 F600
G1 X5.7964 Y-68.9533 F600
G1 X6.1023 Y-68.9979 F600
G1 X6.4109 Y-69.0124 F600
G1 X6.7160 Y-69.0266 F600
G1 X7.0211 Y-69.0124 F600
G1 X7.3297 Y-68.9979 F600
G1 X7.6356 Y-68.9533 F600
G1 X7.9460 Y-68.9080 F600
G1 X8.2498 Y-68.8307 F600
G1 X8.5453 Y-68.7555 F600
G1 X8.8329 Y-68.6532 F600
G1 X9.1250 Y-68.5493 F600
G1 X9.4062 Y-68.4165 F600
G1 X9.6887 Y-68.2832 F600
G1 X9.9546 Y-68.1231 F600
G1 X10.2171 Y-67.9651 F600
G1 X10.4638 Y-67.7823 F600
G1 X10.7131 Y-67.5977 F600
G1 X10.9437 Y-67.3882 F600
G1 X11.1720 Y-67.1807 F600
G1 X11.3785 Y-66.9534 F600
G1 X11.5868 Y-66.7240 F600
G1 X11.7713 Y-66.4748 F600
G1 X11.9534 Y-66.2290 F600
G1 X12.1120 Y-65.9665 F600
G1 X12.2745 Y-65.6974 F600
G1 X12.4078 Y-65.4135 F600
G1 X12.5375 Y-65.1372 F600
G1 X12.6412 Y-64.8495 F600
G1 X12.7468 Y-64.5563 F600
G1 X12.8222 Y-64.2548 F600
G1 X12.8975 Y-63.9535 F600
G1 X12.9424 Y-63.6447 F600
G1 X12.9865 Y-63.3414 F600
G1 X13.0020 Y-63.0365 F600
G1 X13.0180 Y-62.7248 F600
G1 X13.0020 Y-62.4142 F600
G1 X12.9865 Y-62.1104 F600
G1 X12.9424 Y-61.8073 F600
G1 X12.8975 Y-61.4985 F600
G1 X12.8222 Y-61.1972 F600
G1 X12.7468 Y-60.8957 F600
G1 X12.6412 Y-60.6025 F600
G1 X12.5375 Y-60.3148 F600
G1 X12.4078 Y-60.0385 F600
G1 X12.2745 Y-59.7546 F600
G1 X12.1120 Y-59.4855 F600
G1 X11.9534 Y-59.2230 F600
G1 X11.7713 Y-58.9772 F600
G1 X11.5868 Y-58.7280 F600
G1 X11.3785 Y-58.4986 F600
G1 X11.1735 Y-58.2729 F600
G1 X11.0059 Y-58.1197 F600
G1 X11.3780 Y-58.4597 F600
G1 X11.3780 Y-56.0080 F600
G1 X11.3780 Y-53.5605 F600
G1 X11.0006 Y-53.9021 F600
G1 X11.1711 Y-53.7478 F600
G1 X11.3785 Y-53.5194 F600
G1 X11.5881 Y-53.2886 F600
G1 X11.7736 Y-53.0368 F600
G1 X11.9544 Y-52.7914 F600
G1 X12.1120 Y-52.5305 F600
G1 X12.2738 Y-52.2626 F600
G1 X12.4066 Y-51.9809 F600
G1 X12.5370 Y-51.7045 F600
G1 X12.6412 Y-51.4155 F600
G1 X12.7471 Y-51.1216 F600
G1 X12.8226 Y-50.8183 F600
G1 X12.8975 Y-50.5172 F600
G1 X12.9423 Y-50.2106 F600
G1 X12.9865 Y-49.9079 F600
G1 X13.0020 Y-49.6025 F600
G1 X13.0180 Y-49.2910 F600
G1 X13.0020 Y-48.9795 F600
G1 X12.9865 Y-48.6741 F600
G1 X12.9423 Y-48.3714 F600
G1 X12.8974 Y-48.0641 F600
G1 X12.8222 Y-47.7632 F600
G1 X12.7468 Y-47.4617 F600
G1 X12.6412 Y-47.1685 F600
G1 X12.5379 Y-46.8820 F600
G1 X12.4090 Y-46.6060 F600
G1 X12.2745 Y-46.3183 F600
G1 X12.1103 Y-46.0477 F600
G1 X11.9524 Y-45.7877 F600
G1 X11.7713 Y-45.5432 F600
G1 X11.5881 Y-45.2957 F600
G1 X11.3814 Y-45.0668 F600
G1 X11.1720 Y-44.8350 F600
G1 X10.9402 Y-44.6256 F600
G1 X10.7113 Y-44.4189 F600
G1 X10.4638 Y-44.2357 F600
G1 X10.2193 Y-44.0546 F600
G1 X9.9593 Y-43.8967 F600
G1 X9.6887 Y-43.7325 F600
G1 X9.4010 Y-43.5980 F600
G1 X9.1250 Y-43.4691 F600
G1 X8.8385 Y-43.3658 F600
G1 X8.5453 Y-43.2602 F600
G1 X8.2438 Y-43.1848 F600
G1 X7.9429 Y-43.1096 F600
G1 X7.6356 Y-43.0647 F600
G1 X7.3329 Y-43.0205 F600
G1 X7.0275 Y-43.0050 F600
G1 X6.7160 Y-42.9890 F600
G1 X6.4045 Y-43.0050 F600
G1 X6.0997 Y-43.0205 F600
G1 X5.9065 Y-43.0486 F600
G1 X7.4980 Y-42.8175 F600
G1 X7.4980 Y-28.7850 F600
G1 X7.4980 Y-20.9130 F600
G1 X7.4980 Y2.6960 F600
G1 X7.4980 Y2.7270 F600
G1 X7.4980 Y2.7590 F600
G1 X7.4980 Y26.3670 F600
G1 X7.4980 Y34.2470 F600
G1 X7.4980 Y50.6263 F600
G1 X4.9777 Y53.1467 F600
G1 X1.9344 Y56.1899 F600
G1 X0.6863 Y55.1636 F600
G1 X0.6034 Y55.0954 F600
G1 X0.5097 Y55.0452 F600
G1 X0.4166 Y54.9953 F600
G1 X0.3147 Y54.9644 F600
G1 X0.2120 Y54.9333 F600
G1 X0.1051 Y54.9228 F600
G1 X-0.0020 Y54.9122 F600
G1 X-0.1091 Y54.9228 F600
G1 X-0.2152 Y54.9332 F600
G1 X-0.3160 Y54.9639 F600
G1 X-0.4191 Y54.9953 F600
G1 X-0.5151 Y55.0465 F600
G1 X-0.6085 Y55.0963 F600
G1 X-0.6903 Y55.1636 F600
G1 X-1.9384 Y56.1899 F600
G1 X-4.9817 Y53.1467 F600
G1 X-7.5020 Y50.6263 F600
G1 X-7.5020 Y34.2400 F600
G1 X-7.5020 Y26.3670 F600
G1 X-7.5020 Y2.7590 F600
G1 X-7.5020 Y2.7270 F600
G1 X-7.5020 Y2.6960 F600
G1 X-7.5020 Y-20.9130 F600
G1 X-7.5020 Y-28.7920 F600
G1 X-7.5020 Y-42.8175 F600
G1 X-5.9105 Y-43.0486 F600
G1 X-6.1035 Y-43.0205 F600
G1 X-6.4072 Y-43.0050 F600
G1 X-6.7178 Y-42.9890 F600
G1 X-7.0295 Y-43.0050 F600
G1 X-7.3344 Y-43.0205 F600
G1 X-7.6377 Y-43.0646 F600
G1 X-7.9465 Y-43.1095 F600
G1 X-8.2478 Y-43.1848 F600
G1 X-8.5493 Y-43.2602 F600
G1 X-8.8425 Y-43.3658 F600
G1 X-9.1302 Y-43.4695 F600
G1 X-9.4065 Y-43.5992 F600
G1 X-9.6904 Y-43.7325 F600
G1 X-9.9595 Y-43.8950 F600
G1 X-10.2220 Y-44.0536 F600
G1 X-10.4678 Y-44.2357 F600
G1 X-10.7170 Y-44.4202 F600
G1 X-10.9464 Y-44.6285 F600
G1 X-11.1737 Y-44.8350 F600
G1 X-11.3812 Y-45.0633 F600
G1 X-11.5907 Y-45.2939 F600
G1 X-11.7753 Y-45.5432 F600
G1 X-11.9581 Y-45.7899 F600
G1 X-12.1161 Y-46.0524 F600
G1 X-12.2762 Y-46.3183 F600
G1 X-12.4095 Y-46.6008 F600
G1 X-12.5423 Y-46.8820 F600
G1 X-12.6462 Y-47.1741 F600
G1 X-12.7485 Y-47.4617 F600
G1 X-12.8237 Y-47.7572 F600
G1 X-12.9010 Y-48.0610 F600
G1 X-12.9463 Y-48.3714 F600
G1 X-12.9909 Y-48.6773 F600
G1 X-13.0054 Y-48.9859 F600
G1 X-13.0196 Y-49.2910 F600
G1 X-13.0054 Y-49.5961 F600
G1 X-12.9909 Y-49.9047 F600
G1 X-12.9463 Y-50.2106 F600
G1 X-12.9011 Y-50.5202 F600
G1 X-12.8241 Y-50.8243 F600
G1 X-12.7488 Y-51.1215 F600
G1 X-12.6462 Y-51.4099 F600
G1 X-12.5413 Y-51.7045 F600
G1 X-12.4072 Y-51.9861 F600
G1 X-12.2755 Y-52.2626 F600
G1 X-12.1178 Y-52.5258 F600
G1 X-11.9600 Y-52.7892 F600
G1 X-11.7776 Y-53.0368 F600
G1 X-11.5907 Y-53.2905 F600
G1 X-11.3783 Y-53.5229 F600
G1 X-11.1713 Y-53.7494 F600
G1 X-11.0026 Y-53.9021 F600
G1 X-11.3800 Y-53.5605 F600
G1 X-11.3800 Y-56.0080 F600
G1 X-11.3800 Y-58.4597 F600
G1 X-11.0079 Y-58.1197 F600
G1 Z-5.5000 F120
G1 X-11.1737 Y-58.2713 F600
G1 X-11.3783 Y-58.4951 F600
G1 X-11.5894 Y-58.7261 F600
G1 X-11.7753 Y-58.9772 F600
G1 X-11.9591 Y-59.2252 F600
G1 X-12.1178 Y-59.4902 F600
G1 X-12.2762 Y-59.7546 F600
G1 X-12.4083 Y-60.0333 F600
G1 X-12.5418 Y-60.3148 F600
G1 X-12.6462 Y-60.6081 F600
G1 X-12.7485 Y-60.8957 F600
G1 X-12.8237 Y-61.1912 F600
G1 X-12.9011 Y-61.4955 F600
G1 X-12.9464 Y-61.8073 F600
G1 X-12.9909 Y-62.1136 F600
G1 X-13.0053 Y-62.4206 F600
G1 X-13.0196 Y-62.7249 F600
G1 X-13.0054 Y-63.0301 F600
G1 X-12.9909 Y-63.3383 F600
G1 X-12.9464 Y-63.6447 F600
G1 X-12.9011 Y-63.9565 F600
G1 X-12.8237 Y-64.2608 F600
G1 X-12.7485 Y-64.5563 F600
G1 X-12.6462 Y-64.8439 F600
G1 X-12.5418 Y-65.1372 F600
G1 X-12.4083 Y-65.4187 F600
G1 X-12.2762 Y-65.6974 F600
G1 X-12.1178 Y-65.9618 F600
G1 X-11.9591 Y-66.2268 F600
G1 X-11.7753 Y-66.4748 F600
G1 X-11.5894 Y-66.7259 F600
G1 X-11.3783 Y-66.9569 F600
G1 X-11.1737 Y-67.1807 F600
G1 X-10.9499 Y-67.3853 F600
G1 X-10.7189 Y-67.5964 F600
G1 X-10.4678 Y-67.7823 F600
G1 X-10.2198 Y-67.9661 F600
G1 X-9.9548 Y-68.1248 F600
G1 X-9.6904 Y-68.2832 F600
G1 X-9.4117 Y-68.4153 F600
G1 X-9.1302 Y-68.5488 F600
G1 X-8.8369 Y-68.6532 F600
G1 X-8.5493 Y-68.7555 F600
G1 X-8.2538 Y-68.8307 F600
G1 X-7.9495 Y-68.9081 F600
G1 X-7.6377 Y-68.9534 F600
G1 X-7.3313 Y-68.9979 F600
G1 X-7.0231 Y-69.0124 F600
G1 X-6.7179 Y-69.0266 F600
G1 X-6.4136 Y-69.0123 F600
G1 X-6.1066 Y-68.9979 F600
G1 X-5.8003 Y-68.9534 F600
G1 X-5.4885 Y-68.9081 F600
G1 X-5.1842 Y-68.8307 F600
G1 X-4.8887 Y-68.7555 F600
G1 X-4.6011 Y-68.6532 F600
G1 X-4.3078 Y-68.5488 F600
G1 X-4.0263 Y-68.4153 F600
G1 X-3.7476 Y-68.2832 F600
G1 X-3.4832 Y-68.1248 F600
G1 X-3.2182 Y-67.9661 F600
G1 X-2.9702 Y-67.7823 F600
G1 X-2.7191 Y-67.5964 F600
G1 X-2.4881 Y-67.3853 F600
G1 X-2.2643 Y-67.1807 F600
G1 X-2.1127 Y-67.0149 F600
G1 X-2.4527 Y-67.3870 F600
G1 X-0.0010 Y-67.3870 F600
G1 X2.4465 Y-67.3870 F600
G1 X2.1049 Y-67.0096 F600
G1 X2.2576 Y-67.1783 F600
G1 X2.4841 Y-67.3853 F600
G1 X2.7165 Y-67.5977 F600
G1 X2.9702 Y-67.7846 F600
G1 X3.2178 Y-67.9670 F600
G1 X3.4812 Y-68.1248 F600
G1 X3.7444 Y-68.2825 F600
G1 X4.0209 Y-68.4142 F600
G1 X4.3025 Y-68.5483 F600
G1 X4.5971 Y-68.6532 F600
G1 X4.8855 Y-68.7558 F600
G1 X5.1827 Y-68.8311 F600
G1 X5.4868 Y-68.9081 F600
G1 X5.7964 Y-68.9533 F600
G1 X6.1023 Y-68.9979 F600
G1 X6.4109 Y-69.0124 F600
G1 X6.7160 Y-69.0266 F600
G1 X7.0211 Y-69.0124 F600
G1 X7.3297 Y-68.9979 F600
G1 X7.6356 Y-68.9533 F600
G1 X7.9460 Y-68.9080 F600
G1 X8.2498 Y-68.8307 F600
G1 X8.5453 Y-68.7555 F600
G1 X8.8329 Y-68.6532 F600
G1 X9.1250 Y-68.5493 F600
G1 X9.4062 Y-68.4165 F600
G1 X9.6887 Y-68.2832 F600
G1 X9.9546 Y-68.1231 F600
G1 X10.2171 Y-67.9651 F600
G1 X10.4638 Y-67.7823 F600
G1 X10.7131 Y-67.5977 F600
G1 X10.9437 Y-67.3882 F600
G1 X11.1720 Y-67.1807 F600
G1 X11.3785 Y-66.9534 F600
G1 X11.5868 Y-66.7240 F600
G1 X11.7713 Y-66.4748 F600
G1 X11.9534 Y-66.2290 F600
G1 X12.1120 Y-65.9665 F600
G1 X12.2745 Y-65.6974 F600
G1 X12.4078 Y-65.4135 F600
G1 X12.5375 Y-65.1372 F600
G1 X12.6412 Y-64.8495 F600
G1 X12.7468 Y-64.5563 F600
G1 X12.8222 Y-64.2548 F600
G1 X12.8975 Y-63.9535 F600
G1 X12.9424 Y-63.6447 F600
G1 X12.9865 Y-63.3414 F600
G1 X13.0020 Y-63.0365 F600
G1 X13.0180 Y-62.7248 F600
G1 X13.0020 Y-62.4142 F600
G1 X12.9865 Y-62.1104 F600
G1 X12.9424 Y-61.8073 F600
G1 X12.8975 Y-61.4985 F600
G1 X12.8222 Y-61.1972 F600
G1 X12.7468 Y-60.8957 F600
G1 X12.6412 Y-60.6025 F600
G1 X12.5375 Y-60.3148 F600
G1 X12.4078 Y-60.0385 F600
G1 X12.2745 Y-59.7546 F600
G1 X12.1120 Y-59.4855 F600
G1 X11.9534 Y-59.2230 F600
G1 X11.7713 Y-58.9772 F600
G1 X11.5868 Y-58.7280 F600
G1 X11.3785 Y-58.4986 F600
G1 X11.1735 Y-58.2729 F600
G1 X11.0059 Y-58.1197 F600
G1 X11.3780 Y-58.4597 F600
G1 X11.3780 Y-56.0080 F600
G1 X11.3780 Y-53.5605 F600
G1 X11.0006 Y-53.9021 F600
G1 X11.1711 Y-53.7478 F600
G1 X11.3785 Y-53.5194 F600
G1 X11.5881 Y-53.2886 F600
G1 X11.7736 Y-53.0368 F600
G1 X11.9544 Y-52.7914 F600
G1 X12.1120 Y-52.5305 F600
G1 X12.2738 Y-52.2626 F600
G1 X12.4066 Y-51.9809 F600
G1 X12.5370 Y-51.7045 F600
G1 X12.6412 Y-51.4155 F600
G1 X12.7471 Y-51.1216 F600
G1 X12.8226 Y-50.8183 F600
G1 X12.8975 Y-50.5172 F600
G1 X12.9423 Y-50.2106 F600
G1 X12.9865 Y-49.9079 F600
G1 X13.0020 Y-49.6025 F600
G1 X13.0180 Y-49.2910 F600
G1 X13.0020 Y-48.9795 F600
G1 X12.9865 Y-48.6741 F600
G1 X12.9423 Y-48.3714 F600
G1 X12.8974 Y-48.0641 F600
G1 X12.8222 Y-47.7632 F600
G1 X12.7468 Y-47.4617 F600
G1 X12.6412 Y-47.1685 F600
G1 X12.5379 Y-46.8820 F600
G1 X12.4090 Y-46.6060 F600
G1 X12.2745 Y-46.3183 F600
G1 X12.1103 Y-46.0477 F600
G1 X11.9524 Y-45.7877 F600
G1 X11.7713 Y-45.5432 F600
G1 X11.5881 Y-45.2957 F600
G1 X11.3814 Y-45.0668 F600
G1 X11.1720 Y-44.8350 F600
G1 X10.9402 Y-44.6256 F600
G1 X10.7113 Y-44.4189 F600
G1 X10.4638 Y-44.2357 F600
G1 X10.2193 Y-44.0546 F600
G1 X9.9593 Y-43.8967 F600
G1 X9.6887 Y-43.7325 F600
G1 X9.4010 Y-43.5980 F600
G1 X9.1250 Y-43.4691 F600
G1 X8.8385 Y-43.3658 F600
G1 X8.5453 Y-43.2602 F600
G1 X8.2438 Y-43.1848 F600
G1 X7.9429 Y-43.1096 F600
G1 X7.6356 Y-43.0647 F600
G1 X7.3329 Y-43.0205 F600
G1 X7.0275 Y-43.0050 F600
G1 X6.7160 Y-42.9890 F600
G1 X6.4045 Y-43.0050 F600
G1 X6.0997 Y-43.0205 F600
G1 X5.9065 Y-43.0486 F600
G1 X7.4980 Y-42.8175 F600
G1 X7.4980 Y-28.7850 F600
G1 X7.4980 Y-20.9130 F600
G1 X7.4980 Y2.6960 F600
G1 X7.4980 Y2.7270 F600
G1 X7.4980 Y2.7590 F600
G1 X7.4980 Y26.3670 F600
G1 X7.4980 Y34.2470 F600
G1 X7.4980 Y50.6263 F600
G1 X4.9777 Y53.1467 F600
G1 X1.9344 Y56.1899 F600
G1 X0.6863 Y55.1636 F600
G1 X0.6034 Y55.0954 F600
G1 X0.5097 Y55.0452 F600
G1 X0.4166 Y54.9953 F600
G1 X0.3147 Y54.9644 F600
G1 X0.2120 Y54.9333 F600
G1 X0.1051 Y54.9228 F600
G1 X-0.0020 Y54.9122 F600
G1 X-0.1091 Y54.9228 F600
G1 X-0.2152 Y54.9332 F600
G1 X-0.3160 Y54.9639 F600
G1 X-0.4191 Y54.9953 F600
G1 X-0.5151 Y55.0465 F600
G1 X-0.6085 Y55.0963 F600
G1 X-0.6903 Y55.1636 F600
G1 X-1.9384 Y56.1899 F600
G1 X-4.9817 Y53.1467 F600
G1 X-7.5020 Y50.6263 F600
G1 X-7.5020 Y34.2400 F600
G1 X-7.5020 Y26.3670 F600
G1 X-7.5020 Y2.7590 F600
G1 X-7.5020 Y2.7270 F600
G1 X-7.5020 Y2.6960 F600
G1 X-7.5020 Y-20.9130 F600
G1 X-7.5020 Y-28.7920 F600
G1 X-7.5020 Y-42.8175 F600
G1 X-5.9105 Y-43.0486 F600
G1 X-6.1035 Y-43.0205 F600
G1 X-6.4072 Y-43.0050 F600
G1 X-6.7178 Y-42.9890 F600
G1 X-7.0295 Y-43.0050 F600
G1 X-7.3344 Y-43.0205 F600
G1 X-7.6377 Y-43.0646 F600
G1 X-7.9465 Y-43.1095 F600
G1 X-8.2478 Y-43.1848 F600
G1 X-8.5493 Y-43.2602 F600
G1 X-8.8425 Y-43.3658 F600
G1 X-9.1302 Y-43.4695 F600
G1 X-9.4065 Y-43.5992 F600
G1 X-9.6904 Y-43.7325 F600
G1 X-9.9595 Y-43.8950 F600
G1 X-10.2220 Y-44.0536 F600
G1 X-10.4678 Y-44.2357 F600
G1 X-10.7170 Y-44.4202 F600
G1 X-10.9464 Y-44.6285 F600
G1 X-11.1737 Y-44.8350 F600
G1 X-11.3812 Y-45.0633 F600
G1 X-11.5907 Y-45.2939 F600
G1 X-11.7753 Y-45.5432 F600
G1 X-11.9581 Y-45.7899 F600
G1 X-12.1161 Y-46.0524 F600
G1 X-12.2762 Y-46.3183 F600
G1 X-12.4095 Y-46.6008 F600
G1 X-12.5423 Y-46.8820 F600
G1 X-12.6462 Y-47.1741 F600
G1 X-12.7485 Y-47.4617 F600
G1 X-12.8237 Y-47.7572 F600
G1 X-12.9010 Y-48.0610 F600
G1 X-12.9463 Y-48.3714 F600
G1 X-12.9909 Y-48.6773 F600
G1 X-13.0054 Y-48.9859 F600
G1 X-13.0196 Y-49.2910 F600
G1 X-13.0054 Y-49.5961 F600
G1 X-12.9909 Y-49.9047 F600
G1 X-12.9463 Y-50.2106 F600
G1 X-12.9011 Y-50.5202 F600
G1 X-12.8241 Y-50.8243 F600
G1 X-12.7488 Y-51.1215 F600
G1 X-12.6462 Y-51.4099 F600
G1 X-12.5413 Y-51.7045 F600
G1 X-12.4072 Y-51.9861 F600
G1 X-12.2755 Y-52.2626 F600
G1 X-12.1178 Y-52.5258 F600
G1 X-11.9600 Y-52.7892 F600
G1 X-11.7776 Y-53.0368 F600
G1 X-11.5907 Y-53.2905 F600
G1 X-11.3783 Y-53.5229 F600
G1 X-11.1713 Y-53.7494 F600
G1 X-11.0026 Y-53.9021 F600
G1 X-11.3800 Y-53.5605 F600
G1 X-11.3800 Y-56.0080 F600
G1 X-11.3800 Y-58.4597 F600
G1 X-11.0079 Y-58.1197 F600
G1 Z-6.2000 F120
G1 X-11.1737 Y-58.2713 F600
G1 X-11.3783 Y-58.4951 F600
G1 X-11.5894 Y-58.7261 F600
G1 X-11.7753 Y-58.9772 F600
G1 X-11.9591 Y-59.2252 F600
G1 X-12.1178 Y-59.4902 F600
G1 X-12.2762 Y-59.7546 F600
G1 X-12.4083 Y-60.0333 F600
G1 X-12.5418 Y-60.3148 F600
G1 X-12.6462 Y-60.6081 F600
G1 X-12.7485 Y-60.8957 F600
G1 X-12.8237 Y-61.1912 F600
G1 X-12.9011 Y-61.4955 F600
G1 X-12.9464 Y-61.8073 F600
G1 X-12.9909 Y-62.1136 F600
G1 X-13.0053 Y-62.4206 F600
G1 X-13.0196 Y-62.7249 F600
G1 X-13.0054 Y-63.0301 F600
G1 X-12.9909 Y-63.3383 F600
G1 X-12.9464 Y-63.6447 F600
G1 X-12.9011 Y-63.9565 F600
G1 X-12.8237 Y-64.2608 F600
G1 X-12.7485 Y-64.5563 F600
G1 X-12.6462 Y-64.8439 F600
G1 X-12.5418 Y-65.1372 F600
G1 X-12.4083 Y-65.4187 F600
G1 X-12.2762 Y-65.6974 F600
G1 X-12.1178 Y-65.9618 F600
G1 X-11.9591 Y-66.2268 F600
G1 X-11.7753 Y-66.4748 F600
G1 X-11.5894 Y-66.7259 F600
G1 X-11.3783 Y-66.9569 F600
G1 X-11.1737 Y-67.1807 F600
G1 X-10.9499 Y-67.3853 F600
G1 X-10.7189 Y-67.5964 F600
G1 X-10.4678 Y-67.7823 F600
G1 X-10.2198 Y-67.9661 F600
G1 X-9.9548 Y-68.1248 F600
G1 X-9.6904 Y-68.2832 F600
G1 X-9.4117 Y-68.4153 F600
G1 X-9.1302 Y-68.5488 F600
G1 X-8.8369 Y-68.6532 F600
G1 X-8.5493 Y-68.7555 F600
G1 X-8.2538 Y-68.8307 F600
G1 X-7.9495 Y-68.9081 F600
G1 X-7.6377 Y-68.9534 F600
G1 X-7.3313 Y-68.9979 F600
G1 X-7.0231 Y-69.0124 F600
G1 X-6.7179 Y-69.0266 F600
G1 X-6.4136 Y-69.0123 F600
G1 X-6.1066 Y-68.9979 F600
G1 X-5.8003 Y-68.9534 F600
G1 X-5.4885 Y-68.9081 F600
G1 X-5.1842 Y-68.8307 F600
G1 X-4.8887 Y-68.7555 F600
G1 X-4.6011 Y-68.6532 F600
G1 X-4.3078 Y-68.5488 F600
G1 X-4.0263 Y-68.4153 F600
G1 X-3.7476 Y-68.2832 F600
G1 X-3.4832 Y-68.1248 F600
G1 X-3.2182 Y-67.9661 F600
G1 X-2.9702 Y-67.7823 F600
G1 X-2.7191 Y-67.5964 F600
G1 X-2.4881 Y-67.3853 F600
G1 X-2.2643 Y-67.1807 F600
G1 X-2.1127 Y-67.0149 F600
G1 X-2.4527 Y-67.3870 F600
G1 X-0.0010 Y-67.3870 F600
G1 X2.4465 Y-67.3870 F600
G1 X2.1049 Y-67.0096 F600
G1 X2.2576 Y-67.1783 F600
G1 X2.4841 Y-67.3853 F600
G1 X2.7165 Y-67.5977 F600
G1 X2.9702 Y-67.7846 F600
G1 X3.2178 Y-67.9670 F600
G1 X3.4812 Y-68.1248 F600
G1 X3.7444 Y-68.2825 F600
G1 X4.0209 Y-68.4142 F600
G1 X4.3025 Y-68.5483 F600
G1 X4.5971 Y-68.6532 F600
G1 X4.8855 Y-68.7558 F600
G1 X5.1827 Y-68.8311 F600
G1 X5.4868 Y-68.9081 F600
G1 X5.7964 Y-68.9533 F600
G1 X6.1023 Y-68.9979 F600
G1 X6.4109 Y-69.0124 F600
G1 X6.7160 Y-69.0266 F600
G1 X7.0211 Y-69.0124 F600
G1 X7.3297 Y-68.9979 F600
G1 X7.6356 Y-68.9533 F600
G1 X7.9460 Y-68.9080 F600
G1 X8.2498 Y-68.8307 F600
G1 X8.5453 Y-68.7555 F600
G1 X8.8329 Y-68.6532 F600
G1 X9.1250 Y-68.5493 F600
G1 X9.4062 Y-68.4165 F600
G1 X9.6887 Y-68.2832 F600
G1 X9.9546 Y-68.1231 F600
G1 X10.2171 Y-67.9651 F600
G1 X10.4638 Y-67.7823 F600
G1 X10.7131 Y-67.5977 F600
G1 X10.9437 Y-67.3882 F600
G1 X11.1720 Y-67.1807 F600
G1 X11.3785 Y-66.9534 F600
G1 X11.5868 Y-66.7240 F600
G1 X11.7713 Y-66.4748 F600
G1 X11.9534 Y-66.2290 F600
G1 X12.1120 Y-65.9665 F600
G1 X12.2745 Y-65.6974 F600
G1 X12.4078 Y-65.4135 F600
G1 X12.5375 Y-65.1372 F600
G1 X12.6412 Y-64.8495 F600
G1 X12.7468 Y-64.5563 F600
G1 X12.8222 Y-64.2548 F600
G1 X12.8975 Y-63.9535 F600
G1 X12.9424 Y-63.6447 F600
G1 X12.9865 Y-63.3414 F600
G1 X13.0020 Y-63.0365 F600
G1 X13.0180 Y-62.7248 F600
G1 X13.0020 Y-62.4142 F600
G1 X12.9865 Y-62.1104 F600
G1 X12.9424 Y-61.8073 F600
G1 X12.8975 Y-61.4985 F600
G1 X12.8222 Y-61.1972 F600
G1 X12.7468 Y-60.8957 F600
G1 X12.6412 Y-60.6025 F600
G1 X12.5375 Y-60.3148 F600
G1 X12.4078 Y-60.0385 F600
G1 X12.2745 Y-59.7546 F600
G1 X12.1120 Y-59.4855 F600
G1 X11.9534 Y-59.2230 F600
G1 X11.7713 Y-58.9772 F600
G1 X11.5868 Y-58.7280 F600
G1 X11.3785 Y-58.4986 F600
G1 X11.1735 Y-58.2729 F600
G1 X11.0059 Y-58.1197 F600
G1 X11.3780 Y-58.4597 F600
G1 X11.3780 Y-56.0080 F600
G1 X11.3780 Y-53.5605 F600
G1 X11.0006 Y-53.9021 F600
G1 X11.1711 Y-53.7478 F600
G1 X11.3785 Y-53.5194 F600
G1 X11.5881 Y-53.2886 F600
G1 X11.7736 Y-53.0368 F600
G1 X11.9544 Y-52.7914 F600
G1 X12.1120 Y-52.5305 F600
G1 X12.2738 Y-52.2626 F600
G1 X12.4066 Y-51.9809 F600
G1 X12.5370 Y-51.7045 F600
G1 X12.6412 Y-51.4155 F600
G1 X12.7471 Y-51.1216 F600
G1 X12.8226 Y-50.8183 F600
G1 X12.8975 Y-50.5172 F600
G1 X12.9423 Y-50.2106 F600
G1 X12.9865 Y-49.9079 F600
G1 X13.0020 Y-49.6025 F600
G1 X13.0180 Y-49.2910 F600
G1 X13.0020 Y-48.9795 F600
G1 X12.9865 Y-48.6741 F600
G1 X12.9423 Y-48.3714 F600
G1 X12.8974 Y-48.0641 F600
G1 X12.8222 Y-47.7632 F600
G1 X12.7468 Y-47.4617 F600
G1 X12.6412 Y-47.1685 F600
G1 X12.5379 Y-46.8820 F600
G1 X12.4090 Y-46.6060 F600
G1 X12.2745 Y-46.3183 F600
G1 X12.1103 Y-46.0477 F600
G1 X11.9524 Y-45.7877 F600
G1 X11.7713 Y-45.5432 F600
G1 X11.5881 Y-45.2957 F600
G1 X11.3814 Y-45.0668 F600
G1 X11.1720 Y-44.8350 F600
G1 X10.9402 Y-44.6256 F600
G1 X10.7113 Y-44.4189 F600
G1 X10.4638 Y-44.2357 F600
G1 X10.2193 Y-44.0546 F600
G1 X9.9593 Y-43.8967 F600
G1 X9.6887 Y-43.7325 F600
G1 X9.4010 Y-43.5980 F600
G1 X9.1250 Y-43.4691 F600
G1 X8.8385 Y-43.3658 F600
G1 X8.5453 Y-43.2602 F600
G1 X8.2438 Y-43.1848 F600
G1 X7.9429 Y-43.1096 F600
G1 X7.6356 Y-43.0647 F600
G1 X7.3329 Y-43.0205 F600
G1 X7.0275 Y-43.0050 F600
G1 X6.7160 Y-42.9890 F600
G1 X6.4045 Y-43.0050 F600
G1 X6.0997 Y-43.0205 F600
G1 X5.9065 Y-43.0486 F600
G1 X7.4980 Y-42.8175 F600
G1 X7.4980 Y-28.7850 F600
G1 X7.4980 Y-20.9130 F600
G1 X7.4980 Y2.6960 F600
G1 X7.4980 Y2.7270 F600
G1 X7.4980 Y2.7590 F600
G1 X7.4980 Y26.3670 F600
G1 X7.4980 Y34.2470 F600
G1 X7.4980 Y50.6263 F600
G1 X4.9777 Y53.1467 F600
G1 X1.9344 Y56.1899 F600
G1 X0.6863 Y55.1636 F600
G1 X0.6034 Y55.0954 F600
G1 X0.5097 Y55.0452 F600
G1 X0.4166 Y54.9953 F600
G1 X0.3147 Y54.9644 F600
G1 X0.2120 Y54.9333 F600
G1 X0.1051 Y54.9228 F600
G1 X-0.0020 Y54.9122 F600
G1 X-0.1091 Y54.9228 F600
G1 X-0.2152 Y54.9332 F600
G1 X-0.3160 Y54.9639 F600
G1 X-0.4191 Y54.9953 F600
G1 X-0.5151 Y55.0465 F600
G1 X-0.6085 Y55.0963 F600
G1 X-0.6903 Y55.1636 F600
G1 X-1.9384 Y56.1899 F600
G1 X-4.9817 Y53.1467 F600
G1 X-7.5020 Y50.6263 F600
G1 X-7.5020 Y34.2400 F600
G1 X-7.5020 Y26.3670 F600
G1 X-7.5020 Y2.7590 F600
G1 X-7.5020 Y2.7270 F600
G1 X-7.5020 Y2.6960 F600
G1 X-7.5020 Y-20.9130 F600
G1 X-7.5020 Y-28.7920 F600
G1 X-7.5020 Y-42.8175 F600
G1 X-5.9105 Y-43.0486 F600
G1 X-6.1035 Y-43.0205 F600
G1 X-6.4072 Y-43.0050 F600
G1 X-6.7178 Y-42.9890 F600
G1 X-7.0295 Y-43.0050 F600
G1 X-7.3344 Y-43.0205 F600
G1 X-7.6377 Y-43.0646 F600
G1 X-7.9465 Y-43.1095 F600
G1 X-8.2478 Y-43.1848 F600
G1 X-8.5493 Y-43.2602 F600
G1 X-8.8425 Y-43.3658 F600
G1 X-9.1302 Y-43.4695 F600
G1 X-9.4065 Y-43.5992 F600
G1 X-9.6904 Y-43.7325 F600
G1 X-9.9595 Y-43.8950 F600
G1 X-10.2220 Y-44.0536 F600
G1 X-10.4678 Y-44.2357 F600
G1 X-10.7170 Y-44.4202 F600
G1 X-10.9464 Y-44.6285 F600
G1 X-11.1737 Y-44.8350 F600
G1 X-11.3812 Y-45.0633 F600
G1 X-11.5907 Y-45.2939 F600
G1 X-11.7753 Y-45.5432 F600
G1 X-11.9581 Y-45.7899 F600
G1 X-12.1161 Y-46.0524 F600
G1 X-12.2762 Y-46.3183 F600
G1 X-12.4095 Y-46.6008 F600
G1 X-12.5423 Y-46.8820 F600
G1 X-12.6462 Y-47.1741 F600
G1 X-12.7485 Y-47.4617 F600
G1 X-12.8237 Y-47.7572 F600
G1 X-12.9010 Y-48.0610 F600
G1 X-12.9463 Y-48.3714 F600
G1 X-12.9909 Y-48.6773 F600
G1 X-13.0054 Y-48.9859 F600
G1 X-13.0196 Y-49.2910 F600
G1 X-13.0054 Y-49.5961 F600
G1 X-12.9909 Y-49.9047 F600
G1 X-12.9463 Y-50.2106 F600
G1 X-12.9011 Y-50.5202 F600
G1 X-12.8241 Y-50.8243 F600
G1 X-12.7488 Y-51.1215 F600
G1 X-12.6462 Y-51.4099 F600
G1 X-12.5413 Y-51.7045 F600
G1 X-12.4072 Y-51.9861 F600
G1 X-12.2755 Y-52.2626 F600
G1 X-12.1178 Y-52.5258 F600
G1 X-11.9600 Y-52.7892 F600
G1 X-11.7776 Y-53.0368 F600
G1 X-11.5907 Y-53.2905 F600
G1 X-11.3783 Y-53.5229 F600
G1 X-11.1713 Y-53.7494 F600
G1 X-11.0026 Y-53.9021 F600
G1 X-11.3800 Y-53.5605 F600
G1 X-11.3800 Y-56.0080 F600
G1 X-11.3800 Y-58.4597 F600
G1 X-11.0079 Y-58.1197 F600
G0 Z10.0000

; ── DRILL MANUALLY (holes too small for current tool) ──
; Hole d≈3.20mm at X=-6.719 Y=-62.726  → use 3.2mm drill bit
; Hole d≈3.20mm at X=-6.697 Y=-49.291  → use 3.2mm drill bit
; Hole d≈3.20mm at X=6.696 Y=-62.737  → use 3.2mm drill bit
; Hole d≈3.20mm at X=6.694 Y=-49.291  → use 3.2mm drill bit
; Hole d≈3.19mm at X=-0.002 Y=34.487  → use 3.2mm drill bit
; ──────────────────────────────────────────────────────


G0 Z10.0000  ; retract
G0 X0 Y0  ; return to origin
M5        ; spindle off
M30       ; end of program