; ═══════════════════════════════════════════
; Part      : 6INCH_ARM
; Thickness : 6.0 mm (CFRP)
; Tool      : 3.0 mm carbide 2-flute end mill
; Spindle   : 15000 RPM | Feed XY: 600 mm/min | Z: 120 mm/min
; Step-down : 0.5 mm/pass  ← true arc G2/G3 code
; Z=0 = top surface of material
; !! CFRP DUST HAZARD – dust extraction + N95 respirator required !!
; ═══════════════════════════════════════════

G21  ; mm units
G90  ; absolute coordinates
G17  ; XY plane
G0 Z10.0000
G0 X0 Y0
M3 S15000  ; spindle on
G4 P3          ; wait 3 s

; outer profile
G0 Z10.0000
G0 X3.1066 Y-9.8800
G1 Z-0.5000 F120
G3 X9.8800 Y-3.1066 I3.6109 J3.1625 F600
G1 X9.8800 Y3.1066 F600
G3 X6.0000 Y11.4636 I-3.1625 J3.6109 F600
G1 X6.0000 Y106.0140 F600
G1 X1.8385 Y110.1755 F600
G2 X-1.8385 Y110.1755 I-1.8385 J1.8385 F600
G1 X-6.0000 Y106.0140 F600
G1 X-6.0000 Y11.4636 F600
G3 X-9.8800 Y3.1066 I-0.7175 J-4.7461 F600
G1 X-9.8800 Y-3.1066 F600
G3 X-3.1066 Y-9.8800 I3.1625 J-3.6109 F600
G1 X3.1066 Y-9.8800 F600
G1 X3.1066 Y-9.8800 F600
G1 Z-1.0000 F120
G3 X9.8800 Y-3.1066 I3.6109 J3.1625 F600
G1 X9.8800 Y3.1066 F600
G3 X6.0000 Y11.4636 I-3.1625 J3.6109 F600
G1 X6.0000 Y106.0140 F600
G1 X1.8385 Y110.1755 F600
G2 X-1.8385 Y110.1755 I-1.8385 J1.8385 F600
G1 X-6.0000 Y106.0140 F600
G1 X-6.0000 Y11.4636 F600
G3 X-9.8800 Y3.1066 I-0.7175 J-4.7461 F600
G1 X-9.8800 Y-3.1066 F600
G3 X-3.1066 Y-9.8800 I3.1625 J-3.6109 F600
G1 X3.1066 Y-9.8800 F600
G1 X3.1066 Y-9.8800 F600
G1 Z-1.5000 F120
G3 X9.8800 Y-3.1066 I3.6109 J3.1625 F600
G1 X9.8800 Y3.1066 F600
G3 X6.0000 Y11.4636 I-3.1625 J3.6109 F600
G1 X6.0000 Y106.0140 F600
G1 X1.8385 Y110.1755 F600
G2 X-1.8385 Y110.1755 I-1.8385 J1.8385 F600
G1 X-6.0000 Y106.0140 F600
G1 X-6.0000 Y11.4636 F600
G3 X-9.8800 Y3.1066 I-0.7175 J-4.7461 F600
G1 X-9.8800 Y-3.1066 F600
G3 X-3.1066 Y-9.8800 I3.1625 J-3.6109 F600
G1 X3.1066 Y-9.8800 F600
G1 X3.1066 Y-9.8800 F600
G1 Z-2.0000 F120
G3 X9.8800 Y-3.1066 I3.6109 J3.1625 F600
G1 X9.8800 Y3.1066 F600
G3 X6.0000 Y11.4636 I-3.1625 J3.6109 F600
G1 X6.0000 Y106.0140 F600
G1 X1.8385 Y110.1755 F600
G2 X-1.8385 Y110.1755 I-1.8385 J1.8385 F600
G1 X-6.0000 Y106.0140 F600
G1 X-6.0000 Y11.4636 F600
G3 X-9.8800 Y3.1066 I-0.7175 J-4.7461 F600
G1 X-9.8800 Y-3.1066 F600
G3 X-3.1066 Y-9.8800 I3.1625 J-3.6109 F600
G1 X3.1066 Y-9.8800 F600
G1 X3.1066 Y-9.8800 F600
G1 Z-2.5000 F120
G3 X9.8800 Y-3.1066 I3.6109 J3.1625 F600
G1 X9.8800 Y3.1066 F600
G3 X6.0000 Y11.4636 I-3.1625 J3.6109 F600
G1 X6.0000 Y106.0140 F600
G1 X1.8385 Y110.1755 F600
G2 X-1.8385 Y110.1755 I-1.8385 J1.8385 F600
G1 X-6.0000 Y106.0140 F600
G1 X-6.0000 Y11.4636 F600
G3 X-9.8800 Y3.1066 I-0.7175 J-4.7461 F600
G1 X-9.8800 Y-3.1066 F600
G3 X-3.1066 Y-9.8800 I3.1625 J-3.6109 F600
G1 X3.1066 Y-9.8800 F600
G1 X3.1066 Y-9.8800 F600
G1 Z-3.0000 F120
G3 X9.8800 Y-3.1066 I3.6109 J3.1625 F600
G1 X9.8800 Y3.1066 F600
G3 X6.0000 Y11.4636 I-3.1625 J3.6109 F600
G1 X6.0000 Y106.0140 F600
G1 X1.8385 Y110.1755 F600
G2 X-1.8385 Y110.1755 I-1.8385 J1.8385 F600
G1 X-6.0000 Y106.0140 F600
G1 X-6.0000 Y11.4636 F600
G3 X-9.8800 Y3.1066 I-0.7175 J-4.7461 F600
G1 X-9.8800 Y-3.1066 F600
G3 X-3.1066 Y-9.8800 I3.1625 J-3.6109 F600
G1 X3.1066 Y-9.8800 F600
G1 X3.1066 Y-9.8800 F600
G1 Z-3.5000 F120
G3 X9.8800 Y-3.1066 I3.6109 J3.1625 F600
G1 X9.8800 Y3.1066 F600
G3 X6.0000 Y11.4636 I-3.1625 J3.6109 F600
G1 X6.0000 Y106.0140 F600
G1 X1.8385 Y110.1755 F600
G2 X-1.8385 Y110.1755 I-1.8385 J1.8385 F600
G1 X-6.0000 Y106.0140 F600
G1 X-6.0000 Y11.4636 F600
G3 X-9.8800 Y3.1066 I-0.7175 J-4.7461 F600
G1 X-9.8800 Y-3.1066 F600
G3 X-3.1066 Y-9.8800 I3.1625 J-3.6109 F600
G1 X3.1066 Y-9.8800 F600
G1 X3.1066 Y-9.8800 F600
G1 Z-4.0000 F120
G3 X9.8800 Y-3.1066 I3.6109 J3.1625 F600
G1 X9.8800 Y3.1066 F600
G3 X6.0000 Y11.4636 I-3.1625 J3.6109 F600
G1 X6.0000 Y106.0140 F600
G1 X1.8385 Y110.1755 F600
G2 X-1.8385 Y110.1755 I-1.8385 J1.8385 F600
G1 X-6.0000 Y106.0140 F600
G1 X-6.0000 Y11.4636 F600
G3 X-9.8800 Y3.1066 I-0.7175 J-4.7461 F600
G1 X-9.8800 Y-3.1066 F600
G3 X-3.1066 Y-9.8800 I3.1625 J-3.6109 F600
G1 X3.1066 Y-9.8800 F600
G1 X3.1066 Y-9.8800 F600
G1 Z-4.5000 F120
G3 X9.8800 Y-3.1066 I3.6109 J3.1625 F600
G1 X9.8800 Y3.1066 F600
G3 X6.0000 Y11.4636 I-3.1625 J3.6109 F600
G1 X6.0000 Y106.0140 F600
G1 X1.8385 Y110.1755 F600
G2 X-1.8385 Y110.1755 I-1.8385 J1.8385 F600
G1 X-6.0000 Y106.0140 F600
G1 X-6.0000 Y11.4636 F600
G3 X-9.8800 Y3.1066 I-0.7175 J-4.7461 F600
G1 X-9.8800 Y-3.1066 F600
G3 X-3.1066 Y-9.8800 I3.1625 J-3.6109 F600
G1 X3.1066 Y-9.8800 F600
G1 X3.1066 Y-9.8800 F600
G1 Z-5.0000 F120
G3 X9.8800 Y-3.1066 I3.6109 J3.1625 F600
G1 X9.8800 Y3.1066 F600
G3 X6.0000 Y11.4636 I-3.1625 J3.6109 F600
G1 X6.0000 Y106.0140 F600
G1 X1.8385 Y110.1755 F600
G2 X-1.8385 Y110.1755 I-1.8385 J1.8385 F600
G1 X-6.0000 Y106.0140 F600
G1 X-6.0000 Y11.4636 F600
G3 X-9.8800 Y3.1066 I-0.7175 J-4.7461 F600
G1 X-9.8800 Y-3.1066 F600
G3 X-3.1066 Y-9.8800 I3.1625 J-3.6109 F600
G1 X3.1066 Y-9.8800 F600
G1 X3.1066 Y-9.8800 F600
G1 Z-5.5000 F120
G3 X9.8800 Y-3.1066 I3.6109 J3.1625 F600
G1 X9.8800 Y3.1066 F600
G3 X6.0000 Y11.4636 I-3.1625 J3.6109 F600
G1 X6.0000 Y106.0140 F600
G1 X1.8385 Y110.1755 F600
G2 X-1.8385 Y110.1755 I-1.8385 J1.8385 F600
G1 X-6.0000 Y106.0140 F600
G1 X-6.0000 Y11.4636 F600
G3 X-9.8800 Y3.1066 I-0.7175 J-4.7461 F600
G1 X-9.8800 Y-3.1066 F600
G3 X-3.1066 Y-9.8800 I3.1625 J-3.6109 F600
G1 X3.1066 Y-9.8800 F600
G1 X3.1066 Y-9.8800 F600
G1 Z-6.2000 F120
G3 X9.8800 Y-3.1066 I3.6109 J3.1625 F600
G1 X9.8800 Y3.1066 F600
G3 X6.0000 Y11.4636 I-3.1625 J3.6109 F600
G1 X6.0000 Y106.0140 F600
G1 X1.8385 Y110.1755 F600
G2 X-1.8385 Y110.1755 I-1.8385 J1.8385 F600
G1 X-6.0000 Y106.0140 F600
G1 X-6.0000 Y11.4636 F600
G3 X-9.8800 Y3.1066 I-0.7175 J-4.7461 F600
G1 X-9.8800 Y-3.1066 F600
G3 X-3.1066 Y-9.8800 I3.1625 J-3.6109 F600
G1 X3.1066 Y-9.8800 F600
G1 X3.1066 Y-9.8800 F600
G0 Z10.0000

; ── DRILL MANUALLY ─────────────────────────────
; DRILL MANUALLY  d≈3.20mm  X≈-6.718 Y≈-6.718  → use 3.2mm drill
; DRILL MANUALLY  d≈3.20mm  X≈6.718 Y≈-6.718  → use 3.2mm drill
; DRILL MANUALLY  d≈3.20mm  X≈-6.718 Y≈6.718  → use 3.2mm drill
; DRILL MANUALLY  d≈3.20mm  X≈6.718 Y≈6.718  → use 3.2mm drill
; ────────────────────────────────────────────────

G0 Z10.0000
G0 X0 Y0
M5   ; spindle off
M30  ; end of program