; ════════════════════════════════════
; Part    : CENTER_PLATE
; Thickness: 3.00 mm
; Tool    : 3.0 mm carbide 2-flute end mill
; Spindle : 15000 RPM
; Feed XY : 600 mm/min
; Feed Z  : 120 mm/min
; Step-down: 0.5 mm/pass
; Z=0 = top surface of material
; ════════════════════════════════════
; !! CFRP DUST WARNING !!
; Use dust extraction + N95 respirator
; ════════════════════════════════════

G21       ; mm units
G90       ; absolute positioning
G17       ; XY plane
G0 Z10.0000  ; safe height
G0 X0 Y0
M3 S15000  ; spindle on (CW)
G4 P3     ; wait 3 s for spindle to spin up

; Outer profile (tool offset +1.5mm)
G0 Z10.0000
G0 X-16.0484 Y20.4556
G1 Z-0.5000 F120
G1 X-15.6529 Y20.7683 F600
G1 X-15.1394 Y20.7455 F600
G1 X-15.2559 Y20.7507 F600
G1 X-15.5234 Y20.7371 F600
G1 X-15.7925 Y20.7233 F600
G1 X-16.0588 Y20.6835 F600
G1 X-16.3217 Y20.6442 F600
G1 X-16.5804 Y20.5805 F600
G1 X-16.8453 Y20.5154 F600
G1 X-17.1020 Y20.4238 F600
G1 X-17.3580 Y20.3325 F600
G1 X-17.6031 Y20.2161 F600
G1 X-17.8467 Y20.1005 F600
G1 X-18.0779 Y19.9616 F600
G1 X-18.3077 Y19.8234 F600
G1 X-18.5237 Y19.6635 F600
G1 X-18.7426 Y19.5013 F600
G1 X-18.9438 Y19.3182 F600
G1 X-19.1408 Y19.1388 F600
G1 X-19.3202 Y18.9418 F600
G1 X-19.5033 Y18.7406 F600
G1 X-19.6655 Y18.5217 F600
G1 X-19.8254 Y18.3057 F600
G1 X-19.9636 Y18.0759 F600
G1 X-20.1034 Y17.8433 F600
G1 X-20.2195 Y17.5972 F600
G1 X-20.3345 Y17.3536 F600
G1 X-20.4249 Y17.1014 F600
G1 X-20.5158 Y16.8481 F600
G1 X-20.5818 Y16.5856 F600
G1 X-20.6477 Y16.3234 F600
G1 X-20.6875 Y16.0568 F600
G1 X-20.7279 Y15.7867 F600
G1 X-20.7404 Y15.5138 F600
G1 X-20.7525 Y15.2508 F600
G1 X-20.7476 Y15.1378 F600
G1 X-20.7703 Y15.6593 F600
G1 X-20.4469 Y16.0588 F600
G1 X-20.4946 Y15.9999 F600
G1 X-20.6908 Y15.7425 F600
G1 X-20.8859 Y15.4867 F600
G1 X-21.0735 Y15.2265 F600
G1 X-21.2604 Y14.9674 F600
G1 X-21.4400 Y14.7050 F600
G1 X-21.6183 Y14.4443 F600
G1 X-21.7924 Y14.1774 F600
G1 X-21.9681 Y13.9080 F600
G1 X-22.1353 Y13.6364 F600
G1 X-22.3013 Y13.3668 F600
G1 X-22.4619 Y13.0920 F600
G1 X-22.6235 Y12.8157 F600
G1 X-22.7776 Y12.5362 F600
G1 X-22.9323 Y12.2556 F600
G1 X-23.0795 Y11.9707 F600
G1 X-23.2257 Y11.6879 F600
G1 X-23.3655 Y11.4009 F600
G1 X-23.5054 Y11.1137 F600
G1 X-23.6378 Y10.8245 F600
G1 X-23.7698 Y10.5363 F600
G1 X-23.8954 Y10.2449 F600
G1 X-24.0229 Y9.9493 F600
G1 X-24.1417 Y9.6505 F600
G1 X-24.2589 Y9.3560 F600
G1 X-24.3697 Y9.0584 F600
G1 X-24.4810 Y8.7594 F600
G1 X-24.5850 Y8.4583 F600
G1 X-24.6891 Y8.1564 F600
G1 X-24.7858 Y7.8514 F600
G1 X-24.8831 Y7.5448 F600
G1 X-24.9717 Y7.2361 F600
G1 X-25.0588 Y6.9330 F600
G1 X-25.1325 Y6.6558 F600
G1 X-25.0012 Y7.1492 F600
G1 X-24.3976 Y7.3687 F600
G1 X-24.5946 Y7.2971 F600
G1 X-24.9411 Y7.1336 F600
G1 X-25.2938 Y6.9672 F600
G1 X-25.6279 Y6.7660 F600
G1 X-25.9559 Y6.5684 F600
G1 X-26.2645 Y6.3415 F600
G1 X-26.5804 Y6.1093 F600
G1 X-26.8702 Y5.8457 F600
G1 X-27.1560 Y5.5858 F600
G1 X-27.4159 Y5.2989 F600
G1 X-27.6760 Y5.0116 F600
G1 X-27.9066 Y4.7009 F600
G1 X-28.1374 Y4.3898 F600
G1 X-28.3372 Y4.0567 F600
G1 X-28.5377 Y3.7227 F600
G1 X-28.7036 Y3.3711 F600
G1 X-28.8683 Y3.0220 F600
G1 X-28.9986 Y2.6592 F600
G1 X-29.1302 Y2.2931 F600
G1 X-29.2245 Y1.9147 F600
G1 X-29.3182 Y1.5388 F600
G1 X-29.3749 Y1.1555 F600
G1 X-29.4317 Y0.7710 F600
G1 X-29.4503 Y0.3838 F600
G1 X-29.4687 Y-0.0009 F600
G1 X-29.4503 Y-0.3866 F600
G1 X-29.4317 Y-0.7752 F600
G1 X-29.3748 Y-1.1592 F600
G1 X-29.3181 Y-1.5411 F600
G1 X-29.2245 Y-1.9167 F600
G1 X-29.1304 Y-2.2943 F600
G1 X-28.9992 Y-2.6607 F600
G1 X-28.8683 Y-3.0262 F600
G1 X-28.7027 Y-3.3759 F600
G1 X-28.5372 Y-3.7255 F600
G1 X-28.3372 Y-4.0587 F600
G1 X-28.1374 Y-4.3918 F600
G1 X-27.9066 Y-4.7029 F600
G1 X-27.6760 Y-5.0136 F600
G1 X-27.4159 Y-5.3009 F600
G1 X-27.1560 Y-5.5878 F600
G1 X-26.8702 Y-5.8477 F600
G1 X-26.5819 Y-6.1100 F600
G1 X-26.2676 Y-6.3423 F600
G1 X-25.9559 Y-6.5726 F600
G1 X-25.6243 Y-6.7711 F600
G1 X-25.2938 Y-6.9689 F600
G1 X-24.9450 Y-7.1347 F600
G1 X-24.5920 Y-7.3025 F600
G1 X-24.3881 Y-7.3751 F600
G1 X-24.9996 Y-7.1574 F600
G1 X-25.1325 Y-6.6578 F600
G1 X-25.0588 Y-6.9350 F600
G1 X-24.9717 Y-7.2381 F600
G1 X-24.8831 Y-7.5468 F600
G1 X-24.7858 Y-7.8534 F600
G1 X-24.6891 Y-8.1584 F600
G1 X-24.5850 Y-8.4603 F600
G1 X-24.4810 Y-8.7614 F600
G1 X-24.3697 Y-9.0604 F600
G1 X-24.2589 Y-9.3580 F600
G1 X-24.1417 Y-9.6525 F600
G1 X-24.0229 Y-9.9513 F600
G1 X-23.8954 Y-10.2469 F600
G1 X-23.7702 Y-10.5373 F600
G1 X-23.6387 Y-10.8256 F600
G1 X-23.5054 Y-11.1178 F600
G1 X-23.3646 Y-11.4058 F600
G1 X-23.2252 Y-11.6909 F600
G1 X-23.0795 Y-11.9727 F600
G1 X-22.9323 Y-12.2576 F600
G1 X-22.7776 Y-12.5382 F600
G1 X-22.6235 Y-12.8177 F600
G1 X-22.4619 Y-13.0940 F600
G1 X-22.3020 Y-13.3677 F600
G1 X-22.1367 Y-13.6372 F600
G1 X-21.9681 Y-13.9121 F600
G1 X-21.7909 Y-14.1827 F600
G1 X-21.6183 Y-14.4463 F600
G1 X-21.4416 Y-14.7057 F600
G1 X-21.2604 Y-14.9715 F600
G1 X-21.0718 Y-15.2319 F600
G1 X-20.8850 Y-15.4898 F600
G1 X-20.6908 Y-15.7445 F600
G1 X-20.4998 Y-15.9950 F600
G1 X-20.4576 Y-16.0484 F600
G1 X-20.7703 Y-15.6529 F600
G1 X-20.7475 Y-15.1394 F600
G1 X-20.7525 Y-15.2521 F600
G1 X-20.7404 Y-15.5158 F600
G1 X-20.7279 Y-15.7887 F600
G1 X-20.6875 Y-16.0588 F600
G1 X-20.6477 Y-16.3254 F600
G1 X-20.5818 Y-16.5876 F600
G1 X-20.5161 Y-16.8488 F600
G1 X-20.4258 Y-17.1020 F600
G1 X-20.3345 Y-17.3580 F600
G1 X-20.2181 Y-17.6031 F600
G1 X-20.1025 Y-17.8467 F600
G1 X-19.9636 Y-18.0779 F600
G1 X-19.8254 Y-18.3077 F600
G1 X-19.6655 Y-18.5237 F600
G1 X-19.5033 Y-18.7426 F600
G1 X-19.3202 Y-18.9438 F600
G1 X-19.1408 Y-19.1408 F600
G1 X-18.9438 Y-19.3202 F600
G1 X-18.7426 Y-19.5033 F600
G1 X-18.5237 Y-19.6655 F600
G1 X-18.3077 Y-19.8254 F600
G1 X-18.0779 Y-19.9636 F600
G1 X-17.8467 Y-20.1025 F600
G1 X-17.6031 Y-20.2181 F600
G1 X-17.3580 Y-20.3345 F600
G1 X-17.1020 Y-20.4258 F600
G1 X-16.8488 Y-20.5161 F600
G1 X-16.5876 Y-20.5818 F600
G1 X-16.3254 Y-20.6477 F600
G1 X-16.0588 Y-20.6875 F600
G1 X-15.7887 Y-20.7279 F600
G1 X-15.5158 Y-20.7404 F600
G1 X-15.2521 Y-20.7525 F600
G1 X-15.1394 Y-20.7475 F600
G1 X-15.6529 Y-20.7703 F600
G1 X-16.0484 Y-20.4576 F600
G1 X-15.9950 Y-20.4998 F600
G1 X-15.7445 Y-20.6908 F600
G1 X-15.4898 Y-20.8850 F600
G1 X-15.2319 Y-21.0718 F600
G1 X-14.9715 Y-21.2604 F600
G1 X-14.7057 Y-21.4416 F600
G1 X-14.4463 Y-21.6183 F600
G1 X-14.1827 Y-21.7909 F600
G1 X-13.9121 Y-21.9681 F600
G1 X-13.6372 Y-22.1367 F600
G1 X-13.3677 Y-22.3020 F600
G1 X-13.0940 Y-22.4619 F600
G1 X-12.8177 Y-22.6235 F600
G1 X-12.5382 Y-22.7776 F600
G1 X-12.2576 Y-22.9323 F600
G1 X-11.9727 Y-23.0795 F600
G1 X-11.6909 Y-23.2252 F600
G1 X-11.4058 Y-23.3646 F600
G1 X-11.1178 Y-23.5054 F600
G1 X-10.8256 Y-23.6387 F600
G1 X-10.5373 Y-23.7702 F600
G1 X-10.2469 Y-23.8954 F600
G1 X-9.9513 Y-24.0229 F600
G1 X-9.6525 Y-24.1417 F600
G1 X-9.3580 Y-24.2589 F600
G1 X-9.0604 Y-24.3697 F600
G1 X-8.7614 Y-24.4810 F600
G1 X-8.4603 Y-24.5850 F600
G1 X-8.1584 Y-24.6891 F600
G1 X-7.8534 Y-24.7858 F600
G1 X-7.5468 Y-24.8831 F600
G1 X-7.2381 Y-24.9717 F600
G1 X-6.9350 Y-25.0588 F600
G1 X-6.6578 Y-25.1325 F600
G1 X-7.1574 Y-24.9996 F600
G1 X-7.3751 Y-24.3881 F600
G1 X-7.3025 Y-24.5920 F600
G1 X-7.1347 Y-24.9450 F600
G1 X-6.9689 Y-25.2938 F600
G1 X-6.7711 Y-25.6243 F600
G1 X-6.5726 Y-25.9559 F600
G1 X-6.3423 Y-26.2676 F600
G1 X-6.1100 Y-26.5819 F600
G1 X-5.8477 Y-26.8702 F600
G1 X-5.5878 Y-27.1560 F600
G1 X-5.3009 Y-27.4159 F600
G1 X-5.0136 Y-27.6760 F600
G1 X-4.7029 Y-27.9066 F600
G1 X-4.3918 Y-28.1374 F600
G1 X-4.0587 Y-28.3372 F600
G1 X-3.7255 Y-28.5372 F600
G1 X-3.3759 Y-28.7027 F600
G1 X-3.0262 Y-28.8683 F600
G1 X-2.6607 Y-28.9992 F600
G1 X-2.2943 Y-29.1304 F600
G1 X-1.9167 Y-29.2245 F600
G1 X-1.5411 Y-29.3181 F600
G1 X-1.1592 Y-29.3748 F600
G1 X-0.7752 Y-29.4317 F600
G1 X-0.3866 Y-29.4503 F600
G1 X-0.0009 Y-29.4687 F600
G1 X0.3838 Y-29.4503 F600
G1 X0.7710 Y-29.4317 F600
G1 X1.1555 Y-29.3749 F600
G1 X1.5388 Y-29.3182 F600
G1 X1.9147 Y-29.2245 F600
G1 X2.2931 Y-29.1302 F600
G1 X2.6592 Y-28.9986 F600
G1 X3.0220 Y-28.8683 F600
G1 X3.3711 Y-28.7036 F600
G1 X3.7227 Y-28.5377 F600
G1 X4.0567 Y-28.3372 F600
G1 X4.3898 Y-28.1374 F600
G1 X4.7009 Y-27.9066 F600
G1 X5.0116 Y-27.6760 F600
G1 X5.2989 Y-27.4159 F600
G1 X5.5858 Y-27.1560 F600
G1 X5.8457 Y-26.8702 F600
G1 X6.1093 Y-26.5804 F600
G1 X6.3415 Y-26.2645 F600
G1 X6.5684 Y-25.9559 F600
G1 X6.7660 Y-25.6279 F600
G1 X6.9672 Y-25.2938 F600
G1 X7.1336 Y-24.9411 F600
G1 X7.2971 Y-24.5946 F600
G1 X7.3687 Y-24.3976 F600
G1 X7.1492 Y-25.0012 F600
G1 X6.6558 Y-25.1325 F600
G1 X6.9330 Y-25.0588 F600
G1 X7.2361 Y-24.9717 F600
G1 X7.5448 Y-24.8831 F600
G1 X7.8514 Y-24.7858 F600
G1 X8.1564 Y-24.6891 F600
G1 X8.4583 Y-24.5850 F600
G1 X8.7594 Y-24.4810 F600
G1 X9.0584 Y-24.3697 F600
G1 X9.3560 Y-24.2589 F600
G1 X9.6505 Y-24.1417 F600
G1 X9.9493 Y-24.0229 F600
G1 X10.2449 Y-23.8954 F600
G1 X10.5363 Y-23.7698 F600
G1 X10.8245 Y-23.6378 F600
G1 X11.1137 Y-23.5054 F600
G1 X11.4009 Y-23.3655 F600
G1 X11.6879 Y-23.2257 F600
G1 X11.9707 Y-23.0795 F600
G1 X12.2556 Y-22.9323 F600
G1 X12.5362 Y-22.7776 F600
G1 X12.8157 Y-22.6235 F600
G1 X13.0920 Y-22.4619 F600
G1 X13.3668 Y-22.3013 F600
G1 X13.6364 Y-22.1353 F600
G1 X13.9080 Y-21.9681 F600
G1 X14.1774 Y-21.7924 F600
G1 X14.4443 Y-21.6183 F600
G1 X14.7050 Y-21.4400 F600
G1 X14.9674 Y-21.2604 F600
G1 X15.2265 Y-21.0735 F600
G1 X15.4867 Y-20.8859 F600
G1 X15.7425 Y-20.6908 F600
G1 X15.9999 Y-20.4946 F600
G1 X16.0588 Y-20.4469 F600
G1 X15.6593 Y-20.7703 F600
G1 X15.1378 Y-20.7476 F600
G1 X15.2508 Y-20.7525 F600
G1 X15.5138 Y-20.7404 F600
G1 X15.7867 Y-20.7279 F600
G1 X16.0568 Y-20.6875 F600
G1 X16.3234 Y-20.6477 F600
G1 X16.5856 Y-20.5818 F600
G1 X16.8481 Y-20.5158 F600
G1 X17.1014 Y-20.4249 F600
G1 X17.3536 Y-20.3345 F600
G1 X17.5972 Y-20.2195 F600
G1 X17.8433 Y-20.1034 F600
G1 X18.0759 Y-19.9636 F600
G1 X18.3057 Y-19.8254 F600
G1 X18.5217 Y-19.6655 F600
G1 X18.7406 Y-19.5033 F600
G1 X18.9418 Y-19.3202 F600
G1 X19.1388 Y-19.1408 F600
G1 X19.3182 Y-18.9438 F600
G1 X19.5013 Y-18.7426 F600
G1 X19.6635 Y-18.5237 F600
G1 X19.8234 Y-18.3077 F600
G1 X19.9616 Y-18.0779 F600
G1 X20.1005 Y-17.8467 F600
G1 X20.2161 Y-17.6031 F600
G1 X20.3325 Y-17.3580 F600
G1 X20.4238 Y-17.1020 F600
G1 X20.5154 Y-16.8453 F600
G1 X20.5805 Y-16.5804 F600
G1 X20.6442 Y-16.3217 F600
G1 X20.6835 Y-16.0588 F600
G1 X20.7233 Y-15.7925 F600
G1 X20.7371 Y-15.5234 F600
G1 X20.7507 Y-15.2559 F600
G1 X20.7455 Y-15.1394 F600
G1 X20.7683 Y-15.6529 F600
G1 X20.4556 Y-16.0484 F600
G1 X20.4990 Y-15.9935 F600
G1 X20.6902 Y-15.7414 F600
G1 X20.8822 Y-15.4882 F600
G1 X21.0678 Y-15.2319 F600
G1 X21.2552 Y-14.9731 F600
G1 X21.4362 Y-14.7091 F600
G1 X21.6152 Y-14.4480 F600
G1 X21.7889 Y-14.1827 F600
G1 X21.9661 Y-13.9121 F600
G1 X22.1347 Y-13.6372 F600
G1 X22.3000 Y-13.3677 F600
G1 X22.4599 Y-13.0940 F600
G1 X22.6226 Y-12.8159 F600
G1 X22.7767 Y-12.5344 F600
G1 X22.9282 Y-12.2576 F600
G1 X23.0745 Y-11.9767 F600
G1 X23.2223 Y-11.6928 F600
G1 X23.3626 Y-11.4058 F600
G1 X23.5034 Y-11.1178 F600
G1 X23.6367 Y-10.8256 F600
G1 X23.7692 Y-10.5352 F600
G1 X23.8942 Y-10.2427 F600
G1 X24.0188 Y-9.9513 F600
G1 X24.1370 Y-9.6568 F600
G1 X24.2561 Y-9.3602 F600
G1 X24.3677 Y-9.0604 F600
G1 X24.4799 Y-8.7592 F600
G1 X24.5835 Y-8.4558 F600
G1 X24.6851 Y-8.1584 F600
G1 X24.7814 Y-7.8579 F600
G1 X24.8804 Y-7.5491 F600
G1 X24.9697 Y-7.2381 F600
G1 X25.0568 Y-6.9350 F600
G1 X25.1305 Y-6.6578 F600
G1 X24.9976 Y-7.1574 F600
G1 X24.3861 Y-7.3751 F600
G1 X24.5900 Y-7.3025 F600
G1 X24.9430 Y-7.1347 F600
G1 X25.2918 Y-6.9689 F600
G1 X25.6223 Y-6.7711 F600
G1 X25.9551 Y-6.5719 F600
G1 X26.2669 Y-6.3406 F600
G1 X26.5776 Y-6.1100 F600
G1 X26.8649 Y-5.8499 F600
G1 X27.1530 Y-5.5890 F600
G1 X27.4139 Y-5.3009 F600
G1 X27.6740 Y-5.0136 F600
G1 X27.9046 Y-4.7029 F600
G1 X28.1366 Y-4.3902 F600
G1 X28.3363 Y-4.0552 F600
G1 X28.5340 Y-3.7237 F600
G1 X28.6987 Y-3.3759 F600
G1 X28.8633 Y-3.0282 F600
G1 X28.9947 Y-2.6649 F600
G1 X29.1279 Y-2.2965 F600
G1 X29.2225 Y-1.9167 F600
G1 X29.3161 Y-1.5411 F600
G1 X29.3728 Y-1.1592 F600
G1 X29.4297 Y-0.7752 F600
G1 X29.4483 Y-0.3866 F600
G1 X29.4667 Y-0.0009 F600
G1 X29.4483 Y0.3838 F600
G1 X29.4297 Y0.7710 F600
G1 X29.3729 Y1.1555 F600
G1 X29.3162 Y1.5388 F600
G1 X29.2225 Y1.9147 F600
G1 X29.1277 Y2.2952 F600
G1 X28.9941 Y2.6635 F600
G1 X28.8633 Y3.0240 F600
G1 X28.6996 Y3.3711 F600
G1 X28.5346 Y3.7208 F600
G1 X28.3363 Y4.0532 F600
G1 X28.1366 Y4.3882 F600
G1 X27.9046 Y4.7009 F600
G1 X27.6740 Y5.0116 F600
G1 X27.4139 Y5.2989 F600
G1 X27.1530 Y5.5870 F600
G1 X26.8649 Y5.8479 F600
G1 X26.5762 Y6.1093 F600
G1 X26.2638 Y6.3399 F600
G1 X25.9551 Y6.5677 F600
G1 X25.6259 Y6.7660 F600
G1 X25.2918 Y6.9672 F600
G1 X24.9391 Y7.1336 F600
G1 X24.5926 Y7.2971 F600
G1 X24.3956 Y7.3687 F600
G1 X24.9992 Y7.1492 F600
G1 X25.1305 Y6.6558 F600
G1 X25.0568 Y6.9330 F600
G1 X24.9697 Y7.2361 F600
G1 X24.8804 Y7.5471 F600
G1 X24.7814 Y7.8559 F600
G1 X24.6851 Y8.1564 F600
G1 X24.5835 Y8.4538 F600
G1 X24.4799 Y8.7572 F600
G1 X24.3677 Y9.0584 F600
G1 X24.2561 Y9.3582 F600
G1 X24.1370 Y9.6548 F600
G1 X24.0188 Y9.9493 F600
G1 X23.8942 Y10.2407 F600
G1 X23.7688 Y10.5342 F600
G1 X23.6358 Y10.8245 F600
G1 X23.5034 Y11.1137 F600
G1 X23.3635 Y11.4009 F600
G1 X23.2228 Y11.6899 F600
G1 X23.0745 Y11.9747 F600
G1 X22.9282 Y12.2556 F600
G1 X22.7767 Y12.5324 F600
G1 X22.6226 Y12.8139 F600
G1 X22.4599 Y13.0920 F600
G1 X22.2993 Y13.3668 F600
G1 X22.1333 Y13.6364 F600
G1 X21.9661 Y13.9080 F600
G1 X21.7904 Y14.1774 F600
G1 X21.6152 Y14.4460 F600
G1 X21.4346 Y14.7084 F600
G1 X21.2552 Y14.9691 F600
G1 X21.0695 Y15.2265 F600
G1 X20.8830 Y15.4851 F600
G1 X20.6902 Y15.7394 F600
G1 X20.4938 Y15.9983 F600
G1 X20.4449 Y16.0588 F600
G1 X20.7683 Y15.6593 F600
G1 X20.7456 Y15.1378 F600
G1 X20.7507 Y15.2547 F600
G1 X20.7371 Y15.5214 F600
G1 X20.7233 Y15.7905 F600
G1 X20.6835 Y16.0568 F600
G1 X20.6442 Y16.3197 F600
G1 X20.5805 Y16.5784 F600
G1 X20.5151 Y16.8446 F600
G1 X20.4229 Y17.1014 F600
G1 X20.3325 Y17.3536 F600
G1 X20.2175 Y17.5972 F600
G1 X20.1014 Y17.8433 F600
G1 X19.9616 Y18.0759 F600
G1 X19.8234 Y18.3057 F600
G1 X19.6635 Y18.5217 F600
G1 X19.5013 Y18.7406 F600
G1 X19.3182 Y18.9418 F600
G1 X19.1388 Y19.1388 F600
G1 X18.9418 Y19.3182 F600
G1 X18.7406 Y19.5013 F600
G1 X18.5217 Y19.6635 F600
G1 X18.3057 Y19.8234 F600
G1 X18.0759 Y19.9616 F600
G1 X17.8433 Y20.1014 F600
G1 X17.5972 Y20.2175 F600
G1 X17.3536 Y20.3325 F600
G1 X17.1014 Y20.4229 F600
G1 X16.8446 Y20.5151 F600
G1 X16.5784 Y20.5805 F600
G1 X16.3197 Y20.6442 F600
G1 X16.0568 Y20.6835 F600
G1 X15.7905 Y20.7233 F600
G1 X15.5214 Y20.7371 F600
G1 X15.2547 Y20.7507 F600
G1 X15.1378 Y20.7456 F600
G1 X15.6593 Y20.7683 F600
G1 X16.0588 Y20.4449 F600
G1 X15.9983 Y20.4938 F600
G1 X15.7394 Y20.6902 F600
G1 X15.4851 Y20.8830 F600
G1 X15.2265 Y21.0695 F600
G1 X14.9691 Y21.2552 F600
G1 X14.7084 Y21.4346 F600
G1 X14.4460 Y21.6152 F600
G1 X14.1774 Y21.7904 F600
G1 X13.9080 Y21.9661 F600
G1 X13.6364 Y22.1333 F600
G1 X13.3668 Y22.2993 F600
G1 X13.0920 Y22.4599 F600
G1 X12.8139 Y22.6226 F600
G1 X12.5324 Y22.7767 F600
G1 X12.2556 Y22.9282 F600
G1 X11.9747 Y23.0745 F600
G1 X11.6899 Y23.2228 F600
G1 X11.4009 Y23.3635 F600
G1 X11.1137 Y23.5034 F600
G1 X10.8245 Y23.6358 F600
G1 X10.5342 Y23.7688 F600
G1 X10.2407 Y23.8942 F600
G1 X9.9493 Y24.0188 F600
G1 X9.6548 Y24.1370 F600
G1 X9.3582 Y24.2561 F600
G1 X9.0584 Y24.3677 F600
G1 X8.7572 Y24.4799 F600
G1 X8.4538 Y24.5835 F600
G1 X8.1564 Y24.6851 F600
G1 X7.8559 Y24.7814 F600
G1 X7.5471 Y24.8804 F600
G1 X7.2361 Y24.9697 F600
G1 X6.9330 Y25.0568 F600
G1 X6.6558 Y25.1305 F600
G1 X7.1492 Y24.9992 F600
G1 X7.3687 Y24.3956 F600
G1 X7.2971 Y24.5926 F600
G1 X7.1336 Y24.9391 F600
G1 X6.9672 Y25.2918 F600
G1 X6.7660 Y25.6259 F600
G1 X6.5677 Y25.9551 F600
G1 X6.3399 Y26.2638 F600
G1 X6.1093 Y26.5762 F600
G1 X5.8479 Y26.8649 F600
G1 X5.5870 Y27.1530 F600
G1 X5.2989 Y27.4139 F600
G1 X5.0116 Y27.6740 F600
G1 X4.7009 Y27.9046 F600
G1 X4.3882 Y28.1366 F600
G1 X4.0532 Y28.3363 F600
G1 X3.7208 Y28.5346 F600
G1 X3.3711 Y28.6996 F600
G1 X3.0240 Y28.8633 F600
G1 X2.6635 Y28.9941 F600
G1 X2.2952 Y29.1277 F600
G1 X1.9147 Y29.2225 F600
G1 X1.5388 Y29.3162 F600
G1 X1.1555 Y29.3729 F600
G1 X0.7710 Y29.4297 F600
G1 X0.3838 Y29.4483 F600
G1 X-0.0009 Y29.4667 F600
G1 X-0.3866 Y29.4483 F600
G1 X-0.7752 Y29.4297 F600
G1 X-1.1592 Y29.3728 F600
G1 X-1.5411 Y29.3161 F600
G1 X-1.9167 Y29.2225 F600
G1 X-2.2965 Y29.1279 F600
G1 X-2.6649 Y28.9947 F600
G1 X-3.0282 Y28.8633 F600
G1 X-3.3759 Y28.6987 F600
G1 X-3.7237 Y28.5340 F600
G1 X-4.0552 Y28.3363 F600
G1 X-4.3902 Y28.1366 F600
G1 X-4.7029 Y27.9046 F600
G1 X-5.0136 Y27.6740 F600
G1 X-5.3009 Y27.4139 F600
G1 X-5.5890 Y27.1530 F600
G1 X-5.8499 Y26.8649 F600
G1 X-6.1100 Y26.5776 F600
G1 X-6.3406 Y26.2669 F600
G1 X-6.5719 Y25.9551 F600
G1 X-6.7711 Y25.6223 F600
G1 X-6.9689 Y25.2918 F600
G1 X-7.1347 Y24.9430 F600
G1 X-7.3025 Y24.5900 F600
G1 X-7.3751 Y24.3861 F600
G1 X-7.1574 Y24.9976 F600
G1 X-6.6578 Y25.1305 F600
G1 X-6.9350 Y25.0568 F600
G1 X-7.2381 Y24.9697 F600
G1 X-7.5491 Y24.8804 F600
G1 X-7.8579 Y24.7814 F600
G1 X-8.1584 Y24.6851 F600
G1 X-8.4558 Y24.5835 F600
G1 X-8.7592 Y24.4799 F600
G1 X-9.0604 Y24.3677 F600
G1 X-9.3602 Y24.2561 F600
G1 X-9.6568 Y24.1370 F600
G1 X-9.9513 Y24.0188 F600
G1 X-10.2427 Y23.8942 F600
G1 X-10.5352 Y23.7692 F600
G1 X-10.8256 Y23.6367 F600
G1 X-11.1178 Y23.5034 F600
G1 X-11.4058 Y23.3626 F600
G1 X-11.6928 Y23.2223 F600
G1 X-11.9767 Y23.0745 F600
G1 X-12.2576 Y22.9282 F600
G1 X-12.5344 Y22.7767 F600
G1 X-12.8159 Y22.6226 F600
G1 X-13.0940 Y22.4599 F600
G1 X-13.3677 Y22.3000 F600
G1 X-13.6372 Y22.1347 F600
G1 X-13.9121 Y21.9661 F600
G1 X-14.1827 Y21.7889 F600
G1 X-14.4480 Y21.6152 F600
G1 X-14.7091 Y21.4362 F600
G1 X-14.9731 Y21.2552 F600
G1 X-15.2319 Y21.0678 F600
G1 X-15.4882 Y20.8822 F600
G1 X-15.7414 Y20.6902 F600
G1 X-15.9935 Y20.4990 F600
G1 X-16.0484 Y20.4556 F600
G1 Z-1.0000 F120
G1 X-15.6529 Y20.7683 F600
G1 X-15.1394 Y20.7455 F600
G1 X-15.2559 Y20.7507 F600
G1 X-15.5234 Y20.7371 F600
G1 X-15.7925 Y20.7233 F600
G1 X-16.0588 Y20.6835 F600
G1 X-16.3217 Y20.6442 F600
G1 X-16.5804 Y20.5805 F600
G1 X-16.8453 Y20.5154 F600
G1 X-17.1020 Y20.4238 F600
G1 X-17.3580 Y20.3325 F600
G1 X-17.6031 Y20.2161 F600
G1 X-17.8467 Y20.1005 F600
G1 X-18.0779 Y19.9616 F600
G1 X-18.3077 Y19.8234 F600
G1 X-18.5237 Y19.6635 F600
G1 X-18.7426 Y19.5013 F600
G1 X-18.9438 Y19.3182 F600
G1 X-19.1408 Y19.1388 F600
G1 X-19.3202 Y18.9418 F600
G1 X-19.5033 Y18.7406 F600
G1 X-19.6655 Y18.5217 F600
G1 X-19.8254 Y18.3057 F600
G1 X-19.9636 Y18.0759 F600
G1 X-20.1034 Y17.8433 F600
G1 X-20.2195 Y17.5972 F600
G1 X-20.3345 Y17.3536 F600
G1 X-20.4249 Y17.1014 F600
G1 X-20.5158 Y16.8481 F600
G1 X-20.5818 Y16.5856 F600
G1 X-20.6477 Y16.3234 F600
G1 X-20.6875 Y16.0568 F600
G1 X-20.7279 Y15.7867 F600
G1 X-20.7404 Y15.5138 F600
G1 X-20.7525 Y15.2508 F600
G1 X-20.7476 Y15.1378 F600
G1 X-20.7703 Y15.6593 F600
G1 X-20.4469 Y16.0588 F600
G1 X-20.4946 Y15.9999 F600
G1 X-20.6908 Y15.7425 F600
G1 X-20.8859 Y15.4867 F600
G1 X-21.0735 Y15.2265 F600
G1 X-21.2604 Y14.9674 F600
G1 X-21.4400 Y14.7050 F600
G1 X-21.6183 Y14.4443 F600
G1 X-21.7924 Y14.1774 F600
G1 X-21.9681 Y13.9080 F600
G1 X-22.1353 Y13.6364 F600
G1 X-22.3013 Y13.3668 F600
G1 X-22.4619 Y13.0920 F600
G1 X-22.6235 Y12.8157 F600
G1 X-22.7776 Y12.5362 F600
G1 X-22.9323 Y12.2556 F600
G1 X-23.0795 Y11.9707 F600
G1 X-23.2257 Y11.6879 F600
G1 X-23.3655 Y11.4009 F600
G1 X-23.5054 Y11.1137 F600
G1 X-23.6378 Y10.8245 F600
G1 X-23.7698 Y10.5363 F600
G1 X-23.8954 Y10.2449 F600
G1 X-24.0229 Y9.9493 F600
G1 X-24.1417 Y9.6505 F600
G1 X-24.2589 Y9.3560 F600
G1 X-24.3697 Y9.0584 F600
G1 X-24.4810 Y8.7594 F600
G1 X-24.5850 Y8.4583 F600
G1 X-24.6891 Y8.1564 F600
G1 X-24.7858 Y7.8514 F600
G1 X-24.8831 Y7.5448 F600
G1 X-24.9717 Y7.2361 F600
G1 X-25.0588 Y6.9330 F600
G1 X-25.1325 Y6.6558 F600
G1 X-25.0012 Y7.1492 F600
G1 X-24.3976 Y7.3687 F600
G1 X-24.5946 Y7.2971 F600
G1 X-24.9411 Y7.1336 F600
G1 X-25.2938 Y6.9672 F600
G1 X-25.6279 Y6.7660 F600
G1 X-25.9559 Y6.5684 F600
G1 X-26.2645 Y6.3415 F600
G1 X-26.5804 Y6.1093 F600
G1 X-26.8702 Y5.8457 F600
G1 X-27.1560 Y5.5858 F600
G1 X-27.4159 Y5.2989 F600
G1 X-27.6760 Y5.0116 F600
G1 X-27.9066 Y4.7009 F600
G1 X-28.1374 Y4.3898 F600
G1 X-28.3372 Y4.0567 F600
G1 X-28.5377 Y3.7227 F600
G1 X-28.7036 Y3.3711 F600
G1 X-28.8683 Y3.0220 F600
G1 X-28.9986 Y2.6592 F600
G1 X-29.1302 Y2.2931 F600
G1 X-29.2245 Y1.9147 F600
G1 X-29.3182 Y1.5388 F600
G1 X-29.3749 Y1.1555 F600
G1 X-29.4317 Y0.7710 F600
G1 X-29.4503 Y0.3838 F600
G1 X-29.4687 Y-0.0009 F600
G1 X-29.4503 Y-0.3866 F600
G1 X-29.4317 Y-0.7752 F600
G1 X-29.3748 Y-1.1592 F600
G1 X-29.3181 Y-1.5411 F600
G1 X-29.2245 Y-1.9167 F600
G1 X-29.1304 Y-2.2943 F600
G1 X-28.9992 Y-2.6607 F600
G1 X-28.8683 Y-3.0262 F600
G1 X-28.7027 Y-3.3759 F600
G1 X-28.5372 Y-3.7255 F600
G1 X-28.3372 Y-4.0587 F600
G1 X-28.1374 Y-4.3918 F600
G1 X-27.9066 Y-4.7029 F600
G1 X-27.6760 Y-5.0136 F600
G1 X-27.4159 Y-5.3009 F600
G1 X-27.1560 Y-5.5878 F600
G1 X-26.8702 Y-5.8477 F600
G1 X-26.5819 Y-6.1100 F600
G1 X-26.2676 Y-6.3423 F600
G1 X-25.9559 Y-6.5726 F600
G1 X-25.6243 Y-6.7711 F600
G1 X-25.2938 Y-6.9689 F600
G1 X-24.9450 Y-7.1347 F600
G1 X-24.5920 Y-7.3025 F600
G1 X-24.3881 Y-7.3751 F600
G1 X-24.9996 Y-7.1574 F600
G1 X-25.1325 Y-6.6578 F600
G1 X-25.0588 Y-6.9350 F600
G1 X-24.9717 Y-7.2381 F600
G1 X-24.8831 Y-7.5468 F600
G1 X-24.7858 Y-7.8534 F600
G1 X-24.6891 Y-8.1584 F600
G1 X-24.5850 Y-8.4603 F600
G1 X-24.4810 Y-8.7614 F600
G1 X-24.3697 Y-9.0604 F600
G1 X-24.2589 Y-9.3580 F600
G1 X-24.1417 Y-9.6525 F600
G1 X-24.0229 Y-9.9513 F600
G1 X-23.8954 Y-10.2469 F600
G1 X-23.7702 Y-10.5373 F600
G1 X-23.6387 Y-10.8256 F600
G1 X-23.5054 Y-11.1178 F600
G1 X-23.3646 Y-11.4058 F600
G1 X-23.2252 Y-11.6909 F600
G1 X-23.0795 Y-11.9727 F600
G1 X-22.9323 Y-12.2576 F600
G1 X-22.7776 Y-12.5382 F600
G1 X-22.6235 Y-12.8177 F600
G1 X-22.4619 Y-13.0940 F600
G1 X-22.3020 Y-13.3677 F600
G1 X-22.1367 Y-13.6372 F600
G1 X-21.9681 Y-13.9121 F600
G1 X-21.7909 Y-14.1827 F600
G1 X-21.6183 Y-14.4463 F600
G1 X-21.4416 Y-14.7057 F600
G1 X-21.2604 Y-14.9715 F600
G1 X-21.0718 Y-15.2319 F600
G1 X-20.8850 Y-15.4898 F600
G1 X-20.6908 Y-15.7445 F600
G1 X-20.4998 Y-15.9950 F600
G1 X-20.4576 Y-16.0484 F600
G1 X-20.7703 Y-15.6529 F600
G1 X-20.7475 Y-15.1394 F600
G1 X-20.7525 Y-15.2521 F600
G1 X-20.7404 Y-15.5158 F600
G1 X-20.7279 Y-15.7887 F600
G1 X-20.6875 Y-16.0588 F600
G1 X-20.6477 Y-16.3254 F600
G1 X-20.5818 Y-16.5876 F600
G1 X-20.5161 Y-16.8488 F600
G1 X-20.4258 Y-17.1020 F600
G1 X-20.3345 Y-17.3580 F600
G1 X-20.2181 Y-17.6031 F600
G1 X-20.1025 Y-17.8467 F600
G1 X-19.9636 Y-18.0779 F600
G1 X-19.8254 Y-18.3077 F600
G1 X-19.6655 Y-18.5237 F600
G1 X-19.5033 Y-18.7426 F600
G1 X-19.3202 Y-18.9438 F600
G1 X-19.1408 Y-19.1408 F600
G1 X-18.9438 Y-19.3202 F600
G1 X-18.7426 Y-19.5033 F600
G1 X-18.5237 Y-19.6655 F600
G1 X-18.3077 Y-19.8254 F600
G1 X-18.0779 Y-19.9636 F600
G1 X-17.8467 Y-20.1025 F600
G1 X-17.6031 Y-20.2181 F600
G1 X-17.3580 Y-20.3345 F600
G1 X-17.1020 Y-20.4258 F600
G1 X-16.8488 Y-20.5161 F600
G1 X-16.5876 Y-20.5818 F600
G1 X-16.3254 Y-20.6477 F600
G1 X-16.0588 Y-20.6875 F600
G1 X-15.7887 Y-20.7279 F600
G1 X-15.5158 Y-20.7404 F600
G1 X-15.2521 Y-20.7525 F600
G1 X-15.1394 Y-20.7475 F600
G1 X-15.6529 Y-20.7703 F600
G1 X-16.0484 Y-20.4576 F600
G1 X-15.9950 Y-20.4998 F600
G1 X-15.7445 Y-20.6908 F600
G1 X-15.4898 Y-20.8850 F600
G1 X-15.2319 Y-21.0718 F600
G1 X-14.9715 Y-21.2604 F600
G1 X-14.7057 Y-21.4416 F600
G1 X-14.4463 Y-21.6183 F600
G1 X-14.1827 Y-21.7909 F600
G1 X-13.9121 Y-21.9681 F600
G1 X-13.6372 Y-22.1367 F600
G1 X-13.3677 Y-22.3020 F600
G1 X-13.0940 Y-22.4619 F600
G1 X-12.8177 Y-22.6235 F600
G1 X-12.5382 Y-22.7776 F600
G1 X-12.2576 Y-22.9323 F600
G1 X-11.9727 Y-23.0795 F600
G1 X-11.6909 Y-23.2252 F600
G1 X-11.4058 Y-23.3646 F600
G1 X-11.1178 Y-23.5054 F600
G1 X-10.8256 Y-23.6387 F600
G1 X-10.5373 Y-23.7702 F600
G1 X-10.2469 Y-23.8954 F600
G1 X-9.9513 Y-24.0229 F600
G1 X-9.6525 Y-24.1417 F600
G1 X-9.3580 Y-24.2589 F600
G1 X-9.0604 Y-24.3697 F600
G1 X-8.7614 Y-24.4810 F600
G1 X-8.4603 Y-24.5850 F600
G1 X-8.1584 Y-24.6891 F600
G1 X-7.8534 Y-24.7858 F600
G1 X-7.5468 Y-24.8831 F600
G1 X-7.2381 Y-24.9717 F600
G1 X-6.9350 Y-25.0588 F600
G1 X-6.6578 Y-25.1325 F600
G1 X-7.1574 Y-24.9996 F600
G1 X-7.3751 Y-24.3881 F600
G1 X-7.3025 Y-24.5920 F600
G1 X-7.1347 Y-24.9450 F600
G1 X-6.9689 Y-25.2938 F600
G1 X-6.7711 Y-25.6243 F600
G1 X-6.5726 Y-25.9559 F600
G1 X-6.3423 Y-26.2676 F600
G1 X-6.1100 Y-26.5819 F600
G1 X-5.8477 Y-26.8702 F600
G1 X-5.5878 Y-27.1560 F600
G1 X-5.3009 Y-27.4159 F600
G1 X-5.0136 Y-27.6760 F600
G1 X-4.7029 Y-27.9066 F600
G1 X-4.3918 Y-28.1374 F600
G1 X-4.0587 Y-28.3372 F600
G1 X-3.7255 Y-28.5372 F600
G1 X-3.3759 Y-28.7027 F600
G1 X-3.0262 Y-28.8683 F600
G1 X-2.6607 Y-28.9992 F600
G1 X-2.2943 Y-29.1304 F600
G1 X-1.9167 Y-29.2245 F600
G1 X-1.5411 Y-29.3181 F600
G1 X-1.1592 Y-29.3748 F600
G1 X-0.7752 Y-29.4317 F600
G1 X-0.3866 Y-29.4503 F600
G1 X-0.0009 Y-29.4687 F600
G1 X0.3838 Y-29.4503 F600
G1 X0.7710 Y-29.4317 F600
G1 X1.1555 Y-29.3749 F600
G1 X1.5388 Y-29.3182 F600
G1 X1.9147 Y-29.2245 F600
G1 X2.2931 Y-29.1302 F600
G1 X2.6592 Y-28.9986 F600
G1 X3.0220 Y-28.8683 F600
G1 X3.3711 Y-28.7036 F600
G1 X3.7227 Y-28.5377 F600
G1 X4.0567 Y-28.3372 F600
G1 X4.3898 Y-28.1374 F600
G1 X4.7009 Y-27.9066 F600
G1 X5.0116 Y-27.6760 F600
G1 X5.2989 Y-27.4159 F600
G1 X5.5858 Y-27.1560 F600
G1 X5.8457 Y-26.8702 F600
G1 X6.1093 Y-26.5804 F600
G1 X6.3415 Y-26.2645 F600
G1 X6.5684 Y-25.9559 F600
G1 X6.7660 Y-25.6279 F600
G1 X6.9672 Y-25.2938 F600
G1 X7.1336 Y-24.9411 F600
G1 X7.2971 Y-24.5946 F600
G1 X7.3687 Y-24.3976 F600
G1 X7.1492 Y-25.0012 F600
G1 X6.6558 Y-25.1325 F600
G1 X6.9330 Y-25.0588 F600
G1 X7.2361 Y-24.9717 F600
G1 X7.5448 Y-24.8831 F600
G1 X7.8514 Y-24.7858 F600
G1 X8.1564 Y-24.6891 F600
G1 X8.4583 Y-24.5850 F600
G1 X8.7594 Y-24.4810 F600
G1 X9.0584 Y-24.3697 F600
G1 X9.3560 Y-24.2589 F600
G1 X9.6505 Y-24.1417 F600
G1 X9.9493 Y-24.0229 F600
G1 X10.2449 Y-23.8954 F600
G1 X10.5363 Y-23.7698 F600
G1 X10.8245 Y-23.6378 F600
G1 X11.1137 Y-23.5054 F600
G1 X11.4009 Y-23.3655 F600
G1 X11.6879 Y-23.2257 F600
G1 X11.9707 Y-23.0795 F600
G1 X12.2556 Y-22.9323 F600
G1 X12.5362 Y-22.7776 F600
G1 X12.8157 Y-22.6235 F600
G1 X13.0920 Y-22.4619 F600
G1 X13.3668 Y-22.3013 F600
G1 X13.6364 Y-22.1353 F600
G1 X13.9080 Y-21.9681 F600
G1 X14.1774 Y-21.7924 F600
G1 X14.4443 Y-21.6183 F600
G1 X14.7050 Y-21.4400 F600
G1 X14.9674 Y-21.2604 F600
G1 X15.2265 Y-21.0735 F600
G1 X15.4867 Y-20.8859 F600
G1 X15.7425 Y-20.6908 F600
G1 X15.9999 Y-20.4946 F600
G1 X16.0588 Y-20.4469 F600
G1 X15.6593 Y-20.7703 F600
G1 X15.1378 Y-20.7476 F600
G1 X15.2508 Y-20.7525 F600
G1 X15.5138 Y-20.7404 F600
G1 X15.7867 Y-20.7279 F600
G1 X16.0568 Y-20.6875 F600
G1 X16.3234 Y-20.6477 F600
G1 X16.5856 Y-20.5818 F600
G1 X16.8481 Y-20.5158 F600
G1 X17.1014 Y-20.4249 F600
G1 X17.3536 Y-20.3345 F600
G1 X17.5972 Y-20.2195 F600
G1 X17.8433 Y-20.1034 F600
G1 X18.0759 Y-19.9636 F600
G1 X18.3057 Y-19.8254 F600
G1 X18.5217 Y-19.6655 F600
G1 X18.7406 Y-19.5033 F600
G1 X18.9418 Y-19.3202 F600
G1 X19.1388 Y-19.1408 F600
G1 X19.3182 Y-18.9438 F600
G1 X19.5013 Y-18.7426 F600
G1 X19.6635 Y-18.5237 F600
G1 X19.8234 Y-18.3077 F600
G1 X19.9616 Y-18.0779 F600
G1 X20.1005 Y-17.8467 F600
G1 X20.2161 Y-17.6031 F600
G1 X20.3325 Y-17.3580 F600
G1 X20.4238 Y-17.1020 F600
G1 X20.5154 Y-16.8453 F600
G1 X20.5805 Y-16.5804 F600
G1 X20.6442 Y-16.3217 F600
G1 X20.6835 Y-16.0588 F600
G1 X20.7233 Y-15.7925 F600
G1 X20.7371 Y-15.5234 F600
G1 X20.7507 Y-15.2559 F600
G1 X20.7455 Y-15.1394 F600
G1 X20.7683 Y-15.6529 F600
G1 X20.4556 Y-16.0484 F600
G1 X20.4990 Y-15.9935 F600
G1 X20.6902 Y-15.7414 F600
G1 X20.8822 Y-15.4882 F600
G1 X21.0678 Y-15.2319 F600
G1 X21.2552 Y-14.9731 F600
G1 X21.4362 Y-14.7091 F600
G1 X21.6152 Y-14.4480 F600
G1 X21.7889 Y-14.1827 F600
G1 X21.9661 Y-13.9121 F600
G1 X22.1347 Y-13.6372 F600
G1 X22.3000 Y-13.3677 F600
G1 X22.4599 Y-13.0940 F600
G1 X22.6226 Y-12.8159 F600
G1 X22.7767 Y-12.5344 F600
G1 X22.9282 Y-12.2576 F600
G1 X23.0745 Y-11.9767 F600
G1 X23.2223 Y-11.6928 F600
G1 X23.3626 Y-11.4058 F600
G1 X23.5034 Y-11.1178 F600
G1 X23.6367 Y-10.8256 F600
G1 X23.7692 Y-10.5352 F600
G1 X23.8942 Y-10.2427 F600
G1 X24.0188 Y-9.9513 F600
G1 X24.1370 Y-9.6568 F600
G1 X24.2561 Y-9.3602 F600
G1 X24.3677 Y-9.0604 F600
G1 X24.4799 Y-8.7592 F600
G1 X24.5835 Y-8.4558 F600
G1 X24.6851 Y-8.1584 F600
G1 X24.7814 Y-7.8579 F600
G1 X24.8804 Y-7.5491 F600
G1 X24.9697 Y-7.2381 F600
G1 X25.0568 Y-6.9350 F600
G1 X25.1305 Y-6.6578 F600
G1 X24.9976 Y-7.1574 F600
G1 X24.3861 Y-7.3751 F600
G1 X24.5900 Y-7.3025 F600
G1 X24.9430 Y-7.1347 F600
G1 X25.2918 Y-6.9689 F600
G1 X25.6223 Y-6.7711 F600
G1 X25.9551 Y-6.5719 F600
G1 X26.2669 Y-6.3406 F600
G1 X26.5776 Y-6.1100 F600
G1 X26.8649 Y-5.8499 F600
G1 X27.1530 Y-5.5890 F600
G1 X27.4139 Y-5.3009 F600
G1 X27.6740 Y-5.0136 F600
G1 X27.9046 Y-4.7029 F600
G1 X28.1366 Y-4.3902 F600
G1 X28.3363 Y-4.0552 F600
G1 X28.5340 Y-3.7237 F600
G1 X28.6987 Y-3.3759 F600
G1 X28.8633 Y-3.0282 F600
G1 X28.9947 Y-2.6649 F600
G1 X29.1279 Y-2.2965 F600
G1 X29.2225 Y-1.9167 F600
G1 X29.3161 Y-1.5411 F600
G1 X29.3728 Y-1.1592 F600
G1 X29.4297 Y-0.7752 F600
G1 X29.4483 Y-0.3866 F600
G1 X29.4667 Y-0.0009 F600
G1 X29.4483 Y0.3838 F600
G1 X29.4297 Y0.7710 F600
G1 X29.3729 Y1.1555 F600
G1 X29.3162 Y1.5388 F600
G1 X29.2225 Y1.9147 F600
G1 X29.1277 Y2.2952 F600
G1 X28.9941 Y2.6635 F600
G1 X28.8633 Y3.0240 F600
G1 X28.6996 Y3.3711 F600
G1 X28.5346 Y3.7208 F600
G1 X28.3363 Y4.0532 F600
G1 X28.1366 Y4.3882 F600
G1 X27.9046 Y4.7009 F600
G1 X27.6740 Y5.0116 F600
G1 X27.4139 Y5.2989 F600
G1 X27.1530 Y5.5870 F600
G1 X26.8649 Y5.8479 F600
G1 X26.5762 Y6.1093 F600
G1 X26.2638 Y6.3399 F600
G1 X25.9551 Y6.5677 F600
G1 X25.6259 Y6.7660 F600
G1 X25.2918 Y6.9672 F600
G1 X24.9391 Y7.1336 F600
G1 X24.5926 Y7.2971 F600
G1 X24.3956 Y7.3687 F600
G1 X24.9992 Y7.1492 F600
G1 X25.1305 Y6.6558 F600
G1 X25.0568 Y6.9330 F600
G1 X24.9697 Y7.2361 F600
G1 X24.8804 Y7.5471 F600
G1 X24.7814 Y7.8559 F600
G1 X24.6851 Y8.1564 F600
G1 X24.5835 Y8.4538 F600
G1 X24.4799 Y8.7572 F600
G1 X24.3677 Y9.0584 F600
G1 X24.2561 Y9.3582 F600
G1 X24.1370 Y9.6548 F600
G1 X24.0188 Y9.9493 F600
G1 X23.8942 Y10.2407 F600
G1 X23.7688 Y10.5342 F600
G1 X23.6358 Y10.8245 F600
G1 X23.5034 Y11.1137 F600
G1 X23.3635 Y11.4009 F600
G1 X23.2228 Y11.6899 F600
G1 X23.0745 Y11.9747 F600
G1 X22.9282 Y12.2556 F600
G1 X22.7767 Y12.5324 F600
G1 X22.6226 Y12.8139 F600
G1 X22.4599 Y13.0920 F600
G1 X22.2993 Y13.3668 F600
G1 X22.1333 Y13.6364 F600
G1 X21.9661 Y13.9080 F600
G1 X21.7904 Y14.1774 F600
G1 X21.6152 Y14.4460 F600
G1 X21.4346 Y14.7084 F600
G1 X21.2552 Y14.9691 F600
G1 X21.0695 Y15.2265 F600
G1 X20.8830 Y15.4851 F600
G1 X20.6902 Y15.7394 F600
G1 X20.4938 Y15.9983 F600
G1 X20.4449 Y16.0588 F600
G1 X20.7683 Y15.6593 F600
G1 X20.7456 Y15.1378 F600
G1 X20.7507 Y15.2547 F600
G1 X20.7371 Y15.5214 F600
G1 X20.7233 Y15.7905 F600
G1 X20.6835 Y16.0568 F600
G1 X20.6442 Y16.3197 F600
G1 X20.5805 Y16.5784 F600
G1 X20.5151 Y16.8446 F600
G1 X20.4229 Y17.1014 F600
G1 X20.3325 Y17.3536 F600
G1 X20.2175 Y17.5972 F600
G1 X20.1014 Y17.8433 F600
G1 X19.9616 Y18.0759 F600
G1 X19.8234 Y18.3057 F600
G1 X19.6635 Y18.5217 F600
G1 X19.5013 Y18.7406 F600
G1 X19.3182 Y18.9418 F600
G1 X19.1388 Y19.1388 F600
G1 X18.9418 Y19.3182 F600
G1 X18.7406 Y19.5013 F600
G1 X18.5217 Y19.6635 F600
G1 X18.3057 Y19.8234 F600
G1 X18.0759 Y19.9616 F600
G1 X17.8433 Y20.1014 F600
G1 X17.5972 Y20.2175 F600
G1 X17.3536 Y20.3325 F600
G1 X17.1014 Y20.4229 F600
G1 X16.8446 Y20.5151 F600
G1 X16.5784 Y20.5805 F600
G1 X16.3197 Y20.6442 F600
G1 X16.0568 Y20.6835 F600
G1 X15.7905 Y20.7233 F600
G1 X15.5214 Y20.7371 F600
G1 X15.2547 Y20.7507 F600
G1 X15.1378 Y20.7456 F600
G1 X15.6593 Y20.7683 F600
G1 X16.0588 Y20.4449 F600
G1 X15.9983 Y20.4938 F600
G1 X15.7394 Y20.6902 F600
G1 X15.4851 Y20.8830 F600
G1 X15.2265 Y21.0695 F600
G1 X14.9691 Y21.2552 F600
G1 X14.7084 Y21.4346 F600
G1 X14.4460 Y21.6152 F600
G1 X14.1774 Y21.7904 F600
G1 X13.9080 Y21.9661 F600
G1 X13.6364 Y22.1333 F600
G1 X13.3668 Y22.2993 F600
G1 X13.0920 Y22.4599 F600
G1 X12.8139 Y22.6226 F600
G1 X12.5324 Y22.7767 F600
G1 X12.2556 Y22.9282 F600
G1 X11.9747 Y23.0745 F600
G1 X11.6899 Y23.2228 F600
G1 X11.4009 Y23.3635 F600
G1 X11.1137 Y23.5034 F600
G1 X10.8245 Y23.6358 F600
G1 X10.5342 Y23.7688 F600
G1 X10.2407 Y23.8942 F600
G1 X9.9493 Y24.0188 F600
G1 X9.6548 Y24.1370 F600
G1 X9.3582 Y24.2561 F600
G1 X9.0584 Y24.3677 F600
G1 X8.7572 Y24.4799 F600
G1 X8.4538 Y24.5835 F600
G1 X8.1564 Y24.6851 F600
G1 X7.8559 Y24.7814 F600
G1 X7.5471 Y24.8804 F600
G1 X7.2361 Y24.9697 F600
G1 X6.9330 Y25.0568 F600
G1 X6.6558 Y25.1305 F600
G1 X7.1492 Y24.9992 F600
G1 X7.3687 Y24.3956 F600
G1 X7.2971 Y24.5926 F600
G1 X7.1336 Y24.9391 F600
G1 X6.9672 Y25.2918 F600
G1 X6.7660 Y25.6259 F600
G1 X6.5677 Y25.9551 F600
G1 X6.3399 Y26.2638 F600
G1 X6.1093 Y26.5762 F600
G1 X5.8479 Y26.8649 F600
G1 X5.5870 Y27.1530 F600
G1 X5.2989 Y27.4139 F600
G1 X5.0116 Y27.6740 F600
G1 X4.7009 Y27.9046 F600
G1 X4.3882 Y28.1366 F600
G1 X4.0532 Y28.3363 F600
G1 X3.7208 Y28.5346 F600
G1 X3.3711 Y28.6996 F600
G1 X3.0240 Y28.8633 F600
G1 X2.6635 Y28.9941 F600
G1 X2.2952 Y29.1277 F600
G1 X1.9147 Y29.2225 F600
G1 X1.5388 Y29.3162 F600
G1 X1.1555 Y29.3729 F600
G1 X0.7710 Y29.4297 F600
G1 X0.3838 Y29.4483 F600
G1 X-0.0009 Y29.4667 F600
G1 X-0.3866 Y29.4483 F600
G1 X-0.7752 Y29.4297 F600
G1 X-1.1592 Y29.3728 F600
G1 X-1.5411 Y29.3161 F600
G1 X-1.9167 Y29.2225 F600
G1 X-2.2965 Y29.1279 F600
G1 X-2.6649 Y28.9947 F600
G1 X-3.0282 Y28.8633 F600
G1 X-3.3759 Y28.6987 F600
G1 X-3.7237 Y28.5340 F600
G1 X-4.0552 Y28.3363 F600
G1 X-4.3902 Y28.1366 F600
G1 X-4.7029 Y27.9046 F600
G1 X-5.0136 Y27.6740 F600
G1 X-5.3009 Y27.4139 F600
G1 X-5.5890 Y27.1530 F600
G1 X-5.8499 Y26.8649 F600
G1 X-6.1100 Y26.5776 F600
G1 X-6.3406 Y26.2669 F600
G1 X-6.5719 Y25.9551 F600
G1 X-6.7711 Y25.6223 F600
G1 X-6.9689 Y25.2918 F600
G1 X-7.1347 Y24.9430 F600
G1 X-7.3025 Y24.5900 F600
G1 X-7.3751 Y24.3861 F600
G1 X-7.1574 Y24.9976 F600
G1 X-6.6578 Y25.1305 F600
G1 X-6.9350 Y25.0568 F600
G1 X-7.2381 Y24.9697 F600
G1 X-7.5491 Y24.8804 F600
G1 X-7.8579 Y24.7814 F600
G1 X-8.1584 Y24.6851 F600
G1 X-8.4558 Y24.5835 F600
G1 X-8.7592 Y24.4799 F600
G1 X-9.0604 Y24.3677 F600
G1 X-9.3602 Y24.2561 F600
G1 X-9.6568 Y24.1370 F600
G1 X-9.9513 Y24.0188 F600
G1 X-10.2427 Y23.8942 F600
G1 X-10.5352 Y23.7692 F600
G1 X-10.8256 Y23.6367 F600
G1 X-11.1178 Y23.5034 F600
G1 X-11.4058 Y23.3626 F600
G1 X-11.6928 Y23.2223 F600
G1 X-11.9767 Y23.0745 F600
G1 X-12.2576 Y22.9282 F600
G1 X-12.5344 Y22.7767 F600
G1 X-12.8159 Y22.6226 F600
G1 X-13.0940 Y22.4599 F600
G1 X-13.3677 Y22.3000 F600
G1 X-13.6372 Y22.1347 F600
G1 X-13.9121 Y21.9661 F600
G1 X-14.1827 Y21.7889 F600
G1 X-14.4480 Y21.6152 F600
G1 X-14.7091 Y21.4362 F600
G1 X-14.9731 Y21.2552 F600
G1 X-15.2319 Y21.0678 F600
G1 X-15.4882 Y20.8822 F600
G1 X-15.7414 Y20.6902 F600
G1 X-15.9935 Y20.4990 F600
G1 X-16.0484 Y20.4556 F600
G1 Z-1.5000 F120
G1 X-15.6529 Y20.7683 F600
G1 X-15.1394 Y20.7455 F600
G1 X-15.2559 Y20.7507 F600
G1 X-15.5234 Y20.7371 F600
G1 X-15.7925 Y20.7233 F600
G1 X-16.0588 Y20.6835 F600
G1 X-16.3217 Y20.6442 F600
G1 X-16.5804 Y20.5805 F600
G1 X-16.8453 Y20.5154 F600
G1 X-17.1020 Y20.4238 F600
G1 X-17.3580 Y20.3325 F600
G1 X-17.6031 Y20.2161 F600
G1 X-17.8467 Y20.1005 F600
G1 X-18.0779 Y19.9616 F600
G1 X-18.3077 Y19.8234 F600
G1 X-18.5237 Y19.6635 F600
G1 X-18.7426 Y19.5013 F600
G1 X-18.9438 Y19.3182 F600
G1 X-19.1408 Y19.1388 F600
G1 X-19.3202 Y18.9418 F600
G1 X-19.5033 Y18.7406 F600
G1 X-19.6655 Y18.5217 F600
G1 X-19.8254 Y18.3057 F600
G1 X-19.9636 Y18.0759 F600
G1 X-20.1034 Y17.8433 F600
G1 X-20.2195 Y17.5972 F600
G1 X-20.3345 Y17.3536 F600
G1 X-20.4249 Y17.1014 F600
G1 X-20.5158 Y16.8481 F600
G1 X-20.5818 Y16.5856 F600
G1 X-20.6477 Y16.3234 F600
G1 X-20.6875 Y16.0568 F600
G1 X-20.7279 Y15.7867 F600
G1 X-20.7404 Y15.5138 F600
G1 X-20.7525 Y15.2508 F600
G1 X-20.7476 Y15.1378 F600
G1 X-20.7703 Y15.6593 F600
G1 X-20.4469 Y16.0588 F600
G1 X-20.4946 Y15.9999 F600
G1 X-20.6908 Y15.7425 F600
G1 X-20.8859 Y15.4867 F600
G1 X-21.0735 Y15.2265 F600
G1 X-21.2604 Y14.9674 F600
G1 X-21.4400 Y14.7050 F600
G1 X-21.6183 Y14.4443 F600
G1 X-21.7924 Y14.1774 F600
G1 X-21.9681 Y13.9080 F600
G1 X-22.1353 Y13.6364 F600
G1 X-22.3013 Y13.3668 F600
G1 X-22.4619 Y13.0920 F600
G1 X-22.6235 Y12.8157 F600
G1 X-22.7776 Y12.5362 F600
G1 X-22.9323 Y12.2556 F600
G1 X-23.0795 Y11.9707 F600
G1 X-23.2257 Y11.6879 F600
G1 X-23.3655 Y11.4009 F600
G1 X-23.5054 Y11.1137 F600
G1 X-23.6378 Y10.8245 F600
G1 X-23.7698 Y10.5363 F600
G1 X-23.8954 Y10.2449 F600
G1 X-24.0229 Y9.9493 F600
G1 X-24.1417 Y9.6505 F600
G1 X-24.2589 Y9.3560 F600
G1 X-24.3697 Y9.0584 F600
G1 X-24.4810 Y8.7594 F600
G1 X-24.5850 Y8.4583 F600
G1 X-24.6891 Y8.1564 F600
G1 X-24.7858 Y7.8514 F600
G1 X-24.8831 Y7.5448 F600
G1 X-24.9717 Y7.2361 F600
G1 X-25.0588 Y6.9330 F600
G1 X-25.1325 Y6.6558 F600
G1 X-25.0012 Y7.1492 F600
G1 X-24.3976 Y7.3687 F600
G1 X-24.5946 Y7.2971 F600
G1 X-24.9411 Y7.1336 F600
G1 X-25.2938 Y6.9672 F600
G1 X-25.6279 Y6.7660 F600
G1 X-25.9559 Y6.5684 F600
G1 X-26.2645 Y6.3415 F600
G1 X-26.5804 Y6.1093 F600
G1 X-26.8702 Y5.8457 F600
G1 X-27.1560 Y5.5858 F600
G1 X-27.4159 Y5.2989 F600
G1 X-27.6760 Y5.0116 F600
G1 X-27.9066 Y4.7009 F600
G1 X-28.1374 Y4.3898 F600
G1 X-28.3372 Y4.0567 F600
G1 X-28.5377 Y3.7227 F600
G1 X-28.7036 Y3.3711 F600
G1 X-28.8683 Y3.0220 F600
G1 X-28.9986 Y2.6592 F600
G1 X-29.1302 Y2.2931 F600
G1 X-29.2245 Y1.9147 F600
G1 X-29.3182 Y1.5388 F600
G1 X-29.3749 Y1.1555 F600
G1 X-29.4317 Y0.7710 F600
G1 X-29.4503 Y0.3838 F600
G1 X-29.4687 Y-0.0009 F600
G1 X-29.4503 Y-0.3866 F600
G1 X-29.4317 Y-0.7752 F600
G1 X-29.3748 Y-1.1592 F600
G1 X-29.3181 Y-1.5411 F600
G1 X-29.2245 Y-1.9167 F600
G1 X-29.1304 Y-2.2943 F600
G1 X-28.9992 Y-2.6607 F600
G1 X-28.8683 Y-3.0262 F600
G1 X-28.7027 Y-3.3759 F600
G1 X-28.5372 Y-3.7255 F600
G1 X-28.3372 Y-4.0587 F600
G1 X-28.1374 Y-4.3918 F600
G1 X-27.9066 Y-4.7029 F600
G1 X-27.6760 Y-5.0136 F600
G1 X-27.4159 Y-5.3009 F600
G1 X-27.1560 Y-5.5878 F600
G1 X-26.8702 Y-5.8477 F600
G1 X-26.5819 Y-6.1100 F600
G1 X-26.2676 Y-6.3423 F600
G1 X-25.9559 Y-6.5726 F600
G1 X-25.6243 Y-6.7711 F600
G1 X-25.2938 Y-6.9689 F600
G1 X-24.9450 Y-7.1347 F600
G1 X-24.5920 Y-7.3025 F600
G1 X-24.3881 Y-7.3751 F600
G1 X-24.9996 Y-7.1574 F600
G1 X-25.1325 Y-6.6578 F600
G1 X-25.0588 Y-6.9350 F600
G1 X-24.9717 Y-7.2381 F600
G1 X-24.8831 Y-7.5468 F600
G1 X-24.7858 Y-7.8534 F600
G1 X-24.6891 Y-8.1584 F600
G1 X-24.5850 Y-8.4603 F600
G1 X-24.4810 Y-8.7614 F600
G1 X-24.3697 Y-9.0604 F600
G1 X-24.2589 Y-9.3580 F600
G1 X-24.1417 Y-9.6525 F600
G1 X-24.0229 Y-9.9513 F600
G1 X-23.8954 Y-10.2469 F600
G1 X-23.7702 Y-10.5373 F600
G1 X-23.6387 Y-10.8256 F600
G1 X-23.5054 Y-11.1178 F600
G1 X-23.3646 Y-11.4058 F600
G1 X-23.2252 Y-11.6909 F600
G1 X-23.0795 Y-11.9727 F600
G1 X-22.9323 Y-12.2576 F600
G1 X-22.7776 Y-12.5382 F600
G1 X-22.6235 Y-12.8177 F600
G1 X-22.4619 Y-13.0940 F600
G1 X-22.3020 Y-13.3677 F600
G1 X-22.1367 Y-13.6372 F600
G1 X-21.9681 Y-13.9121 F600
G1 X-21.7909 Y-14.1827 F600
G1 X-21.6183 Y-14.4463 F600
G1 X-21.4416 Y-14.7057 F600
G1 X-21.2604 Y-14.9715 F600
G1 X-21.0718 Y-15.2319 F600
G1 X-20.8850 Y-15.4898 F600
G1 X-20.6908 Y-15.7445 F600
G1 X-20.4998 Y-15.9950 F600
G1 X-20.4576 Y-16.0484 F600
G1 X-20.7703 Y-15.6529 F600
G1 X-20.7475 Y-15.1394 F600
G1 X-20.7525 Y-15.2521 F600
G1 X-20.7404 Y-15.5158 F600
G1 X-20.7279 Y-15.7887 F600
G1 X-20.6875 Y-16.0588 F600
G1 X-20.6477 Y-16.3254 F600
G1 X-20.5818 Y-16.5876 F600
G1 X-20.5161 Y-16.8488 F600
G1 X-20.4258 Y-17.1020 F600
G1 X-20.3345 Y-17.3580 F600
G1 X-20.2181 Y-17.6031 F600
G1 X-20.1025 Y-17.8467 F600
G1 X-19.9636 Y-18.0779 F600
G1 X-19.8254 Y-18.3077 F600
G1 X-19.6655 Y-18.5237 F600
G1 X-19.5033 Y-18.7426 F600
G1 X-19.3202 Y-18.9438 F600
G1 X-19.1408 Y-19.1408 F600
G1 X-18.9438 Y-19.3202 F600
G1 X-18.7426 Y-19.5033 F600
G1 X-18.5237 Y-19.6655 F600
G1 X-18.3077 Y-19.8254 F600
G1 X-18.0779 Y-19.9636 F600
G1 X-17.8467 Y-20.1025 F600
G1 X-17.6031 Y-20.2181 F600
G1 X-17.3580 Y-20.3345 F600
G1 X-17.1020 Y-20.4258 F600
G1 X-16.8488 Y-20.5161 F600
G1 X-16.5876 Y-20.5818 F600
G1 X-16.3254 Y-20.6477 F600
G1 X-16.0588 Y-20.6875 F600
G1 X-15.7887 Y-20.7279 F600
G1 X-15.5158 Y-20.7404 F600
G1 X-15.2521 Y-20.7525 F600
G1 X-15.1394 Y-20.7475 F600
G1 X-15.6529 Y-20.7703 F600
G1 X-16.0484 Y-20.4576 F600
G1 X-15.9950 Y-20.4998 F600
G1 X-15.7445 Y-20.6908 F600
G1 X-15.4898 Y-20.8850 F600
G1 X-15.2319 Y-21.0718 F600
G1 X-14.9715 Y-21.2604 F600
G1 X-14.7057 Y-21.4416 F600
G1 X-14.4463 Y-21.6183 F600
G1 X-14.1827 Y-21.7909 F600
G1 X-13.9121 Y-21.9681 F600
G1 X-13.6372 Y-22.1367 F600
G1 X-13.3677 Y-22.3020 F600
G1 X-13.0940 Y-22.4619 F600
G1 X-12.8177 Y-22.6235 F600
G1 X-12.5382 Y-22.7776 F600
G1 X-12.2576 Y-22.9323 F600
G1 X-11.9727 Y-23.0795 F600
G1 X-11.6909 Y-23.2252 F600
G1 X-11.4058 Y-23.3646 F600
G1 X-11.1178 Y-23.5054 F600
G1 X-10.8256 Y-23.6387 F600
G1 X-10.5373 Y-23.7702 F600
G1 X-10.2469 Y-23.8954 F600
G1 X-9.9513 Y-24.0229 F600
G1 X-9.6525 Y-24.1417 F600
G1 X-9.3580 Y-24.2589 F600
G1 X-9.0604 Y-24.3697 F600
G1 X-8.7614 Y-24.4810 F600
G1 X-8.4603 Y-24.5850 F600
G1 X-8.1584 Y-24.6891 F600
G1 X-7.8534 Y-24.7858 F600
G1 X-7.5468 Y-24.8831 F600
G1 X-7.2381 Y-24.9717 F600
G1 X-6.9350 Y-25.0588 F600
G1 X-6.6578 Y-25.1325 F600
G1 X-7.1574 Y-24.9996 F600
G1 X-7.3751 Y-24.3881 F600
G1 X-7.3025 Y-24.5920 F600
G1 X-7.1347 Y-24.9450 F600
G1 X-6.9689 Y-25.2938 F600
G1 X-6.7711 Y-25.6243 F600
G1 X-6.5726 Y-25.9559 F600
G1 X-6.3423 Y-26.2676 F600
G1 X-6.1100 Y-26.5819 F600
G1 X-5.8477 Y-26.8702 F600
G1 X-5.5878 Y-27.1560 F600
G1 X-5.3009 Y-27.4159 F600
G1 X-5.0136 Y-27.6760 F600
G1 X-4.7029 Y-27.9066 F600
G1 X-4.3918 Y-28.1374 F600
G1 X-4.0587 Y-28.3372 F600
G1 X-3.7255 Y-28.5372 F600
G1 X-3.3759 Y-28.7027 F600
G1 X-3.0262 Y-28.8683 F600
G1 X-2.6607 Y-28.9992 F600
G1 X-2.2943 Y-29.1304 F600
G1 X-1.9167 Y-29.2245 F600
G1 X-1.5411 Y-29.3181 F600
G1 X-1.1592 Y-29.3748 F600
G1 X-0.7752 Y-29.4317 F600
G1 X-0.3866 Y-29.4503 F600
G1 X-0.0009 Y-29.4687 F600
G1 X0.3838 Y-29.4503 F600
G1 X0.7710 Y-29.4317 F600
G1 X1.1555 Y-29.3749 F600
G1 X1.5388 Y-29.3182 F600
G1 X1.9147 Y-29.2245 F600
G1 X2.2931 Y-29.1302 F600
G1 X2.6592 Y-28.9986 F600
G1 X3.0220 Y-28.8683 F600
G1 X3.3711 Y-28.7036 F600
G1 X3.7227 Y-28.5377 F600
G1 X4.0567 Y-28.3372 F600
G1 X4.3898 Y-28.1374 F600
G1 X4.7009 Y-27.9066 F600
G1 X5.0116 Y-27.6760 F600
G1 X5.2989 Y-27.4159 F600
G1 X5.5858 Y-27.1560 F600
G1 X5.8457 Y-26.8702 F600
G1 X6.1093 Y-26.5804 F600
G1 X6.3415 Y-26.2645 F600
G1 X6.5684 Y-25.9559 F600
G1 X6.7660 Y-25.6279 F600
G1 X6.9672 Y-25.2938 F600
G1 X7.1336 Y-24.9411 F600
G1 X7.2971 Y-24.5946 F600
G1 X7.3687 Y-24.3976 F600
G1 X7.1492 Y-25.0012 F600
G1 X6.6558 Y-25.1325 F600
G1 X6.9330 Y-25.0588 F600
G1 X7.2361 Y-24.9717 F600
G1 X7.5448 Y-24.8831 F600
G1 X7.8514 Y-24.7858 F600
G1 X8.1564 Y-24.6891 F600
G1 X8.4583 Y-24.5850 F600
G1 X8.7594 Y-24.4810 F600
G1 X9.0584 Y-24.3697 F600
G1 X9.3560 Y-24.2589 F600
G1 X9.6505 Y-24.1417 F600
G1 X9.9493 Y-24.0229 F600
G1 X10.2449 Y-23.8954 F600
G1 X10.5363 Y-23.7698 F600
G1 X10.8245 Y-23.6378 F600
G1 X11.1137 Y-23.5054 F600
G1 X11.4009 Y-23.3655 F600
G1 X11.6879 Y-23.2257 F600
G1 X11.9707 Y-23.0795 F600
G1 X12.2556 Y-22.9323 F600
G1 X12.5362 Y-22.7776 F600
G1 X12.8157 Y-22.6235 F600
G1 X13.0920 Y-22.4619 F600
G1 X13.3668 Y-22.3013 F600
G1 X13.6364 Y-22.1353 F600
G1 X13.9080 Y-21.9681 F600
G1 X14.1774 Y-21.7924 F600
G1 X14.4443 Y-21.6183 F600
G1 X14.7050 Y-21.4400 F600
G1 X14.9674 Y-21.2604 F600
G1 X15.2265 Y-21.0735 F600
G1 X15.4867 Y-20.8859 F600
G1 X15.7425 Y-20.6908 F600
G1 X15.9999 Y-20.4946 F600
G1 X16.0588 Y-20.4469 F600
G1 X15.6593 Y-20.7703 F600
G1 X15.1378 Y-20.7476 F600
G1 X15.2508 Y-20.7525 F600
G1 X15.5138 Y-20.7404 F600
G1 X15.7867 Y-20.7279 F600
G1 X16.0568 Y-20.6875 F600
G1 X16.3234 Y-20.6477 F600
G1 X16.5856 Y-20.5818 F600
G1 X16.8481 Y-20.5158 F600
G1 X17.1014 Y-20.4249 F600
G1 X17.3536 Y-20.3345 F600
G1 X17.5972 Y-20.2195 F600
G1 X17.8433 Y-20.1034 F600
G1 X18.0759 Y-19.9636 F600
G1 X18.3057 Y-19.8254 F600
G1 X18.5217 Y-19.6655 F600
G1 X18.7406 Y-19.5033 F600
G1 X18.9418 Y-19.3202 F600
G1 X19.1388 Y-19.1408 F600
G1 X19.3182 Y-18.9438 F600
G1 X19.5013 Y-18.7426 F600
G1 X19.6635 Y-18.5237 F600
G1 X19.8234 Y-18.3077 F600
G1 X19.9616 Y-18.0779 F600
G1 X20.1005 Y-17.8467 F600
G1 X20.2161 Y-17.6031 F600
G1 X20.3325 Y-17.3580 F600
G1 X20.4238 Y-17.1020 F600
G1 X20.5154 Y-16.8453 F600
G1 X20.5805 Y-16.5804 F600
G1 X20.6442 Y-16.3217 F600
G1 X20.6835 Y-16.0588 F600
G1 X20.7233 Y-15.7925 F600
G1 X20.7371 Y-15.5234 F600
G1 X20.7507 Y-15.2559 F600
G1 X20.7455 Y-15.1394 F600
G1 X20.7683 Y-15.6529 F600
G1 X20.4556 Y-16.0484 F600
G1 X20.4990 Y-15.9935 F600
G1 X20.6902 Y-15.7414 F600
G1 X20.8822 Y-15.4882 F600
G1 X21.0678 Y-15.2319 F600
G1 X21.2552 Y-14.9731 F600
G1 X21.4362 Y-14.7091 F600
G1 X21.6152 Y-14.4480 F600
G1 X21.7889 Y-14.1827 F600
G1 X21.9661 Y-13.9121 F600
G1 X22.1347 Y-13.6372 F600
G1 X22.3000 Y-13.3677 F600
G1 X22.4599 Y-13.0940 F600
G1 X22.6226 Y-12.8159 F600
G1 X22.7767 Y-12.5344 F600
G1 X22.9282 Y-12.2576 F600
G1 X23.0745 Y-11.9767 F600
G1 X23.2223 Y-11.6928 F600
G1 X23.3626 Y-11.4058 F600
G1 X23.5034 Y-11.1178 F600
G1 X23.6367 Y-10.8256 F600
G1 X23.7692 Y-10.5352 F600
G1 X23.8942 Y-10.2427 F600
G1 X24.0188 Y-9.9513 F600
G1 X24.1370 Y-9.6568 F600
G1 X24.2561 Y-9.3602 F600
G1 X24.3677 Y-9.0604 F600
G1 X24.4799 Y-8.7592 F600
G1 X24.5835 Y-8.4558 F600
G1 X24.6851 Y-8.1584 F600
G1 X24.7814 Y-7.8579 F600
G1 X24.8804 Y-7.5491 F600
G1 X24.9697 Y-7.2381 F600
G1 X25.0568 Y-6.9350 F600
G1 X25.1305 Y-6.6578 F600
G1 X24.9976 Y-7.1574 F600
G1 X24.3861 Y-7.3751 F600
G1 X24.5900 Y-7.3025 F600
G1 X24.9430 Y-7.1347 F600
G1 X25.2918 Y-6.9689 F600
G1 X25.6223 Y-6.7711 F600
G1 X25.9551 Y-6.5719 F600
G1 X26.2669 Y-6.3406 F600
G1 X26.5776 Y-6.1100 F600
G1 X26.8649 Y-5.8499 F600
G1 X27.1530 Y-5.5890 F600
G1 X27.4139 Y-5.3009 F600
G1 X27.6740 Y-5.0136 F600
G1 X27.9046 Y-4.7029 F600
G1 X28.1366 Y-4.3902 F600
G1 X28.3363 Y-4.0552 F600
G1 X28.5340 Y-3.7237 F600
G1 X28.6987 Y-3.3759 F600
G1 X28.8633 Y-3.0282 F600
G1 X28.9947 Y-2.6649 F600
G1 X29.1279 Y-2.2965 F600
G1 X29.2225 Y-1.9167 F600
G1 X29.3161 Y-1.5411 F600
G1 X29.3728 Y-1.1592 F600
G1 X29.4297 Y-0.7752 F600
G1 X29.4483 Y-0.3866 F600
G1 X29.4667 Y-0.0009 F600
G1 X29.4483 Y0.3838 F600
G1 X29.4297 Y0.7710 F600
G1 X29.3729 Y1.1555 F600
G1 X29.3162 Y1.5388 F600
G1 X29.2225 Y1.9147 F600
G1 X29.1277 Y2.2952 F600
G1 X28.9941 Y2.6635 F600
G1 X28.8633 Y3.0240 F600
G1 X28.6996 Y3.3711 F600
G1 X28.5346 Y3.7208 F600
G1 X28.3363 Y4.0532 F600
G1 X28.1366 Y4.3882 F600
G1 X27.9046 Y4.7009 F600
G1 X27.6740 Y5.0116 F600
G1 X27.4139 Y5.2989 F600
G1 X27.1530 Y5.5870 F600
G1 X26.8649 Y5.8479 F600
G1 X26.5762 Y6.1093 F600
G1 X26.2638 Y6.3399 F600
G1 X25.9551 Y6.5677 F600
G1 X25.6259 Y6.7660 F600
G1 X25.2918 Y6.9672 F600
G1 X24.9391 Y7.1336 F600
G1 X24.5926 Y7.2971 F600
G1 X24.3956 Y7.3687 F600
G1 X24.9992 Y7.1492 F600
G1 X25.1305 Y6.6558 F600
G1 X25.0568 Y6.9330 F600
G1 X24.9697 Y7.2361 F600
G1 X24.8804 Y7.5471 F600
G1 X24.7814 Y7.8559 F600
G1 X24.6851 Y8.1564 F600
G1 X24.5835 Y8.4538 F600
G1 X24.4799 Y8.7572 F600
G1 X24.3677 Y9.0584 F600
G1 X24.2561 Y9.3582 F600
G1 X24.1370 Y9.6548 F600
G1 X24.0188 Y9.9493 F600
G1 X23.8942 Y10.2407 F600
G1 X23.7688 Y10.5342 F600
G1 X23.6358 Y10.8245 F600
G1 X23.5034 Y11.1137 F600
G1 X23.3635 Y11.4009 F600
G1 X23.2228 Y11.6899 F600
G1 X23.0745 Y11.9747 F600
G1 X22.9282 Y12.2556 F600
G1 X22.7767 Y12.5324 F600
G1 X22.6226 Y12.8139 F600
G1 X22.4599 Y13.0920 F600
G1 X22.2993 Y13.3668 F600
G1 X22.1333 Y13.6364 F600
G1 X21.9661 Y13.9080 F600
G1 X21.7904 Y14.1774 F600
G1 X21.6152 Y14.4460 F600
G1 X21.4346 Y14.7084 F600
G1 X21.2552 Y14.9691 F600
G1 X21.0695 Y15.2265 F600
G1 X20.8830 Y15.4851 F600
G1 X20.6902 Y15.7394 F600
G1 X20.4938 Y15.9983 F600
G1 X20.4449 Y16.0588 F600
G1 X20.7683 Y15.6593 F600
G1 X20.7456 Y15.1378 F600
G1 X20.7507 Y15.2547 F600
G1 X20.7371 Y15.5214 F600
G1 X20.7233 Y15.7905 F600
G1 X20.6835 Y16.0568 F600
G1 X20.6442 Y16.3197 F600
G1 X20.5805 Y16.5784 F600
G1 X20.5151 Y16.8446 F600
G1 X20.4229 Y17.1014 F600
G1 X20.3325 Y17.3536 F600
G1 X20.2175 Y17.5972 F600
G1 X20.1014 Y17.8433 F600
G1 X19.9616 Y18.0759 F600
G1 X19.8234 Y18.3057 F600
G1 X19.6635 Y18.5217 F600
G1 X19.5013 Y18.7406 F600
G1 X19.3182 Y18.9418 F600
G1 X19.1388 Y19.1388 F600
G1 X18.9418 Y19.3182 F600
G1 X18.7406 Y19.5013 F600
G1 X18.5217 Y19.6635 F600
G1 X18.3057 Y19.8234 F600
G1 X18.0759 Y19.9616 F600
G1 X17.8433 Y20.1014 F600
G1 X17.5972 Y20.2175 F600
G1 X17.3536 Y20.3325 F600
G1 X17.1014 Y20.4229 F600
G1 X16.8446 Y20.5151 F600
G1 X16.5784 Y20.5805 F600
G1 X16.3197 Y20.6442 F600
G1 X16.0568 Y20.6835 F600
G1 X15.7905 Y20.7233 F600
G1 X15.5214 Y20.7371 F600
G1 X15.2547 Y20.7507 F600
G1 X15.1378 Y20.7456 F600
G1 X15.6593 Y20.7683 F600
G1 X16.0588 Y20.4449 F600
G1 X15.9983 Y20.4938 F600
G1 X15.7394 Y20.6902 F600
G1 X15.4851 Y20.8830 F600
G1 X15.2265 Y21.0695 F600
G1 X14.9691 Y21.2552 F600
G1 X14.7084 Y21.4346 F600
G1 X14.4460 Y21.6152 F600
G1 X14.1774 Y21.7904 F600
G1 X13.9080 Y21.9661 F600
G1 X13.6364 Y22.1333 F600
G1 X13.3668 Y22.2993 F600
G1 X13.0920 Y22.4599 F600
G1 X12.8139 Y22.6226 F600
G1 X12.5324 Y22.7767 F600
G1 X12.2556 Y22.9282 F600
G1 X11.9747 Y23.0745 F600
G1 X11.6899 Y23.2228 F600
G1 X11.4009 Y23.3635 F600
G1 X11.1137 Y23.5034 F600
G1 X10.8245 Y23.6358 F600
G1 X10.5342 Y23.7688 F600
G1 X10.2407 Y23.8942 F600
G1 X9.9493 Y24.0188 F600
G1 X9.6548 Y24.1370 F600
G1 X9.3582 Y24.2561 F600
G1 X9.0584 Y24.3677 F600
G1 X8.7572 Y24.4799 F600
G1 X8.4538 Y24.5835 F600
G1 X8.1564 Y24.6851 F600
G1 X7.8559 Y24.7814 F600
G1 X7.5471 Y24.8804 F600
G1 X7.2361 Y24.9697 F600
G1 X6.9330 Y25.0568 F600
G1 X6.6558 Y25.1305 F600
G1 X7.1492 Y24.9992 F600
G1 X7.3687 Y24.3956 F600
G1 X7.2971 Y24.5926 F600
G1 X7.1336 Y24.9391 F600
G1 X6.9672 Y25.2918 F600
G1 X6.7660 Y25.6259 F600
G1 X6.5677 Y25.9551 F600
G1 X6.3399 Y26.2638 F600
G1 X6.1093 Y26.5762 F600
G1 X5.8479 Y26.8649 F600
G1 X5.5870 Y27.1530 F600
G1 X5.2989 Y27.4139 F600
G1 X5.0116 Y27.6740 F600
G1 X4.7009 Y27.9046 F600
G1 X4.3882 Y28.1366 F600
G1 X4.0532 Y28.3363 F600
G1 X3.7208 Y28.5346 F600
G1 X3.3711 Y28.6996 F600
G1 X3.0240 Y28.8633 F600
G1 X2.6635 Y28.9941 F600
G1 X2.2952 Y29.1277 F600
G1 X1.9147 Y29.2225 F600
G1 X1.5388 Y29.3162 F600
G1 X1.1555 Y29.3729 F600
G1 X0.7710 Y29.4297 F600
G1 X0.3838 Y29.4483 F600
G1 X-0.0009 Y29.4667 F600
G1 X-0.3866 Y29.4483 F600
G1 X-0.7752 Y29.4297 F600
G1 X-1.1592 Y29.3728 F600
G1 X-1.5411 Y29.3161 F600
G1 X-1.9167 Y29.2225 F600
G1 X-2.2965 Y29.1279 F600
G1 X-2.6649 Y28.9947 F600
G1 X-3.0282 Y28.8633 F600
G1 X-3.3759 Y28.6987 F600
G1 X-3.7237 Y28.5340 F600
G1 X-4.0552 Y28.3363 F600
G1 X-4.3902 Y28.1366 F600
G1 X-4.7029 Y27.9046 F600
G1 X-5.0136 Y27.6740 F600
G1 X-5.3009 Y27.4139 F600
G1 X-5.5890 Y27.1530 F600
G1 X-5.8499 Y26.8649 F600
G1 X-6.1100 Y26.5776 F600
G1 X-6.3406 Y26.2669 F600
G1 X-6.5719 Y25.9551 F600
G1 X-6.7711 Y25.6223 F600
G1 X-6.9689 Y25.2918 F600
G1 X-7.1347 Y24.9430 F600
G1 X-7.3025 Y24.5900 F600
G1 X-7.3751 Y24.3861 F600
G1 X-7.1574 Y24.9976 F600
G1 X-6.6578 Y25.1305 F600
G1 X-6.9350 Y25.0568 F600
G1 X-7.2381 Y24.9697 F600
G1 X-7.5491 Y24.8804 F600
G1 X-7.8579 Y24.7814 F600
G1 X-8.1584 Y24.6851 F600
G1 X-8.4558 Y24.5835 F600
G1 X-8.7592 Y24.4799 F600
G1 X-9.0604 Y24.3677 F600
G1 X-9.3602 Y24.2561 F600
G1 X-9.6568 Y24.1370 F600
G1 X-9.9513 Y24.0188 F600
G1 X-10.2427 Y23.8942 F600
G1 X-10.5352 Y23.7692 F600
G1 X-10.8256 Y23.6367 F600
G1 X-11.1178 Y23.5034 F600
G1 X-11.4058 Y23.3626 F600
G1 X-11.6928 Y23.2223 F600
G1 X-11.9767 Y23.0745 F600
G1 X-12.2576 Y22.9282 F600
G1 X-12.5344 Y22.7767 F600
G1 X-12.8159 Y22.6226 F600
G1 X-13.0940 Y22.4599 F600
G1 X-13.3677 Y22.3000 F600
G1 X-13.6372 Y22.1347 F600
G1 X-13.9121 Y21.9661 F600
G1 X-14.1827 Y21.7889 F600
G1 X-14.4480 Y21.6152 F600
G1 X-14.7091 Y21.4362 F600
G1 X-14.9731 Y21.2552 F600
G1 X-15.2319 Y21.0678 F600
G1 X-15.4882 Y20.8822 F600
G1 X-15.7414 Y20.6902 F600
G1 X-15.9935 Y20.4990 F600
G1 X-16.0484 Y20.4556 F600
G1 Z-2.0000 F120
G1 X-15.6529 Y20.7683 F600
G1 X-15.1394 Y20.7455 F600
G1 X-15.2559 Y20.7507 F600
G1 X-15.5234 Y20.7371 F600
G1 X-15.7925 Y20.7233 F600
G1 X-16.0588 Y20.6835 F600
G1 X-16.3217 Y20.6442 F600
G1 X-16.5804 Y20.5805 F600
G1 X-16.8453 Y20.5154 F600
G1 X-17.1020 Y20.4238 F600
G1 X-17.3580 Y20.3325 F600
G1 X-17.6031 Y20.2161 F600
G1 X-17.8467 Y20.1005 F600
G1 X-18.0779 Y19.9616 F600
G1 X-18.3077 Y19.8234 F600
G1 X-18.5237 Y19.6635 F600
G1 X-18.7426 Y19.5013 F600
G1 X-18.9438 Y19.3182 F600
G1 X-19.1408 Y19.1388 F600
G1 X-19.3202 Y18.9418 F600
G1 X-19.5033 Y18.7406 F600
G1 X-19.6655 Y18.5217 F600
G1 X-19.8254 Y18.3057 F600
G1 X-19.9636 Y18.0759 F600
G1 X-20.1034 Y17.8433 F600
G1 X-20.2195 Y17.5972 F600
G1 X-20.3345 Y17.3536 F600
G1 X-20.4249 Y17.1014 F600
G1 X-20.5158 Y16.8481 F600
G1 X-20.5818 Y16.5856 F600
G1 X-20.6477 Y16.3234 F600
G1 X-20.6875 Y16.0568 F600
G1 X-20.7279 Y15.7867 F600
G1 X-20.7404 Y15.5138 F600
G1 X-20.7525 Y15.2508 F600
G1 X-20.7476 Y15.1378 F600
G1 X-20.7703 Y15.6593 F600
G1 X-20.4469 Y16.0588 F600
G1 X-20.4946 Y15.9999 F600
G1 X-20.6908 Y15.7425 F600
G1 X-20.8859 Y15.4867 F600
G1 X-21.0735 Y15.2265 F600
G1 X-21.2604 Y14.9674 F600
G1 X-21.4400 Y14.7050 F600
G1 X-21.6183 Y14.4443 F600
G1 X-21.7924 Y14.1774 F600
G1 X-21.9681 Y13.9080 F600
G1 X-22.1353 Y13.6364 F600
G1 X-22.3013 Y13.3668 F600
G1 X-22.4619 Y13.0920 F600
G1 X-22.6235 Y12.8157 F600
G1 X-22.7776 Y12.5362 F600
G1 X-22.9323 Y12.2556 F600
G1 X-23.0795 Y11.9707 F600
G1 X-23.2257 Y11.6879 F600
G1 X-23.3655 Y11.4009 F600
G1 X-23.5054 Y11.1137 F600
G1 X-23.6378 Y10.8245 F600
G1 X-23.7698 Y10.5363 F600
G1 X-23.8954 Y10.2449 F600
G1 X-24.0229 Y9.9493 F600
G1 X-24.1417 Y9.6505 F600
G1 X-24.2589 Y9.3560 F600
G1 X-24.3697 Y9.0584 F600
G1 X-24.4810 Y8.7594 F600
G1 X-24.5850 Y8.4583 F600
G1 X-24.6891 Y8.1564 F600
G1 X-24.7858 Y7.8514 F600
G1 X-24.8831 Y7.5448 F600
G1 X-24.9717 Y7.2361 F600
G1 X-25.0588 Y6.9330 F600
G1 X-25.1325 Y6.6558 F600
G1 X-25.0012 Y7.1492 F600
G1 X-24.3976 Y7.3687 F600
G1 X-24.5946 Y7.2971 F600
G1 X-24.9411 Y7.1336 F600
G1 X-25.2938 Y6.9672 F600
G1 X-25.6279 Y6.7660 F600
G1 X-25.9559 Y6.5684 F600
G1 X-26.2645 Y6.3415 F600
G1 X-26.5804 Y6.1093 F600
G1 X-26.8702 Y5.8457 F600
G1 X-27.1560 Y5.5858 F600
G1 X-27.4159 Y5.2989 F600
G1 X-27.6760 Y5.0116 F600
G1 X-27.9066 Y4.7009 F600
G1 X-28.1374 Y4.3898 F600
G1 X-28.3372 Y4.0567 F600
G1 X-28.5377 Y3.7227 F600
G1 X-28.7036 Y3.3711 F600
G1 X-28.8683 Y3.0220 F600
G1 X-28.9986 Y2.6592 F600
G1 X-29.1302 Y2.2931 F600
G1 X-29.2245 Y1.9147 F600
G1 X-29.3182 Y1.5388 F600
G1 X-29.3749 Y1.1555 F600
G1 X-29.4317 Y0.7710 F600
G1 X-29.4503 Y0.3838 F600
G1 X-29.4687 Y-0.0009 F600
G1 X-29.4503 Y-0.3866 F600
G1 X-29.4317 Y-0.7752 F600
G1 X-29.3748 Y-1.1592 F600
G1 X-29.3181 Y-1.5411 F600
G1 X-29.2245 Y-1.9167 F600
G1 X-29.1304 Y-2.2943 F600
G1 X-28.9992 Y-2.6607 F600
G1 X-28.8683 Y-3.0262 F600
G1 X-28.7027 Y-3.3759 F600
G1 X-28.5372 Y-3.7255 F600
G1 X-28.3372 Y-4.0587 F600
G1 X-28.1374 Y-4.3918 F600
G1 X-27.9066 Y-4.7029 F600
G1 X-27.6760 Y-5.0136 F600
G1 X-27.4159 Y-5.3009 F600
G1 X-27.1560 Y-5.5878 F600
G1 X-26.8702 Y-5.8477 F600
G1 X-26.5819 Y-6.1100 F600
G1 X-26.2676 Y-6.3423 F600
G1 X-25.9559 Y-6.5726 F600
G1 X-25.6243 Y-6.7711 F600
G1 X-25.2938 Y-6.9689 F600
G1 X-24.9450 Y-7.1347 F600
G1 X-24.5920 Y-7.3025 F600
G1 X-24.3881 Y-7.3751 F600
G1 X-24.9996 Y-7.1574 F600
G1 X-25.1325 Y-6.6578 F600
G1 X-25.0588 Y-6.9350 F600
G1 X-24.9717 Y-7.2381 F600
G1 X-24.8831 Y-7.5468 F600
G1 X-24.7858 Y-7.8534 F600
G1 X-24.6891 Y-8.1584 F600
G1 X-24.5850 Y-8.4603 F600
G1 X-24.4810 Y-8.7614 F600
G1 X-24.3697 Y-9.0604 F600
G1 X-24.2589 Y-9.3580 F600
G1 X-24.1417 Y-9.6525 F600
G1 X-24.0229 Y-9.9513 F600
G1 X-23.8954 Y-10.2469 F600
G1 X-23.7702 Y-10.5373 F600
G1 X-23.6387 Y-10.8256 F600
G1 X-23.5054 Y-11.1178 F600
G1 X-23.3646 Y-11.4058 F600
G1 X-23.2252 Y-11.6909 F600
G1 X-23.0795 Y-11.9727 F600
G1 X-22.9323 Y-12.2576 F600
G1 X-22.7776 Y-12.5382 F600
G1 X-22.6235 Y-12.8177 F600
G1 X-22.4619 Y-13.0940 F600
G1 X-22.3020 Y-13.3677 F600
G1 X-22.1367 Y-13.6372 F600
G1 X-21.9681 Y-13.9121 F600
G1 X-21.7909 Y-14.1827 F600
G1 X-21.6183 Y-14.4463 F600
G1 X-21.4416 Y-14.7057 F600
G1 X-21.2604 Y-14.9715 F600
G1 X-21.0718 Y-15.2319 F600
G1 X-20.8850 Y-15.4898 F600
G1 X-20.6908 Y-15.7445 F600
G1 X-20.4998 Y-15.9950 F600
G1 X-20.4576 Y-16.0484 F600
G1 X-20.7703 Y-15.6529 F600
G1 X-20.7475 Y-15.1394 F600
G1 X-20.7525 Y-15.2521 F600
G1 X-20.7404 Y-15.5158 F600
G1 X-20.7279 Y-15.7887 F600
G1 X-20.6875 Y-16.0588 F600
G1 X-20.6477 Y-16.3254 F600
G1 X-20.5818 Y-16.5876 F600
G1 X-20.5161 Y-16.8488 F600
G1 X-20.4258 Y-17.1020 F600
G1 X-20.3345 Y-17.3580 F600
G1 X-20.2181 Y-17.6031 F600
G1 X-20.1025 Y-17.8467 F600
G1 X-19.9636 Y-18.0779 F600
G1 X-19.8254 Y-18.3077 F600
G1 X-19.6655 Y-18.5237 F600
G1 X-19.5033 Y-18.7426 F600
G1 X-19.3202 Y-18.9438 F600
G1 X-19.1408 Y-19.1408 F600
G1 X-18.9438 Y-19.3202 F600
G1 X-18.7426 Y-19.5033 F600
G1 X-18.5237 Y-19.6655 F600
G1 X-18.3077 Y-19.8254 F600
G1 X-18.0779 Y-19.9636 F600
G1 X-17.8467 Y-20.1025 F600
G1 X-17.6031 Y-20.2181 F600
G1 X-17.3580 Y-20.3345 F600
G1 X-17.1020 Y-20.4258 F600
G1 X-16.8488 Y-20.5161 F600
G1 X-16.5876 Y-20.5818 F600
G1 X-16.3254 Y-20.6477 F600
G1 X-16.0588 Y-20.6875 F600
G1 X-15.7887 Y-20.7279 F600
G1 X-15.5158 Y-20.7404 F600
G1 X-15.2521 Y-20.7525 F600
G1 X-15.1394 Y-20.7475 F600
G1 X-15.6529 Y-20.7703 F600
G1 X-16.0484 Y-20.4576 F600
G1 X-15.9950 Y-20.4998 F600
G1 X-15.7445 Y-20.6908 F600
G1 X-15.4898 Y-20.8850 F600
G1 X-15.2319 Y-21.0718 F600
G1 X-14.9715 Y-21.2604 F600
G1 X-14.7057 Y-21.4416 F600
G1 X-14.4463 Y-21.6183 F600
G1 X-14.1827 Y-21.7909 F600
G1 X-13.9121 Y-21.9681 F600
G1 X-13.6372 Y-22.1367 F600
G1 X-13.3677 Y-22.3020 F600
G1 X-13.0940 Y-22.4619 F600
G1 X-12.8177 Y-22.6235 F600
G1 X-12.5382 Y-22.7776 F600
G1 X-12.2576 Y-22.9323 F600
G1 X-11.9727 Y-23.0795 F600
G1 X-11.6909 Y-23.2252 F600
G1 X-11.4058 Y-23.3646 F600
G1 X-11.1178 Y-23.5054 F600
G1 X-10.8256 Y-23.6387 F600
G1 X-10.5373 Y-23.7702 F600
G1 X-10.2469 Y-23.8954 F600
G1 X-9.9513 Y-24.0229 F600
G1 X-9.6525 Y-24.1417 F600
G1 X-9.3580 Y-24.2589 F600
G1 X-9.0604 Y-24.3697 F600
G1 X-8.7614 Y-24.4810 F600
G1 X-8.4603 Y-24.5850 F600
G1 X-8.1584 Y-24.6891 F600
G1 X-7.8534 Y-24.7858 F600
G1 X-7.5468 Y-24.8831 F600
G1 X-7.2381 Y-24.9717 F600
G1 X-6.9350 Y-25.0588 F600
G1 X-6.6578 Y-25.1325 F600
G1 X-7.1574 Y-24.9996 F600
G1 X-7.3751 Y-24.3881 F600
G1 X-7.3025 Y-24.5920 F600
G1 X-7.1347 Y-24.9450 F600
G1 X-6.9689 Y-25.2938 F600
G1 X-6.7711 Y-25.6243 F600
G1 X-6.5726 Y-25.9559 F600
G1 X-6.3423 Y-26.2676 F600
G1 X-6.1100 Y-26.5819 F600
G1 X-5.8477 Y-26.8702 F600
G1 X-5.5878 Y-27.1560 F600
G1 X-5.3009 Y-27.4159 F600
G1 X-5.0136 Y-27.6760 F600
G1 X-4.7029 Y-27.9066 F600
G1 X-4.3918 Y-28.1374 F600
G1 X-4.0587 Y-28.3372 F600
G1 X-3.7255 Y-28.5372 F600
G1 X-3.3759 Y-28.7027 F600
G1 X-3.0262 Y-28.8683 F600
G1 X-2.6607 Y-28.9992 F600
G1 X-2.2943 Y-29.1304 F600
G1 X-1.9167 Y-29.2245 F600
G1 X-1.5411 Y-29.3181 F600
G1 X-1.1592 Y-29.3748 F600
G1 X-0.7752 Y-29.4317 F600
G1 X-0.3866 Y-29.4503 F600
G1 X-0.0009 Y-29.4687 F600
G1 X0.3838 Y-29.4503 F600
G1 X0.7710 Y-29.4317 F600
G1 X1.1555 Y-29.3749 F600
G1 X1.5388 Y-29.3182 F600
G1 X1.9147 Y-29.2245 F600
G1 X2.2931 Y-29.1302 F600
G1 X2.6592 Y-28.9986 F600
G1 X3.0220 Y-28.8683 F600
G1 X3.3711 Y-28.7036 F600
G1 X3.7227 Y-28.5377 F600
G1 X4.0567 Y-28.3372 F600
G1 X4.3898 Y-28.1374 F600
G1 X4.7009 Y-27.9066 F600
G1 X5.0116 Y-27.6760 F600
G1 X5.2989 Y-27.4159 F600
G1 X5.5858 Y-27.1560 F600
G1 X5.8457 Y-26.8702 F600
G1 X6.1093 Y-26.5804 F600
G1 X6.3415 Y-26.2645 F600
G1 X6.5684 Y-25.9559 F600
G1 X6.7660 Y-25.6279 F600
G1 X6.9672 Y-25.2938 F600
G1 X7.1336 Y-24.9411 F600
G1 X7.2971 Y-24.5946 F600
G1 X7.3687 Y-24.3976 F600
G1 X7.1492 Y-25.0012 F600
G1 X6.6558 Y-25.1325 F600
G1 X6.9330 Y-25.0588 F600
G1 X7.2361 Y-24.9717 F600
G1 X7.5448 Y-24.8831 F600
G1 X7.8514 Y-24.7858 F600
G1 X8.1564 Y-24.6891 F600
G1 X8.4583 Y-24.5850 F600
G1 X8.7594 Y-24.4810 F600
G1 X9.0584 Y-24.3697 F600
G1 X9.3560 Y-24.2589 F600
G1 X9.6505 Y-24.1417 F600
G1 X9.9493 Y-24.0229 F600
G1 X10.2449 Y-23.8954 F600
G1 X10.5363 Y-23.7698 F600
G1 X10.8245 Y-23.6378 F600
G1 X11.1137 Y-23.5054 F600
G1 X11.4009 Y-23.3655 F600
G1 X11.6879 Y-23.2257 F600
G1 X11.9707 Y-23.0795 F600
G1 X12.2556 Y-22.9323 F600
G1 X12.5362 Y-22.7776 F600
G1 X12.8157 Y-22.6235 F600
G1 X13.0920 Y-22.4619 F600
G1 X13.3668 Y-22.3013 F600
G1 X13.6364 Y-22.1353 F600
G1 X13.9080 Y-21.9681 F600
G1 X14.1774 Y-21.7924 F600
G1 X14.4443 Y-21.6183 F600
G1 X14.7050 Y-21.4400 F600
G1 X14.9674 Y-21.2604 F600
G1 X15.2265 Y-21.0735 F600
G1 X15.4867 Y-20.8859 F600
G1 X15.7425 Y-20.6908 F600
G1 X15.9999 Y-20.4946 F600
G1 X16.0588 Y-20.4469 F600
G1 X15.6593 Y-20.7703 F600
G1 X15.1378 Y-20.7476 F600
G1 X15.2508 Y-20.7525 F600
G1 X15.5138 Y-20.7404 F600
G1 X15.7867 Y-20.7279 F600
G1 X16.0568 Y-20.6875 F600
G1 X16.3234 Y-20.6477 F600
G1 X16.5856 Y-20.5818 F600
G1 X16.8481 Y-20.5158 F600
G1 X17.1014 Y-20.4249 F600
G1 X17.3536 Y-20.3345 F600
G1 X17.5972 Y-20.2195 F600
G1 X17.8433 Y-20.1034 F600
G1 X18.0759 Y-19.9636 F600
G1 X18.3057 Y-19.8254 F600
G1 X18.5217 Y-19.6655 F600
G1 X18.7406 Y-19.5033 F600
G1 X18.9418 Y-19.3202 F600
G1 X19.1388 Y-19.1408 F600
G1 X19.3182 Y-18.9438 F600
G1 X19.5013 Y-18.7426 F600
G1 X19.6635 Y-18.5237 F600
G1 X19.8234 Y-18.3077 F600
G1 X19.9616 Y-18.0779 F600
G1 X20.1005 Y-17.8467 F600
G1 X20.2161 Y-17.6031 F600
G1 X20.3325 Y-17.3580 F600
G1 X20.4238 Y-17.1020 F600
G1 X20.5154 Y-16.8453 F600
G1 X20.5805 Y-16.5804 F600
G1 X20.6442 Y-16.3217 F600
G1 X20.6835 Y-16.0588 F600
G1 X20.7233 Y-15.7925 F600
G1 X20.7371 Y-15.5234 F600
G1 X20.7507 Y-15.2559 F600
G1 X20.7455 Y-15.1394 F600
G1 X20.7683 Y-15.6529 F600
G1 X20.4556 Y-16.0484 F600
G1 X20.4990 Y-15.9935 F600
G1 X20.6902 Y-15.7414 F600
G1 X20.8822 Y-15.4882 F600
G1 X21.0678 Y-15.2319 F600
G1 X21.2552 Y-14.9731 F600
G1 X21.4362 Y-14.7091 F600
G1 X21.6152 Y-14.4480 F600
G1 X21.7889 Y-14.1827 F600
G1 X21.9661 Y-13.9121 F600
G1 X22.1347 Y-13.6372 F600
G1 X22.3000 Y-13.3677 F600
G1 X22.4599 Y-13.0940 F600
G1 X22.6226 Y-12.8159 F600
G1 X22.7767 Y-12.5344 F600
G1 X22.9282 Y-12.2576 F600
G1 X23.0745 Y-11.9767 F600
G1 X23.2223 Y-11.6928 F600
G1 X23.3626 Y-11.4058 F600
G1 X23.5034 Y-11.1178 F600
G1 X23.6367 Y-10.8256 F600
G1 X23.7692 Y-10.5352 F600
G1 X23.8942 Y-10.2427 F600
G1 X24.0188 Y-9.9513 F600
G1 X24.1370 Y-9.6568 F600
G1 X24.2561 Y-9.3602 F600
G1 X24.3677 Y-9.0604 F600
G1 X24.4799 Y-8.7592 F600
G1 X24.5835 Y-8.4558 F600
G1 X24.6851 Y-8.1584 F600
G1 X24.7814 Y-7.8579 F600
G1 X24.8804 Y-7.5491 F600
G1 X24.9697 Y-7.2381 F600
G1 X25.0568 Y-6.9350 F600
G1 X25.1305 Y-6.6578 F600
G1 X24.9976 Y-7.1574 F600
G1 X24.3861 Y-7.3751 F600
G1 X24.5900 Y-7.3025 F600
G1 X24.9430 Y-7.1347 F600
G1 X25.2918 Y-6.9689 F600
G1 X25.6223 Y-6.7711 F600
G1 X25.9551 Y-6.5719 F600
G1 X26.2669 Y-6.3406 F600
G1 X26.5776 Y-6.1100 F600
G1 X26.8649 Y-5.8499 F600
G1 X27.1530 Y-5.5890 F600
G1 X27.4139 Y-5.3009 F600
G1 X27.6740 Y-5.0136 F600
G1 X27.9046 Y-4.7029 F600
G1 X28.1366 Y-4.3902 F600
G1 X28.3363 Y-4.0552 F600
G1 X28.5340 Y-3.7237 F600
G1 X28.6987 Y-3.3759 F600
G1 X28.8633 Y-3.0282 F600
G1 X28.9947 Y-2.6649 F600
G1 X29.1279 Y-2.2965 F600
G1 X29.2225 Y-1.9167 F600
G1 X29.3161 Y-1.5411 F600
G1 X29.3728 Y-1.1592 F600
G1 X29.4297 Y-0.7752 F600
G1 X29.4483 Y-0.3866 F600
G1 X29.4667 Y-0.0009 F600
G1 X29.4483 Y0.3838 F600
G1 X29.4297 Y0.7710 F600
G1 X29.3729 Y1.1555 F600
G1 X29.3162 Y1.5388 F600
G1 X29.2225 Y1.9147 F600
G1 X29.1277 Y2.2952 F600
G1 X28.9941 Y2.6635 F600
G1 X28.8633 Y3.0240 F600
G1 X28.6996 Y3.3711 F600
G1 X28.5346 Y3.7208 F600
G1 X28.3363 Y4.0532 F600
G1 X28.1366 Y4.3882 F600
G1 X27.9046 Y4.7009 F600
G1 X27.6740 Y5.0116 F600
G1 X27.4139 Y5.2989 F600
G1 X27.1530 Y5.5870 F600
G1 X26.8649 Y5.8479 F600
G1 X26.5762 Y6.1093 F600
G1 X26.2638 Y6.3399 F600
G1 X25.9551 Y6.5677 F600
G1 X25.6259 Y6.7660 F600
G1 X25.2918 Y6.9672 F600
G1 X24.9391 Y7.1336 F600
G1 X24.5926 Y7.2971 F600
G1 X24.3956 Y7.3687 F600
G1 X24.9992 Y7.1492 F600
G1 X25.1305 Y6.6558 F600
G1 X25.0568 Y6.9330 F600
G1 X24.9697 Y7.2361 F600
G1 X24.8804 Y7.5471 F600
G1 X24.7814 Y7.8559 F600
G1 X24.6851 Y8.1564 F600
G1 X24.5835 Y8.4538 F600
G1 X24.4799 Y8.7572 F600
G1 X24.3677 Y9.0584 F600
G1 X24.2561 Y9.3582 F600
G1 X24.1370 Y9.6548 F600
G1 X24.0188 Y9.9493 F600
G1 X23.8942 Y10.2407 F600
G1 X23.7688 Y10.5342 F600
G1 X23.6358 Y10.8245 F600
G1 X23.5034 Y11.1137 F600
G1 X23.3635 Y11.4009 F600
G1 X23.2228 Y11.6899 F600
G1 X23.0745 Y11.9747 F600
G1 X22.9282 Y12.2556 F600
G1 X22.7767 Y12.5324 F600
G1 X22.6226 Y12.8139 F600
G1 X22.4599 Y13.0920 F600
G1 X22.2993 Y13.3668 F600
G1 X22.1333 Y13.6364 F600
G1 X21.9661 Y13.9080 F600
G1 X21.7904 Y14.1774 F600
G1 X21.6152 Y14.4460 F600
G1 X21.4346 Y14.7084 F600
G1 X21.2552 Y14.9691 F600
G1 X21.0695 Y15.2265 F600
G1 X20.8830 Y15.4851 F600
G1 X20.6902 Y15.7394 F600
G1 X20.4938 Y15.9983 F600
G1 X20.4449 Y16.0588 F600
G1 X20.7683 Y15.6593 F600
G1 X20.7456 Y15.1378 F600
G1 X20.7507 Y15.2547 F600
G1 X20.7371 Y15.5214 F600
G1 X20.7233 Y15.7905 F600
G1 X20.6835 Y16.0568 F600
G1 X20.6442 Y16.3197 F600
G1 X20.5805 Y16.5784 F600
G1 X20.5151 Y16.8446 F600
G1 X20.4229 Y17.1014 F600
G1 X20.3325 Y17.3536 F600
G1 X20.2175 Y17.5972 F600
G1 X20.1014 Y17.8433 F600
G1 X19.9616 Y18.0759 F600
G1 X19.8234 Y18.3057 F600
G1 X19.6635 Y18.5217 F600
G1 X19.5013 Y18.7406 F600
G1 X19.3182 Y18.9418 F600
G1 X19.1388 Y19.1388 F600
G1 X18.9418 Y19.3182 F600
G1 X18.7406 Y19.5013 F600
G1 X18.5217 Y19.6635 F600
G1 X18.3057 Y19.8234 F600
G1 X18.0759 Y19.9616 F600
G1 X17.8433 Y20.1014 F600
G1 X17.5972 Y20.2175 F600
G1 X17.3536 Y20.3325 F600
G1 X17.1014 Y20.4229 F600
G1 X16.8446 Y20.5151 F600
G1 X16.5784 Y20.5805 F600
G1 X16.3197 Y20.6442 F600
G1 X16.0568 Y20.6835 F600
G1 X15.7905 Y20.7233 F600
G1 X15.5214 Y20.7371 F600
G1 X15.2547 Y20.7507 F600
G1 X15.1378 Y20.7456 F600
G1 X15.6593 Y20.7683 F600
G1 X16.0588 Y20.4449 F600
G1 X15.9983 Y20.4938 F600
G1 X15.7394 Y20.6902 F600
G1 X15.4851 Y20.8830 F600
G1 X15.2265 Y21.0695 F600
G1 X14.9691 Y21.2552 F600
G1 X14.7084 Y21.4346 F600
G1 X14.4460 Y21.6152 F600
G1 X14.1774 Y21.7904 F600
G1 X13.9080 Y21.9661 F600
G1 X13.6364 Y22.1333 F600
G1 X13.3668 Y22.2993 F600
G1 X13.0920 Y22.4599 F600
G1 X12.8139 Y22.6226 F600
G1 X12.5324 Y22.7767 F600
G1 X12.2556 Y22.9282 F600
G1 X11.9747 Y23.0745 F600
G1 X11.6899 Y23.2228 F600
G1 X11.4009 Y23.3635 F600
G1 X11.1137 Y23.5034 F600
G1 X10.8245 Y23.6358 F600
G1 X10.5342 Y23.7688 F600
G1 X10.2407 Y23.8942 F600
G1 X9.9493 Y24.0188 F600
G1 X9.6548 Y24.1370 F600
G1 X9.3582 Y24.2561 F600
G1 X9.0584 Y24.3677 F600
G1 X8.7572 Y24.4799 F600
G1 X8.4538 Y24.5835 F600
G1 X8.1564 Y24.6851 F600
G1 X7.8559 Y24.7814 F600
G1 X7.5471 Y24.8804 F600
G1 X7.2361 Y24.9697 F600
G1 X6.9330 Y25.0568 F600
G1 X6.6558 Y25.1305 F600
G1 X7.1492 Y24.9992 F600
G1 X7.3687 Y24.3956 F600
G1 X7.2971 Y24.5926 F600
G1 X7.1336 Y24.9391 F600
G1 X6.9672 Y25.2918 F600
G1 X6.7660 Y25.6259 F600
G1 X6.5677 Y25.9551 F600
G1 X6.3399 Y26.2638 F600
G1 X6.1093 Y26.5762 F600
G1 X5.8479 Y26.8649 F600
G1 X5.5870 Y27.1530 F600
G1 X5.2989 Y27.4139 F600
G1 X5.0116 Y27.6740 F600
G1 X4.7009 Y27.9046 F600
G1 X4.3882 Y28.1366 F600
G1 X4.0532 Y28.3363 F600
G1 X3.7208 Y28.5346 F600
G1 X3.3711 Y28.6996 F600
G1 X3.0240 Y28.8633 F600
G1 X2.6635 Y28.9941 F600
G1 X2.2952 Y29.1277 F600
G1 X1.9147 Y29.2225 F600
G1 X1.5388 Y29.3162 F600
G1 X1.1555 Y29.3729 F600
G1 X0.7710 Y29.4297 F600
G1 X0.3838 Y29.4483 F600
G1 X-0.0009 Y29.4667 F600
G1 X-0.3866 Y29.4483 F600
G1 X-0.7752 Y29.4297 F600
G1 X-1.1592 Y29.3728 F600
G1 X-1.5411 Y29.3161 F600
G1 X-1.9167 Y29.2225 F600
G1 X-2.2965 Y29.1279 F600
G1 X-2.6649 Y28.9947 F600
G1 X-3.0282 Y28.8633 F600
G1 X-3.3759 Y28.6987 F600
G1 X-3.7237 Y28.5340 F600
G1 X-4.0552 Y28.3363 F600
G1 X-4.3902 Y28.1366 F600
G1 X-4.7029 Y27.9046 F600
G1 X-5.0136 Y27.6740 F600
G1 X-5.3009 Y27.4139 F600
G1 X-5.5890 Y27.1530 F600
G1 X-5.8499 Y26.8649 F600
G1 X-6.1100 Y26.5776 F600
G1 X-6.3406 Y26.2669 F600
G1 X-6.5719 Y25.9551 F600
G1 X-6.7711 Y25.6223 F600
G1 X-6.9689 Y25.2918 F600
G1 X-7.1347 Y24.9430 F600
G1 X-7.3025 Y24.5900 F600
G1 X-7.3751 Y24.3861 F600
G1 X-7.1574 Y24.9976 F600
G1 X-6.6578 Y25.1305 F600
G1 X-6.9350 Y25.0568 F600
G1 X-7.2381 Y24.9697 F600
G1 X-7.5491 Y24.8804 F600
G1 X-7.8579 Y24.7814 F600
G1 X-8.1584 Y24.6851 F600
G1 X-8.4558 Y24.5835 F600
G1 X-8.7592 Y24.4799 F600
G1 X-9.0604 Y24.3677 F600
G1 X-9.3602 Y24.2561 F600
G1 X-9.6568 Y24.1370 F600
G1 X-9.9513 Y24.0188 F600
G1 X-10.2427 Y23.8942 F600
G1 X-10.5352 Y23.7692 F600
G1 X-10.8256 Y23.6367 F600
G1 X-11.1178 Y23.5034 F600
G1 X-11.4058 Y23.3626 F600
G1 X-11.6928 Y23.2223 F600
G1 X-11.9767 Y23.0745 F600
G1 X-12.2576 Y22.9282 F600
G1 X-12.5344 Y22.7767 F600
G1 X-12.8159 Y22.6226 F600
G1 X-13.0940 Y22.4599 F600
G1 X-13.3677 Y22.3000 F600
G1 X-13.6372 Y22.1347 F600
G1 X-13.9121 Y21.9661 F600
G1 X-14.1827 Y21.7889 F600
G1 X-14.4480 Y21.6152 F600
G1 X-14.7091 Y21.4362 F600
G1 X-14.9731 Y21.2552 F600
G1 X-15.2319 Y21.0678 F600
G1 X-15.4882 Y20.8822 F600
G1 X-15.7414 Y20.6902 F600
G1 X-15.9935 Y20.4990 F600
G1 X-16.0484 Y20.4556 F600
G1 Z-2.5000 F120
G1 X-15.6529 Y20.7683 F600
G1 X-15.1394 Y20.7455 F600
G1 X-15.2559 Y20.7507 F600
G1 X-15.5234 Y20.7371 F600
G1 X-15.7925 Y20.7233 F600
G1 X-16.0588 Y20.6835 F600
G1 X-16.3217 Y20.6442 F600
G1 X-16.5804 Y20.5805 F600
G1 X-16.8453 Y20.5154 F600
G1 X-17.1020 Y20.4238 F600
G1 X-17.3580 Y20.3325 F600
G1 X-17.6031 Y20.2161 F600
G1 X-17.8467 Y20.1005 F600
G1 X-18.0779 Y19.9616 F600
G1 X-18.3077 Y19.8234 F600
G1 X-18.5237 Y19.6635 F600
G1 X-18.7426 Y19.5013 F600
G1 X-18.9438 Y19.3182 F600
G1 X-19.1408 Y19.1388 F600
G1 X-19.3202 Y18.9418 F600
G1 X-19.5033 Y18.7406 F600
G1 X-19.6655 Y18.5217 F600
G1 X-19.8254 Y18.3057 F600
G1 X-19.9636 Y18.0759 F600
G1 X-20.1034 Y17.8433 F600
G1 X-20.2195 Y17.5972 F600
G1 X-20.3345 Y17.3536 F600
G1 X-20.4249 Y17.1014 F600
G1 X-20.5158 Y16.8481 F600
G1 X-20.5818 Y16.5856 F600
G1 X-20.6477 Y16.3234 F600
G1 X-20.6875 Y16.0568 F600
G1 X-20.7279 Y15.7867 F600
G1 X-20.7404 Y15.5138 F600
G1 X-20.7525 Y15.2508 F600
G1 X-20.7476 Y15.1378 F600
G1 X-20.7703 Y15.6593 F600
G1 X-20.4469 Y16.0588 F600
G1 X-20.4946 Y15.9999 F600
G1 X-20.6908 Y15.7425 F600
G1 X-20.8859 Y15.4867 F600
G1 X-21.0735 Y15.2265 F600
G1 X-21.2604 Y14.9674 F600
G1 X-21.4400 Y14.7050 F600
G1 X-21.6183 Y14.4443 F600
G1 X-21.7924 Y14.1774 F600
G1 X-21.9681 Y13.9080 F600
G1 X-22.1353 Y13.6364 F600
G1 X-22.3013 Y13.3668 F600
G1 X-22.4619 Y13.0920 F600
G1 X-22.6235 Y12.8157 F600
G1 X-22.7776 Y12.5362 F600
G1 X-22.9323 Y12.2556 F600
G1 X-23.0795 Y11.9707 F600
G1 X-23.2257 Y11.6879 F600
G1 X-23.3655 Y11.4009 F600
G1 X-23.5054 Y11.1137 F600
G1 X-23.6378 Y10.8245 F600
G1 X-23.7698 Y10.5363 F600
G1 X-23.8954 Y10.2449 F600
G1 X-24.0229 Y9.9493 F600
G1 X-24.1417 Y9.6505 F600
G1 X-24.2589 Y9.3560 F600
G1 X-24.3697 Y9.0584 F600
G1 X-24.4810 Y8.7594 F600
G1 X-24.5850 Y8.4583 F600
G1 X-24.6891 Y8.1564 F600
G1 X-24.7858 Y7.8514 F600
G1 X-24.8831 Y7.5448 F600
G1 X-24.9717 Y7.2361 F600
G1 X-25.0588 Y6.9330 F600
G1 X-25.1325 Y6.6558 F600
G1 X-25.0012 Y7.1492 F600
G1 X-24.3976 Y7.3687 F600
G1 X-24.5946 Y7.2971 F600
G1 X-24.9411 Y7.1336 F600
G1 X-25.2938 Y6.9672 F600
G1 X-25.6279 Y6.7660 F600
G1 X-25.9559 Y6.5684 F600
G1 X-26.2645 Y6.3415 F600
G1 X-26.5804 Y6.1093 F600
G1 X-26.8702 Y5.8457 F600
G1 X-27.1560 Y5.5858 F600
G1 X-27.4159 Y5.2989 F600
G1 X-27.6760 Y5.0116 F600
G1 X-27.9066 Y4.7009 F600
G1 X-28.1374 Y4.3898 F600
G1 X-28.3372 Y4.0567 F600
G1 X-28.5377 Y3.7227 F600
G1 X-28.7036 Y3.3711 F600
G1 X-28.8683 Y3.0220 F600
G1 X-28.9986 Y2.6592 F600
G1 X-29.1302 Y2.2931 F600
G1 X-29.2245 Y1.9147 F600
G1 X-29.3182 Y1.5388 F600
G1 X-29.3749 Y1.1555 F600
G1 X-29.4317 Y0.7710 F600
G1 X-29.4503 Y0.3838 F600
G1 X-29.4687 Y-0.0009 F600
G1 X-29.4503 Y-0.3866 F600
G1 X-29.4317 Y-0.7752 F600
G1 X-29.3748 Y-1.1592 F600
G1 X-29.3181 Y-1.5411 F600
G1 X-29.2245 Y-1.9167 F600
G1 X-29.1304 Y-2.2943 F600
G1 X-28.9992 Y-2.6607 F600
G1 X-28.8683 Y-3.0262 F600
G1 X-28.7027 Y-3.3759 F600
G1 X-28.5372 Y-3.7255 F600
G1 X-28.3372 Y-4.0587 F600
G1 X-28.1374 Y-4.3918 F600
G1 X-27.9066 Y-4.7029 F600
G1 X-27.6760 Y-5.0136 F600
G1 X-27.4159 Y-5.3009 F600
G1 X-27.1560 Y-5.5878 F600
G1 X-26.8702 Y-5.8477 F600
G1 X-26.5819 Y-6.1100 F600
G1 X-26.2676 Y-6.3423 F600
G1 X-25.9559 Y-6.5726 F600
G1 X-25.6243 Y-6.7711 F600
G1 X-25.2938 Y-6.9689 F600
G1 X-24.9450 Y-7.1347 F600
G1 X-24.5920 Y-7.3025 F600
G1 X-24.3881 Y-7.3751 F600
G1 X-24.9996 Y-7.1574 F600
G1 X-25.1325 Y-6.6578 F600
G1 X-25.0588 Y-6.9350 F600
G1 X-24.9717 Y-7.2381 F600
G1 X-24.8831 Y-7.5468 F600
G1 X-24.7858 Y-7.8534 F600
G1 X-24.6891 Y-8.1584 F600
G1 X-24.5850 Y-8.4603 F600
G1 X-24.4810 Y-8.7614 F600
G1 X-24.3697 Y-9.0604 F600
G1 X-24.2589 Y-9.3580 F600
G1 X-24.1417 Y-9.6525 F600
G1 X-24.0229 Y-9.9513 F600
G1 X-23.8954 Y-10.2469 F600
G1 X-23.7702 Y-10.5373 F600
G1 X-23.6387 Y-10.8256 F600
G1 X-23.5054 Y-11.1178 F600
G1 X-23.3646 Y-11.4058 F600
G1 X-23.2252 Y-11.6909 F600
G1 X-23.0795 Y-11.9727 F600
G1 X-22.9323 Y-12.2576 F600
G1 X-22.7776 Y-12.5382 F600
G1 X-22.6235 Y-12.8177 F600
G1 X-22.4619 Y-13.0940 F600
G1 X-22.3020 Y-13.3677 F600
G1 X-22.1367 Y-13.6372 F600
G1 X-21.9681 Y-13.9121 F600
G1 X-21.7909 Y-14.1827 F600
G1 X-21.6183 Y-14.4463 F600
G1 X-21.4416 Y-14.7057 F600
G1 X-21.2604 Y-14.9715 F600
G1 X-21.0718 Y-15.2319 F600
G1 X-20.8850 Y-15.4898 F600
G1 X-20.6908 Y-15.7445 F600
G1 X-20.4998 Y-15.9950 F600
G1 X-20.4576 Y-16.0484 F600
G1 X-20.7703 Y-15.6529 F600
G1 X-20.7475 Y-15.1394 F600
G1 X-20.7525 Y-15.2521 F600
G1 X-20.7404 Y-15.5158 F600
G1 X-20.7279 Y-15.7887 F600
G1 X-20.6875 Y-16.0588 F600
G1 X-20.6477 Y-16.3254 F600
G1 X-20.5818 Y-16.5876 F600
G1 X-20.5161 Y-16.8488 F600
G1 X-20.4258 Y-17.1020 F600
G1 X-20.3345 Y-17.3580 F600
G1 X-20.2181 Y-17.6031 F600
G1 X-20.1025 Y-17.8467 F600
G1 X-19.9636 Y-18.0779 F600
G1 X-19.8254 Y-18.3077 F600
G1 X-19.6655 Y-18.5237 F600
G1 X-19.5033 Y-18.7426 F600
G1 X-19.3202 Y-18.9438 F600
G1 X-19.1408 Y-19.1408 F600
G1 X-18.9438 Y-19.3202 F600
G1 X-18.7426 Y-19.5033 F600
G1 X-18.5237 Y-19.6655 F600
G1 X-18.3077 Y-19.8254 F600
G1 X-18.0779 Y-19.9636 F600
G1 X-17.8467 Y-20.1025 F600
G1 X-17.6031 Y-20.2181 F600
G1 X-17.3580 Y-20.3345 F600
G1 X-17.1020 Y-20.4258 F600
G1 X-16.8488 Y-20.5161 F600
G1 X-16.5876 Y-20.5818 F600
G1 X-16.3254 Y-20.6477 F600
G1 X-16.0588 Y-20.6875 F600
G1 X-15.7887 Y-20.7279 F600
G1 X-15.5158 Y-20.7404 F600
G1 X-15.2521 Y-20.7525 F600
G1 X-15.1394 Y-20.7475 F600
G1 X-15.6529 Y-20.7703 F600
G1 X-16.0484 Y-20.4576 F600
G1 X-15.9950 Y-20.4998 F600
G1 X-15.7445 Y-20.6908 F600
G1 X-15.4898 Y-20.8850 F600
G1 X-15.2319 Y-21.0718 F600
G1 X-14.9715 Y-21.2604 F600
G1 X-14.7057 Y-21.4416 F600
G1 X-14.4463 Y-21.6183 F600
G1 X-14.1827 Y-21.7909 F600
G1 X-13.9121 Y-21.9681 F600
G1 X-13.6372 Y-22.1367 F600
G1 X-13.3677 Y-22.3020 F600
G1 X-13.0940 Y-22.4619 F600
G1 X-12.8177 Y-22.6235 F600
G1 X-12.5382 Y-22.7776 F600
G1 X-12.2576 Y-22.9323 F600
G1 X-11.9727 Y-23.0795 F600
G1 X-11.6909 Y-23.2252 F600
G1 X-11.4058 Y-23.3646 F600
G1 X-11.1178 Y-23.5054 F600
G1 X-10.8256 Y-23.6387 F600
G1 X-10.5373 Y-23.7702 F600
G1 X-10.2469 Y-23.8954 F600
G1 X-9.9513 Y-24.0229 F600
G1 X-9.6525 Y-24.1417 F600
G1 X-9.3580 Y-24.2589 F600
G1 X-9.0604 Y-24.3697 F600
G1 X-8.7614 Y-24.4810 F600
G1 X-8.4603 Y-24.5850 F600
G1 X-8.1584 Y-24.6891 F600
G1 X-7.8534 Y-24.7858 F600
G1 X-7.5468 Y-24.8831 F600
G1 X-7.2381 Y-24.9717 F600
G1 X-6.9350 Y-25.0588 F600
G1 X-6.6578 Y-25.1325 F600
G1 X-7.1574 Y-24.9996 F600
G1 X-7.3751 Y-24.3881 F600
G1 X-7.3025 Y-24.5920 F600
G1 X-7.1347 Y-24.9450 F600
G1 X-6.9689 Y-25.2938 F600
G1 X-6.7711 Y-25.6243 F600
G1 X-6.5726 Y-25.9559 F600
G1 X-6.3423 Y-26.2676 F600
G1 X-6.1100 Y-26.5819 F600
G1 X-5.8477 Y-26.8702 F600
G1 X-5.5878 Y-27.1560 F600
G1 X-5.3009 Y-27.4159 F600
G1 X-5.0136 Y-27.6760 F600
G1 X-4.7029 Y-27.9066 F600
G1 X-4.3918 Y-28.1374 F600
G1 X-4.0587 Y-28.3372 F600
G1 X-3.7255 Y-28.5372 F600
G1 X-3.3759 Y-28.7027 F600
G1 X-3.0262 Y-28.8683 F600
G1 X-2.6607 Y-28.9992 F600
G1 X-2.2943 Y-29.1304 F600
G1 X-1.9167 Y-29.2245 F600
G1 X-1.5411 Y-29.3181 F600
G1 X-1.1592 Y-29.3748 F600
G1 X-0.7752 Y-29.4317 F600
G1 X-0.3866 Y-29.4503 F600
G1 X-0.0009 Y-29.4687 F600
G1 X0.3838 Y-29.4503 F600
G1 X0.7710 Y-29.4317 F600
G1 X1.1555 Y-29.3749 F600
G1 X1.5388 Y-29.3182 F600
G1 X1.9147 Y-29.2245 F600
G1 X2.2931 Y-29.1302 F600
G1 X2.6592 Y-28.9986 F600
G1 X3.0220 Y-28.8683 F600
G1 X3.3711 Y-28.7036 F600
G1 X3.7227 Y-28.5377 F600
G1 X4.0567 Y-28.3372 F600
G1 X4.3898 Y-28.1374 F600
G1 X4.7009 Y-27.9066 F600
G1 X5.0116 Y-27.6760 F600
G1 X5.2989 Y-27.4159 F600
G1 X5.5858 Y-27.1560 F600
G1 X5.8457 Y-26.8702 F600
G1 X6.1093 Y-26.5804 F600
G1 X6.3415 Y-26.2645 F600
G1 X6.5684 Y-25.9559 F600
G1 X6.7660 Y-25.6279 F600
G1 X6.9672 Y-25.2938 F600
G1 X7.1336 Y-24.9411 F600
G1 X7.2971 Y-24.5946 F600
G1 X7.3687 Y-24.3976 F600
G1 X7.1492 Y-25.0012 F600
G1 X6.6558 Y-25.1325 F600
G1 X6.9330 Y-25.0588 F600
G1 X7.2361 Y-24.9717 F600
G1 X7.5448 Y-24.8831 F600
G1 X7.8514 Y-24.7858 F600
G1 X8.1564 Y-24.6891 F600
G1 X8.4583 Y-24.5850 F600
G1 X8.7594 Y-24.4810 F600
G1 X9.0584 Y-24.3697 F600
G1 X9.3560 Y-24.2589 F600
G1 X9.6505 Y-24.1417 F600
G1 X9.9493 Y-24.0229 F600
G1 X10.2449 Y-23.8954 F600
G1 X10.5363 Y-23.7698 F600
G1 X10.8245 Y-23.6378 F600
G1 X11.1137 Y-23.5054 F600
G1 X11.4009 Y-23.3655 F600
G1 X11.6879 Y-23.2257 F600
G1 X11.9707 Y-23.0795 F600
G1 X12.2556 Y-22.9323 F600
G1 X12.5362 Y-22.7776 F600
G1 X12.8157 Y-22.6235 F600
G1 X13.0920 Y-22.4619 F600
G1 X13.3668 Y-22.3013 F600
G1 X13.6364 Y-22.1353 F600
G1 X13.9080 Y-21.9681 F600
G1 X14.1774 Y-21.7924 F600
G1 X14.4443 Y-21.6183 F600
G1 X14.7050 Y-21.4400 F600
G1 X14.9674 Y-21.2604 F600
G1 X15.2265 Y-21.0735 F600
G1 X15.4867 Y-20.8859 F600
G1 X15.7425 Y-20.6908 F600
G1 X15.9999 Y-20.4946 F600
G1 X16.0588 Y-20.4469 F600
G1 X15.6593 Y-20.7703 F600
G1 X15.1378 Y-20.7476 F600
G1 X15.2508 Y-20.7525 F600
G1 X15.5138 Y-20.7404 F600
G1 X15.7867 Y-20.7279 F600
G1 X16.0568 Y-20.6875 F600
G1 X16.3234 Y-20.6477 F600
G1 X16.5856 Y-20.5818 F600
G1 X16.8481 Y-20.5158 F600
G1 X17.1014 Y-20.4249 F600
G1 X17.3536 Y-20.3345 F600
G1 X17.5972 Y-20.2195 F600
G1 X17.8433 Y-20.1034 F600
G1 X18.0759 Y-19.9636 F600
G1 X18.3057 Y-19.8254 F600
G1 X18.5217 Y-19.6655 F600
G1 X18.7406 Y-19.5033 F600
G1 X18.9418 Y-19.3202 F600
G1 X19.1388 Y-19.1408 F600
G1 X19.3182 Y-18.9438 F600
G1 X19.5013 Y-18.7426 F600
G1 X19.6635 Y-18.5237 F600
G1 X19.8234 Y-18.3077 F600
G1 X19.9616 Y-18.0779 F600
G1 X20.1005 Y-17.8467 F600
G1 X20.2161 Y-17.6031 F600
G1 X20.3325 Y-17.3580 F600
G1 X20.4238 Y-17.1020 F600
G1 X20.5154 Y-16.8453 F600
G1 X20.5805 Y-16.5804 F600
G1 X20.6442 Y-16.3217 F600
G1 X20.6835 Y-16.0588 F600
G1 X20.7233 Y-15.7925 F600
G1 X20.7371 Y-15.5234 F600
G1 X20.7507 Y-15.2559 F600
G1 X20.7455 Y-15.1394 F600
G1 X20.7683 Y-15.6529 F600
G1 X20.4556 Y-16.0484 F600
G1 X20.4990 Y-15.9935 F600
G1 X20.6902 Y-15.7414 F600
G1 X20.8822 Y-15.4882 F600
G1 X21.0678 Y-15.2319 F600
G1 X21.2552 Y-14.9731 F600
G1 X21.4362 Y-14.7091 F600
G1 X21.6152 Y-14.4480 F600
G1 X21.7889 Y-14.1827 F600
G1 X21.9661 Y-13.9121 F600
G1 X22.1347 Y-13.6372 F600
G1 X22.3000 Y-13.3677 F600
G1 X22.4599 Y-13.0940 F600
G1 X22.6226 Y-12.8159 F600
G1 X22.7767 Y-12.5344 F600
G1 X22.9282 Y-12.2576 F600
G1 X23.0745 Y-11.9767 F600
G1 X23.2223 Y-11.6928 F600
G1 X23.3626 Y-11.4058 F600
G1 X23.5034 Y-11.1178 F600
G1 X23.6367 Y-10.8256 F600
G1 X23.7692 Y-10.5352 F600
G1 X23.8942 Y-10.2427 F600
G1 X24.0188 Y-9.9513 F600
G1 X24.1370 Y-9.6568 F600
G1 X24.2561 Y-9.3602 F600
G1 X24.3677 Y-9.0604 F600
G1 X24.4799 Y-8.7592 F600
G1 X24.5835 Y-8.4558 F600
G1 X24.6851 Y-8.1584 F600
G1 X24.7814 Y-7.8579 F600
G1 X24.8804 Y-7.5491 F600
G1 X24.9697 Y-7.2381 F600
G1 X25.0568 Y-6.9350 F600
G1 X25.1305 Y-6.6578 F600
G1 X24.9976 Y-7.1574 F600
G1 X24.3861 Y-7.3751 F600
G1 X24.5900 Y-7.3025 F600
G1 X24.9430 Y-7.1347 F600
G1 X25.2918 Y-6.9689 F600
G1 X25.6223 Y-6.7711 F600
G1 X25.9551 Y-6.5719 F600
G1 X26.2669 Y-6.3406 F600
G1 X26.5776 Y-6.1100 F600
G1 X26.8649 Y-5.8499 F600
G1 X27.1530 Y-5.5890 F600
G1 X27.4139 Y-5.3009 F600
G1 X27.6740 Y-5.0136 F600
G1 X27.9046 Y-4.7029 F600
G1 X28.1366 Y-4.3902 F600
G1 X28.3363 Y-4.0552 F600
G1 X28.5340 Y-3.7237 F600
G1 X28.6987 Y-3.3759 F600
G1 X28.8633 Y-3.0282 F600
G1 X28.9947 Y-2.6649 F600
G1 X29.1279 Y-2.2965 F600
G1 X29.2225 Y-1.9167 F600
G1 X29.3161 Y-1.5411 F600
G1 X29.3728 Y-1.1592 F600
G1 X29.4297 Y-0.7752 F600
G1 X29.4483 Y-0.3866 F600
G1 X29.4667 Y-0.0009 F600
G1 X29.4483 Y0.3838 F600
G1 X29.4297 Y0.7710 F600
G1 X29.3729 Y1.1555 F600
G1 X29.3162 Y1.5388 F600
G1 X29.2225 Y1.9147 F600
G1 X29.1277 Y2.2952 F600
G1 X28.9941 Y2.6635 F600
G1 X28.8633 Y3.0240 F600
G1 X28.6996 Y3.3711 F600
G1 X28.5346 Y3.7208 F600
G1 X28.3363 Y4.0532 F600
G1 X28.1366 Y4.3882 F600
G1 X27.9046 Y4.7009 F600
G1 X27.6740 Y5.0116 F600
G1 X27.4139 Y5.2989 F600
G1 X27.1530 Y5.5870 F600
G1 X26.8649 Y5.8479 F600
G1 X26.5762 Y6.1093 F600
G1 X26.2638 Y6.3399 F600
G1 X25.9551 Y6.5677 F600
G1 X25.6259 Y6.7660 F600
G1 X25.2918 Y6.9672 F600
G1 X24.9391 Y7.1336 F600
G1 X24.5926 Y7.2971 F600
G1 X24.3956 Y7.3687 F600
G1 X24.9992 Y7.1492 F600
G1 X25.1305 Y6.6558 F600
G1 X25.0568 Y6.9330 F600
G1 X24.9697 Y7.2361 F600
G1 X24.8804 Y7.5471 F600
G1 X24.7814 Y7.8559 F600
G1 X24.6851 Y8.1564 F600
G1 X24.5835 Y8.4538 F600
G1 X24.4799 Y8.7572 F600
G1 X24.3677 Y9.0584 F600
G1 X24.2561 Y9.3582 F600
G1 X24.1370 Y9.6548 F600
G1 X24.0188 Y9.9493 F600
G1 X23.8942 Y10.2407 F600
G1 X23.7688 Y10.5342 F600
G1 X23.6358 Y10.8245 F600
G1 X23.5034 Y11.1137 F600
G1 X23.3635 Y11.4009 F600
G1 X23.2228 Y11.6899 F600
G1 X23.0745 Y11.9747 F600
G1 X22.9282 Y12.2556 F600
G1 X22.7767 Y12.5324 F600
G1 X22.6226 Y12.8139 F600
G1 X22.4599 Y13.0920 F600
G1 X22.2993 Y13.3668 F600
G1 X22.1333 Y13.6364 F600
G1 X21.9661 Y13.9080 F600
G1 X21.7904 Y14.1774 F600
G1 X21.6152 Y14.4460 F600
G1 X21.4346 Y14.7084 F600
G1 X21.2552 Y14.9691 F600
G1 X21.0695 Y15.2265 F600
G1 X20.8830 Y15.4851 F600
G1 X20.6902 Y15.7394 F600
G1 X20.4938 Y15.9983 F600
G1 X20.4449 Y16.0588 F600
G1 X20.7683 Y15.6593 F600
G1 X20.7456 Y15.1378 F600
G1 X20.7507 Y15.2547 F600
G1 X20.7371 Y15.5214 F600
G1 X20.7233 Y15.7905 F600
G1 X20.6835 Y16.0568 F600
G1 X20.6442 Y16.3197 F600
G1 X20.5805 Y16.5784 F600
G1 X20.5151 Y16.8446 F600
G1 X20.4229 Y17.1014 F600
G1 X20.3325 Y17.3536 F600
G1 X20.2175 Y17.5972 F600
G1 X20.1014 Y17.8433 F600
G1 X19.9616 Y18.0759 F600
G1 X19.8234 Y18.3057 F600
G1 X19.6635 Y18.5217 F600
G1 X19.5013 Y18.7406 F600
G1 X19.3182 Y18.9418 F600
G1 X19.1388 Y19.1388 F600
G1 X18.9418 Y19.3182 F600
G1 X18.7406 Y19.5013 F600
G1 X18.5217 Y19.6635 F600
G1 X18.3057 Y19.8234 F600
G1 X18.0759 Y19.9616 F600
G1 X17.8433 Y20.1014 F600
G1 X17.5972 Y20.2175 F600
G1 X17.3536 Y20.3325 F600
G1 X17.1014 Y20.4229 F600
G1 X16.8446 Y20.5151 F600
G1 X16.5784 Y20.5805 F600
G1 X16.3197 Y20.6442 F600
G1 X16.0568 Y20.6835 F600
G1 X15.7905 Y20.7233 F600
G1 X15.5214 Y20.7371 F600
G1 X15.2547 Y20.7507 F600
G1 X15.1378 Y20.7456 F600
G1 X15.6593 Y20.7683 F600
G1 X16.0588 Y20.4449 F600
G1 X15.9983 Y20.4938 F600
G1 X15.7394 Y20.6902 F600
G1 X15.4851 Y20.8830 F600
G1 X15.2265 Y21.0695 F600
G1 X14.9691 Y21.2552 F600
G1 X14.7084 Y21.4346 F600
G1 X14.4460 Y21.6152 F600
G1 X14.1774 Y21.7904 F600
G1 X13.9080 Y21.9661 F600
G1 X13.6364 Y22.1333 F600
G1 X13.3668 Y22.2993 F600
G1 X13.0920 Y22.4599 F600
G1 X12.8139 Y22.6226 F600
G1 X12.5324 Y22.7767 F600
G1 X12.2556 Y22.9282 F600
G1 X11.9747 Y23.0745 F600
G1 X11.6899 Y23.2228 F600
G1 X11.4009 Y23.3635 F600
G1 X11.1137 Y23.5034 F600
G1 X10.8245 Y23.6358 F600
G1 X10.5342 Y23.7688 F600
G1 X10.2407 Y23.8942 F600
G1 X9.9493 Y24.0188 F600
G1 X9.6548 Y24.1370 F600
G1 X9.3582 Y24.2561 F600
G1 X9.0584 Y24.3677 F600
G1 X8.7572 Y24.4799 F600
G1 X8.4538 Y24.5835 F600
G1 X8.1564 Y24.6851 F600
G1 X7.8559 Y24.7814 F600
G1 X7.5471 Y24.8804 F600
G1 X7.2361 Y24.9697 F600
G1 X6.9330 Y25.0568 F600
G1 X6.6558 Y25.1305 F600
G1 X7.1492 Y24.9992 F600
G1 X7.3687 Y24.3956 F600
G1 X7.2971 Y24.5926 F600
G1 X7.1336 Y24.9391 F600
G1 X6.9672 Y25.2918 F600
G1 X6.7660 Y25.6259 F600
G1 X6.5677 Y25.9551 F600
G1 X6.3399 Y26.2638 F600
G1 X6.1093 Y26.5762 F600
G1 X5.8479 Y26.8649 F600
G1 X5.5870 Y27.1530 F600
G1 X5.2989 Y27.4139 F600
G1 X5.0116 Y27.6740 F600
G1 X4.7009 Y27.9046 F600
G1 X4.3882 Y28.1366 F600
G1 X4.0532 Y28.3363 F600
G1 X3.7208 Y28.5346 F600
G1 X3.3711 Y28.6996 F600
G1 X3.0240 Y28.8633 F600
G1 X2.6635 Y28.9941 F600
G1 X2.2952 Y29.1277 F600
G1 X1.9147 Y29.2225 F600
G1 X1.5388 Y29.3162 F600
G1 X1.1555 Y29.3729 F600
G1 X0.7710 Y29.4297 F600
G1 X0.3838 Y29.4483 F600
G1 X-0.0009 Y29.4667 F600
G1 X-0.3866 Y29.4483 F600
G1 X-0.7752 Y29.4297 F600
G1 X-1.1592 Y29.3728 F600
G1 X-1.5411 Y29.3161 F600
G1 X-1.9167 Y29.2225 F600
G1 X-2.2965 Y29.1279 F600
G1 X-2.6649 Y28.9947 F600
G1 X-3.0282 Y28.8633 F600
G1 X-3.3759 Y28.6987 F600
G1 X-3.7237 Y28.5340 F600
G1 X-4.0552 Y28.3363 F600
G1 X-4.3902 Y28.1366 F600
G1 X-4.7029 Y27.9046 F600
G1 X-5.0136 Y27.6740 F600
G1 X-5.3009 Y27.4139 F600
G1 X-5.5890 Y27.1530 F600
G1 X-5.8499 Y26.8649 F600
G1 X-6.1100 Y26.5776 F600
G1 X-6.3406 Y26.2669 F600
G1 X-6.5719 Y25.9551 F600
G1 X-6.7711 Y25.6223 F600
G1 X-6.9689 Y25.2918 F600
G1 X-7.1347 Y24.9430 F600
G1 X-7.3025 Y24.5900 F600
G1 X-7.3751 Y24.3861 F600
G1 X-7.1574 Y24.9976 F600
G1 X-6.6578 Y25.1305 F600
G1 X-6.9350 Y25.0568 F600
G1 X-7.2381 Y24.9697 F600
G1 X-7.5491 Y24.8804 F600
G1 X-7.8579 Y24.7814 F600
G1 X-8.1584 Y24.6851 F600
G1 X-8.4558 Y24.5835 F600
G1 X-8.7592 Y24.4799 F600
G1 X-9.0604 Y24.3677 F600
G1 X-9.3602 Y24.2561 F600
G1 X-9.6568 Y24.1370 F600
G1 X-9.9513 Y24.0188 F600
G1 X-10.2427 Y23.8942 F600
G1 X-10.5352 Y23.7692 F600
G1 X-10.8256 Y23.6367 F600
G1 X-11.1178 Y23.5034 F600
G1 X-11.4058 Y23.3626 F600
G1 X-11.6928 Y23.2223 F600
G1 X-11.9767 Y23.0745 F600
G1 X-12.2576 Y22.9282 F600
G1 X-12.5344 Y22.7767 F600
G1 X-12.8159 Y22.6226 F600
G1 X-13.0940 Y22.4599 F600
G1 X-13.3677 Y22.3000 F600
G1 X-13.6372 Y22.1347 F600
G1 X-13.9121 Y21.9661 F600
G1 X-14.1827 Y21.7889 F600
G1 X-14.4480 Y21.6152 F600
G1 X-14.7091 Y21.4362 F600
G1 X-14.9731 Y21.2552 F600
G1 X-15.2319 Y21.0678 F600
G1 X-15.4882 Y20.8822 F600
G1 X-15.7414 Y20.6902 F600
G1 X-15.9935 Y20.4990 F600
G1 X-16.0484 Y20.4556 F600
G1 Z-3.2000 F120
G1 X-15.6529 Y20.7683 F600
G1 X-15.1394 Y20.7455 F600
G1 X-15.2559 Y20.7507 F600
G1 X-15.5234 Y20.7371 F600
G1 X-15.7925 Y20.7233 F600
G1 X-16.0588 Y20.6835 F600
G1 X-16.3217 Y20.6442 F600
G1 X-16.5804 Y20.5805 F600
G1 X-16.8453 Y20.5154 F600
G1 X-17.1020 Y20.4238 F600
G1 X-17.3580 Y20.3325 F600
G1 X-17.6031 Y20.2161 F600
G1 X-17.8467 Y20.1005 F600
G1 X-18.0779 Y19.9616 F600
G1 X-18.3077 Y19.8234 F600
G1 X-18.5237 Y19.6635 F600
G1 X-18.7426 Y19.5013 F600
G1 X-18.9438 Y19.3182 F600
G1 X-19.1408 Y19.1388 F600
G1 X-19.3202 Y18.9418 F600
G1 X-19.5033 Y18.7406 F600
G1 X-19.6655 Y18.5217 F600
G1 X-19.8254 Y18.3057 F600
G1 X-19.9636 Y18.0759 F600
G1 X-20.1034 Y17.8433 F600
G1 X-20.2195 Y17.5972 F600
G1 X-20.3345 Y17.3536 F600
G1 X-20.4249 Y17.1014 F600
G1 X-20.5158 Y16.8481 F600
G1 X-20.5818 Y16.5856 F600
G1 X-20.6477 Y16.3234 F600
G1 X-20.6875 Y16.0568 F600
G1 X-20.7279 Y15.7867 F600
G1 X-20.7404 Y15.5138 F600
G1 X-20.7525 Y15.2508 F600
G1 X-20.7476 Y15.1378 F600
G1 X-20.7703 Y15.6593 F600
G1 X-20.4469 Y16.0588 F600
G1 X-20.4946 Y15.9999 F600
G1 X-20.6908 Y15.7425 F600
G1 X-20.8859 Y15.4867 F600
G1 X-21.0735 Y15.2265 F600
G1 X-21.2604 Y14.9674 F600
G1 X-21.4400 Y14.7050 F600
G1 X-21.6183 Y14.4443 F600
G1 X-21.7924 Y14.1774 F600
G1 X-21.9681 Y13.9080 F600
G1 X-22.1353 Y13.6364 F600
G1 X-22.3013 Y13.3668 F600
G1 X-22.4619 Y13.0920 F600
G1 X-22.6235 Y12.8157 F600
G1 X-22.7776 Y12.5362 F600
G1 X-22.9323 Y12.2556 F600
G1 X-23.0795 Y11.9707 F600
G1 X-23.2257 Y11.6879 F600
G1 X-23.3655 Y11.4009 F600
G1 X-23.5054 Y11.1137 F600
G1 X-23.6378 Y10.8245 F600
G1 X-23.7698 Y10.5363 F600
G1 X-23.8954 Y10.2449 F600
G1 X-24.0229 Y9.9493 F600
G1 X-24.1417 Y9.6505 F600
G1 X-24.2589 Y9.3560 F600
G1 X-24.3697 Y9.0584 F600
G1 X-24.4810 Y8.7594 F600
G1 X-24.5850 Y8.4583 F600
G1 X-24.6891 Y8.1564 F600
G1 X-24.7858 Y7.8514 F600
G1 X-24.8831 Y7.5448 F600
G1 X-24.9717 Y7.2361 F600
G1 X-25.0588 Y6.9330 F600
G1 X-25.1325 Y6.6558 F600
G1 X-25.0012 Y7.1492 F600
G1 X-24.3976 Y7.3687 F600
G1 X-24.5946 Y7.2971 F600
G1 X-24.9411 Y7.1336 F600
G1 X-25.2938 Y6.9672 F600
G1 X-25.6279 Y6.7660 F600
G1 X-25.9559 Y6.5684 F600
G1 X-26.2645 Y6.3415 F600
G1 X-26.5804 Y6.1093 F600
G1 X-26.8702 Y5.8457 F600
G1 X-27.1560 Y5.5858 F600
G1 X-27.4159 Y5.2989 F600
G1 X-27.6760 Y5.0116 F600
G1 X-27.9066 Y4.7009 F600
G1 X-28.1374 Y4.3898 F600
G1 X-28.3372 Y4.0567 F600
G1 X-28.5377 Y3.7227 F600
G1 X-28.7036 Y3.3711 F600
G1 X-28.8683 Y3.0220 F600
G1 X-28.9986 Y2.6592 F600
G1 X-29.1302 Y2.2931 F600
G1 X-29.2245 Y1.9147 F600
G1 X-29.3182 Y1.5388 F600
G1 X-29.3749 Y1.1555 F600
G1 X-29.4317 Y0.7710 F600
G1 X-29.4503 Y0.3838 F600
G1 X-29.4687 Y-0.0009 F600
G1 X-29.4503 Y-0.3866 F600
G1 X-29.4317 Y-0.7752 F600
G1 X-29.3748 Y-1.1592 F600
G1 X-29.3181 Y-1.5411 F600
G1 X-29.2245 Y-1.9167 F600
G1 X-29.1304 Y-2.2943 F600
G1 X-28.9992 Y-2.6607 F600
G1 X-28.8683 Y-3.0262 F600
G1 X-28.7027 Y-3.3759 F600
G1 X-28.5372 Y-3.7255 F600
G1 X-28.3372 Y-4.0587 F600
G1 X-28.1374 Y-4.3918 F600
G1 X-27.9066 Y-4.7029 F600
G1 X-27.6760 Y-5.0136 F600
G1 X-27.4159 Y-5.3009 F600
G1 X-27.1560 Y-5.5878 F600
G1 X-26.8702 Y-5.8477 F600
G1 X-26.5819 Y-6.1100 F600
G1 X-26.2676 Y-6.3423 F600
G1 X-25.9559 Y-6.5726 F600
G1 X-25.6243 Y-6.7711 F600
G1 X-25.2938 Y-6.9689 F600
G1 X-24.9450 Y-7.1347 F600
G1 X-24.5920 Y-7.3025 F600
G1 X-24.3881 Y-7.3751 F600
G1 X-24.9996 Y-7.1574 F600
G1 X-25.1325 Y-6.6578 F600
G1 X-25.0588 Y-6.9350 F600
G1 X-24.9717 Y-7.2381 F600
G1 X-24.8831 Y-7.5468 F600
G1 X-24.7858 Y-7.8534 F600
G1 X-24.6891 Y-8.1584 F600
G1 X-24.5850 Y-8.4603 F600
G1 X-24.4810 Y-8.7614 F600
G1 X-24.3697 Y-9.0604 F600
G1 X-24.2589 Y-9.3580 F600
G1 X-24.1417 Y-9.6525 F600
G1 X-24.0229 Y-9.9513 F600
G1 X-23.8954 Y-10.2469 F600
G1 X-23.7702 Y-10.5373 F600
G1 X-23.6387 Y-10.8256 F600
G1 X-23.5054 Y-11.1178 F600
G1 X-23.3646 Y-11.4058 F600
G1 X-23.2252 Y-11.6909 F600
G1 X-23.0795 Y-11.9727 F600
G1 X-22.9323 Y-12.2576 F600
G1 X-22.7776 Y-12.5382 F600
G1 X-22.6235 Y-12.8177 F600
G1 X-22.4619 Y-13.0940 F600
G1 X-22.3020 Y-13.3677 F600
G1 X-22.1367 Y-13.6372 F600
G1 X-21.9681 Y-13.9121 F600
G1 X-21.7909 Y-14.1827 F600
G1 X-21.6183 Y-14.4463 F600
G1 X-21.4416 Y-14.7057 F600
G1 X-21.2604 Y-14.9715 F600
G1 X-21.0718 Y-15.2319 F600
G1 X-20.8850 Y-15.4898 F600
G1 X-20.6908 Y-15.7445 F600
G1 X-20.4998 Y-15.9950 F600
G1 X-20.4576 Y-16.0484 F600
G1 X-20.7703 Y-15.6529 F600
G1 X-20.7475 Y-15.1394 F600
G1 X-20.7525 Y-15.2521 F600
G1 X-20.7404 Y-15.5158 F600
G1 X-20.7279 Y-15.7887 F600
G1 X-20.6875 Y-16.0588 F600
G1 X-20.6477 Y-16.3254 F600
G1 X-20.5818 Y-16.5876 F600
G1 X-20.5161 Y-16.8488 F600
G1 X-20.4258 Y-17.1020 F600
G1 X-20.3345 Y-17.3580 F600
G1 X-20.2181 Y-17.6031 F600
G1 X-20.1025 Y-17.8467 F600
G1 X-19.9636 Y-18.0779 F600
G1 X-19.8254 Y-18.3077 F600
G1 X-19.6655 Y-18.5237 F600
G1 X-19.5033 Y-18.7426 F600
G1 X-19.3202 Y-18.9438 F600
G1 X-19.1408 Y-19.1408 F600
G1 X-18.9438 Y-19.3202 F600
G1 X-18.7426 Y-19.5033 F600
G1 X-18.5237 Y-19.6655 F600
G1 X-18.3077 Y-19.8254 F600
G1 X-18.0779 Y-19.9636 F600
G1 X-17.8467 Y-20.1025 F600
G1 X-17.6031 Y-20.2181 F600
G1 X-17.3580 Y-20.3345 F600
G1 X-17.1020 Y-20.4258 F600
G1 X-16.8488 Y-20.5161 F600
G1 X-16.5876 Y-20.5818 F600
G1 X-16.3254 Y-20.6477 F600
G1 X-16.0588 Y-20.6875 F600
G1 X-15.7887 Y-20.7279 F600
G1 X-15.5158 Y-20.7404 F600
G1 X-15.2521 Y-20.7525 F600
G1 X-15.1394 Y-20.7475 F600
G1 X-15.6529 Y-20.7703 F600
G1 X-16.0484 Y-20.4576 F600
G1 X-15.9950 Y-20.4998 F600
G1 X-15.7445 Y-20.6908 F600
G1 X-15.4898 Y-20.8850 F600
G1 X-15.2319 Y-21.0718 F600
G1 X-14.9715 Y-21.2604 F600
G1 X-14.7057 Y-21.4416 F600
G1 X-14.4463 Y-21.6183 F600
G1 X-14.1827 Y-21.7909 F600
G1 X-13.9121 Y-21.9681 F600
G1 X-13.6372 Y-22.1367 F600
G1 X-13.3677 Y-22.3020 F600
G1 X-13.0940 Y-22.4619 F600
G1 X-12.8177 Y-22.6235 F600
G1 X-12.5382 Y-22.7776 F600
G1 X-12.2576 Y-22.9323 F600
G1 X-11.9727 Y-23.0795 F600
G1 X-11.6909 Y-23.2252 F600
G1 X-11.4058 Y-23.3646 F600
G1 X-11.1178 Y-23.5054 F600
G1 X-10.8256 Y-23.6387 F600
G1 X-10.5373 Y-23.7702 F600
G1 X-10.2469 Y-23.8954 F600
G1 X-9.9513 Y-24.0229 F600
G1 X-9.6525 Y-24.1417 F600
G1 X-9.3580 Y-24.2589 F600
G1 X-9.0604 Y-24.3697 F600
G1 X-8.7614 Y-24.4810 F600
G1 X-8.4603 Y-24.5850 F600
G1 X-8.1584 Y-24.6891 F600
G1 X-7.8534 Y-24.7858 F600
G1 X-7.5468 Y-24.8831 F600
G1 X-7.2381 Y-24.9717 F600
G1 X-6.9350 Y-25.0588 F600
G1 X-6.6578 Y-25.1325 F600
G1 X-7.1574 Y-24.9996 F600
G1 X-7.3751 Y-24.3881 F600
G1 X-7.3025 Y-24.5920 F600
G1 X-7.1347 Y-24.9450 F600
G1 X-6.9689 Y-25.2938 F600
G1 X-6.7711 Y-25.6243 F600
G1 X-6.5726 Y-25.9559 F600
G1 X-6.3423 Y-26.2676 F600
G1 X-6.1100 Y-26.5819 F600
G1 X-5.8477 Y-26.8702 F600
G1 X-5.5878 Y-27.1560 F600
G1 X-5.3009 Y-27.4159 F600
G1 X-5.0136 Y-27.6760 F600
G1 X-4.7029 Y-27.9066 F600
G1 X-4.3918 Y-28.1374 F600
G1 X-4.0587 Y-28.3372 F600
G1 X-3.7255 Y-28.5372 F600
G1 X-3.3759 Y-28.7027 F600
G1 X-3.0262 Y-28.8683 F600
G1 X-2.6607 Y-28.9992 F600
G1 X-2.2943 Y-29.1304 F600
G1 X-1.9167 Y-29.2245 F600
G1 X-1.5411 Y-29.3181 F600
G1 X-1.1592 Y-29.3748 F600
G1 X-0.7752 Y-29.4317 F600
G1 X-0.3866 Y-29.4503 F600
G1 X-0.0009 Y-29.4687 F600
G1 X0.3838 Y-29.4503 F600
G1 X0.7710 Y-29.4317 F600
G1 X1.1555 Y-29.3749 F600
G1 X1.5388 Y-29.3182 F600
G1 X1.9147 Y-29.2245 F600
G1 X2.2931 Y-29.1302 F600
G1 X2.6592 Y-28.9986 F600
G1 X3.0220 Y-28.8683 F600
G1 X3.3711 Y-28.7036 F600
G1 X3.7227 Y-28.5377 F600
G1 X4.0567 Y-28.3372 F600
G1 X4.3898 Y-28.1374 F600
G1 X4.7009 Y-27.9066 F600
G1 X5.0116 Y-27.6760 F600
G1 X5.2989 Y-27.4159 F600
G1 X5.5858 Y-27.1560 F600
G1 X5.8457 Y-26.8702 F600
G1 X6.1093 Y-26.5804 F600
G1 X6.3415 Y-26.2645 F600
G1 X6.5684 Y-25.9559 F600
G1 X6.7660 Y-25.6279 F600
G1 X6.9672 Y-25.2938 F600
G1 X7.1336 Y-24.9411 F600
G1 X7.2971 Y-24.5946 F600
G1 X7.3687 Y-24.3976 F600
G1 X7.1492 Y-25.0012 F600
G1 X6.6558 Y-25.1325 F600
G1 X6.9330 Y-25.0588 F600
G1 X7.2361 Y-24.9717 F600
G1 X7.5448 Y-24.8831 F600
G1 X7.8514 Y-24.7858 F600
G1 X8.1564 Y-24.6891 F600
G1 X8.4583 Y-24.5850 F600
G1 X8.7594 Y-24.4810 F600
G1 X9.0584 Y-24.3697 F600
G1 X9.3560 Y-24.2589 F600
G1 X9.6505 Y-24.1417 F600
G1 X9.9493 Y-24.0229 F600
G1 X10.2449 Y-23.8954 F600
G1 X10.5363 Y-23.7698 F600
G1 X10.8245 Y-23.6378 F600
G1 X11.1137 Y-23.5054 F600
G1 X11.4009 Y-23.3655 F600
G1 X11.6879 Y-23.2257 F600
G1 X11.9707 Y-23.0795 F600
G1 X12.2556 Y-22.9323 F600
G1 X12.5362 Y-22.7776 F600
G1 X12.8157 Y-22.6235 F600
G1 X13.0920 Y-22.4619 F600
G1 X13.3668 Y-22.3013 F600
G1 X13.6364 Y-22.1353 F600
G1 X13.9080 Y-21.9681 F600
G1 X14.1774 Y-21.7924 F600
G1 X14.4443 Y-21.6183 F600
G1 X14.7050 Y-21.4400 F600
G1 X14.9674 Y-21.2604 F600
G1 X15.2265 Y-21.0735 F600
G1 X15.4867 Y-20.8859 F600
G1 X15.7425 Y-20.6908 F600
G1 X15.9999 Y-20.4946 F600
G1 X16.0588 Y-20.4469 F600
G1 X15.6593 Y-20.7703 F600
G1 X15.1378 Y-20.7476 F600
G1 X15.2508 Y-20.7525 F600
G1 X15.5138 Y-20.7404 F600
G1 X15.7867 Y-20.7279 F600
G1 X16.0568 Y-20.6875 F600
G1 X16.3234 Y-20.6477 F600
G1 X16.5856 Y-20.5818 F600
G1 X16.8481 Y-20.5158 F600
G1 X17.1014 Y-20.4249 F600
G1 X17.3536 Y-20.3345 F600
G1 X17.5972 Y-20.2195 F600
G1 X17.8433 Y-20.1034 F600
G1 X18.0759 Y-19.9636 F600
G1 X18.3057 Y-19.8254 F600
G1 X18.5217 Y-19.6655 F600
G1 X18.7406 Y-19.5033 F600
G1 X18.9418 Y-19.3202 F600
G1 X19.1388 Y-19.1408 F600
G1 X19.3182 Y-18.9438 F600
G1 X19.5013 Y-18.7426 F600
G1 X19.6635 Y-18.5237 F600
G1 X19.8234 Y-18.3077 F600
G1 X19.9616 Y-18.0779 F600
G1 X20.1005 Y-17.8467 F600
G1 X20.2161 Y-17.6031 F600
G1 X20.3325 Y-17.3580 F600
G1 X20.4238 Y-17.1020 F600
G1 X20.5154 Y-16.8453 F600
G1 X20.5805 Y-16.5804 F600
G1 X20.6442 Y-16.3217 F600
G1 X20.6835 Y-16.0588 F600
G1 X20.7233 Y-15.7925 F600
G1 X20.7371 Y-15.5234 F600
G1 X20.7507 Y-15.2559 F600
G1 X20.7455 Y-15.1394 F600
G1 X20.7683 Y-15.6529 F600
G1 X20.4556 Y-16.0484 F600
G1 X20.4990 Y-15.9935 F600
G1 X20.6902 Y-15.7414 F600
G1 X20.8822 Y-15.4882 F600
G1 X21.0678 Y-15.2319 F600
G1 X21.2552 Y-14.9731 F600
G1 X21.4362 Y-14.7091 F600
G1 X21.6152 Y-14.4480 F600
G1 X21.7889 Y-14.1827 F600
G1 X21.9661 Y-13.9121 F600
G1 X22.1347 Y-13.6372 F600
G1 X22.3000 Y-13.3677 F600
G1 X22.4599 Y-13.0940 F600
G1 X22.6226 Y-12.8159 F600
G1 X22.7767 Y-12.5344 F600
G1 X22.9282 Y-12.2576 F600
G1 X23.0745 Y-11.9767 F600
G1 X23.2223 Y-11.6928 F600
G1 X23.3626 Y-11.4058 F600
G1 X23.5034 Y-11.1178 F600
G1 X23.6367 Y-10.8256 F600
G1 X23.7692 Y-10.5352 F600
G1 X23.8942 Y-10.2427 F600
G1 X24.0188 Y-9.9513 F600
G1 X24.1370 Y-9.6568 F600
G1 X24.2561 Y-9.3602 F600
G1 X24.3677 Y-9.0604 F600
G1 X24.4799 Y-8.7592 F600
G1 X24.5835 Y-8.4558 F600
G1 X24.6851 Y-8.1584 F600
G1 X24.7814 Y-7.8579 F600
G1 X24.8804 Y-7.5491 F600
G1 X24.9697 Y-7.2381 F600
G1 X25.0568 Y-6.9350 F600
G1 X25.1305 Y-6.6578 F600
G1 X24.9976 Y-7.1574 F600
G1 X24.3861 Y-7.3751 F600
G1 X24.5900 Y-7.3025 F600
G1 X24.9430 Y-7.1347 F600
G1 X25.2918 Y-6.9689 F600
G1 X25.6223 Y-6.7711 F600
G1 X25.9551 Y-6.5719 F600
G1 X26.2669 Y-6.3406 F600
G1 X26.5776 Y-6.1100 F600
G1 X26.8649 Y-5.8499 F600
G1 X27.1530 Y-5.5890 F600
G1 X27.4139 Y-5.3009 F600
G1 X27.6740 Y-5.0136 F600
G1 X27.9046 Y-4.7029 F600
G1 X28.1366 Y-4.3902 F600
G1 X28.3363 Y-4.0552 F600
G1 X28.5340 Y-3.7237 F600
G1 X28.6987 Y-3.3759 F600
G1 X28.8633 Y-3.0282 F600
G1 X28.9947 Y-2.6649 F600
G1 X29.1279 Y-2.2965 F600
G1 X29.2225 Y-1.9167 F600
G1 X29.3161 Y-1.5411 F600
G1 X29.3728 Y-1.1592 F600
G1 X29.4297 Y-0.7752 F600
G1 X29.4483 Y-0.3866 F600
G1 X29.4667 Y-0.0009 F600
G1 X29.4483 Y0.3838 F600
G1 X29.4297 Y0.7710 F600
G1 X29.3729 Y1.1555 F600
G1 X29.3162 Y1.5388 F600
G1 X29.2225 Y1.9147 F600
G1 X29.1277 Y2.2952 F600
G1 X28.9941 Y2.6635 F600
G1 X28.8633 Y3.0240 F600
G1 X28.6996 Y3.3711 F600
G1 X28.5346 Y3.7208 F600
G1 X28.3363 Y4.0532 F600
G1 X28.1366 Y4.3882 F600
G1 X27.9046 Y4.7009 F600
G1 X27.6740 Y5.0116 F600
G1 X27.4139 Y5.2989 F600
G1 X27.1530 Y5.5870 F600
G1 X26.8649 Y5.8479 F600
G1 X26.5762 Y6.1093 F600
G1 X26.2638 Y6.3399 F600
G1 X25.9551 Y6.5677 F600
G1 X25.6259 Y6.7660 F600
G1 X25.2918 Y6.9672 F600
G1 X24.9391 Y7.1336 F600
G1 X24.5926 Y7.2971 F600
G1 X24.3956 Y7.3687 F600
G1 X24.9992 Y7.1492 F600
G1 X25.1305 Y6.6558 F600
G1 X25.0568 Y6.9330 F600
G1 X24.9697 Y7.2361 F600
G1 X24.8804 Y7.5471 F600
G1 X24.7814 Y7.8559 F600
G1 X24.6851 Y8.1564 F600
G1 X24.5835 Y8.4538 F600
G1 X24.4799 Y8.7572 F600
G1 X24.3677 Y9.0584 F600
G1 X24.2561 Y9.3582 F600
G1 X24.1370 Y9.6548 F600
G1 X24.0188 Y9.9493 F600
G1 X23.8942 Y10.2407 F600
G1 X23.7688 Y10.5342 F600
G1 X23.6358 Y10.8245 F600
G1 X23.5034 Y11.1137 F600
G1 X23.3635 Y11.4009 F600
G1 X23.2228 Y11.6899 F600
G1 X23.0745 Y11.9747 F600
G1 X22.9282 Y12.2556 F600
G1 X22.7767 Y12.5324 F600
G1 X22.6226 Y12.8139 F600
G1 X22.4599 Y13.0920 F600
G1 X22.2993 Y13.3668 F600
G1 X22.1333 Y13.6364 F600
G1 X21.9661 Y13.9080 F600
G1 X21.7904 Y14.1774 F600
G1 X21.6152 Y14.4460 F600
G1 X21.4346 Y14.7084 F600
G1 X21.2552 Y14.9691 F600
G1 X21.0695 Y15.2265 F600
G1 X20.8830 Y15.4851 F600
G1 X20.6902 Y15.7394 F600
G1 X20.4938 Y15.9983 F600
G1 X20.4449 Y16.0588 F600
G1 X20.7683 Y15.6593 F600
G1 X20.7456 Y15.1378 F600
G1 X20.7507 Y15.2547 F600
G1 X20.7371 Y15.5214 F600
G1 X20.7233 Y15.7905 F600
G1 X20.6835 Y16.0568 F600
G1 X20.6442 Y16.3197 F600
G1 X20.5805 Y16.5784 F600
G1 X20.5151 Y16.8446 F600
G1 X20.4229 Y17.1014 F600
G1 X20.3325 Y17.3536 F600
G1 X20.2175 Y17.5972 F600
G1 X20.1014 Y17.8433 F600
G1 X19.9616 Y18.0759 F600
G1 X19.8234 Y18.3057 F600
G1 X19.6635 Y18.5217 F600
G1 X19.5013 Y18.7406 F600
G1 X19.3182 Y18.9418 F600
G1 X19.1388 Y19.1388 F600
G1 X18.9418 Y19.3182 F600
G1 X18.7406 Y19.5013 F600
G1 X18.5217 Y19.6635 F600
G1 X18.3057 Y19.8234 F600
G1 X18.0759 Y19.9616 F600
G1 X17.8433 Y20.1014 F600
G1 X17.5972 Y20.2175 F600
G1 X17.3536 Y20.3325 F600
G1 X17.1014 Y20.4229 F600
G1 X16.8446 Y20.5151 F600
G1 X16.5784 Y20.5805 F600
G1 X16.3197 Y20.6442 F600
G1 X16.0568 Y20.6835 F600
G1 X15.7905 Y20.7233 F600
G1 X15.5214 Y20.7371 F600
G1 X15.2547 Y20.7507 F600
G1 X15.1378 Y20.7456 F600
G1 X15.6593 Y20.7683 F600
G1 X16.0588 Y20.4449 F600
G1 X15.9983 Y20.4938 F600
G1 X15.7394 Y20.6902 F600
G1 X15.4851 Y20.8830 F600
G1 X15.2265 Y21.0695 F600
G1 X14.9691 Y21.2552 F600
G1 X14.7084 Y21.4346 F600
G1 X14.4460 Y21.6152 F600
G1 X14.1774 Y21.7904 F600
G1 X13.9080 Y21.9661 F600
G1 X13.6364 Y22.1333 F600
G1 X13.3668 Y22.2993 F600
G1 X13.0920 Y22.4599 F600
G1 X12.8139 Y22.6226 F600
G1 X12.5324 Y22.7767 F600
G1 X12.2556 Y22.9282 F600
G1 X11.9747 Y23.0745 F600
G1 X11.6899 Y23.2228 F600
G1 X11.4009 Y23.3635 F600
G1 X11.1137 Y23.5034 F600
G1 X10.8245 Y23.6358 F600
G1 X10.5342 Y23.7688 F600
