; ═══════════════════════════════════════════
; Part      : CENTER_PLATE
; Thickness : 3.0 mm (CFRP)
; Tool      : 3.0 mm carbide 2-flute end mill
; Spindle   : 15000 RPM | Feed XY: 600 mm/min | Z: 120 mm/min
; Step-down : 0.5 mm/pass  ← true arc G2/G3 code
; Z=0 = top surface of material
; !! CFRP DUST HAZARD – dust extraction + N95 respirator required !!
; ═══════════════════════════════════════════

G21  ; mm units
G90  ; absolute coordinates
G17  ; XY plane
G0 Z10.0000
G0 X0 Y0
M3 S15000  ; spindle on
G4 P3          ; wait 3 s

; outer profile
G0 Z10.0000
G0 X21.0477 Y12.5396
G1 Z-0.5000 F120
G2 X24.3285 Y2.8935 I-21.0477 J-12.5396 F600
G2 X24.3285 Y-2.8935 I-2.7617 J-2.8935 F600
G2 X21.0477 Y-12.5396 I-24.3285 J2.8935 F600
G2 X12.5396 Y-21.0477 I-5.7977 J-2.7104 F600
G2 X2.8935 Y-24.3285 I-12.5396 J21.0477 F600
G2 X-2.8935 Y-24.3285 I-2.8935 J2.7617 F600
G2 X-12.5396 Y-21.0477 I2.8935 J24.3285 F600
G2 X-21.0477 Y-12.5396 I-2.7104 J5.7977 F600
G2 X-24.3285 Y-2.8935 I21.0477 J12.5396 F600
G2 X-24.3285 Y2.8935 I2.7617 J2.8935 F600
G2 X-21.0477 Y12.5396 I24.3285 J-2.8935 F600
G2 X-12.5396 Y21.0477 I5.7977 J2.7104 F600
G2 X-2.8935 Y24.3285 I12.5396 J-21.0477 F600
G2 X2.8935 Y24.3285 I2.8935 J-2.7617 F600
G2 X12.5396 Y21.0477 I-2.8935 J-24.3285 F600
G2 X21.0477 Y12.5396 I2.7104 J-5.7977 F600
G1 X21.0477 Y12.5396 F600
G1 Z-1.0000 F120
G2 X24.3285 Y2.8935 I-21.0477 J-12.5396 F600
G2 X24.3285 Y-2.8935 I-2.7617 J-2.8935 F600
G2 X21.0477 Y-12.5396 I-24.3285 J2.8935 F600
G2 X12.5396 Y-21.0477 I-5.7977 J-2.7104 F600
G2 X2.8935 Y-24.3285 I-12.5396 J21.0477 F600
G2 X-2.8935 Y-24.3285 I-2.8935 J2.7617 F600
G2 X-12.5396 Y-21.0477 I2.8935 J24.3285 F600
G2 X-21.0477 Y-12.5396 I-2.7104 J5.7977 F600
G2 X-24.3285 Y-2.8935 I21.0477 J12.5396 F600
G2 X-24.3285 Y2.8935 I2.7617 J2.8935 F600
G2 X-21.0477 Y12.5396 I24.3285 J-2.8935 F600
G2 X-12.5396 Y21.0477 I5.7977 J2.7104 F600
G2 X-2.8935 Y24.3285 I12.5396 J-21.0477 F600
G2 X2.8935 Y24.3285 I2.8935 J-2.7617 F600
G2 X12.5396 Y21.0477 I-2.8935 J-24.3285 F600
G2 X21.0477 Y12.5396 I2.7104 J-5.7977 F600
G1 X21.0477 Y12.5396 F600
G1 Z-1.5000 F120
G2 X24.3285 Y2.8935 I-21.0477 J-12.5396 F600
G2 X24.3285 Y-2.8935 I-2.7617 J-2.8935 F600
G2 X21.0477 Y-12.5396 I-24.3285 J2.8935 F600
G2 X12.5396 Y-21.0477 I-5.7977 J-2.7104 F600
G2 X2.8935 Y-24.3285 I-12.5396 J21.0477 F600
G2 X-2.8935 Y-24.3285 I-2.8935 J2.7617 F600
G2 X-12.5396 Y-21.0477 I2.8935 J24.3285 F600
G2 X-21.0477 Y-12.5396 I-2.7104 J5.7977 F600
G2 X-24.3285 Y-2.8935 I21.0477 J12.5396 F600
G2 X-24.3285 Y2.8935 I2.7617 J2.8935 F600
G2 X-21.0477 Y12.5396 I24.3285 J-2.8935 F600
G2 X-12.5396 Y21.0477 I5.7977 J2.7104 F600
G2 X-2.8935 Y24.3285 I12.5396 J-21.0477 F600
G2 X2.8935 Y24.3285 I2.8935 J-2.7617 F600
G2 X12.5396 Y21.0477 I-2.8935 J-24.3285 F600
G2 X21.0477 Y12.5396 I2.7104 J-5.7977 F600
G1 X21.0477 Y12.5396 F600
G1 Z-2.0000 F120
G2 X24.3285 Y2.8935 I-21.0477 J-12.5396 F600
G2 X24.3285 Y-2.8935 I-2.7617 J-2.8935 F600
G2 X21.0477 Y-12.5396 I-24.3285 J2.8935 F600
G2 X12.5396 Y-21.0477 I-5.7977 J-2.7104 F600
G2 X2.8935 Y-24.3285 I-12.5396 J21.0477 F600
G2 X-2.8935 Y-24.3285 I-2.8935 J2.7617 F600
G2 X-12.5396 Y-21.0477 I2.8935 J24.3285 F600
G2 X-21.0477 Y-12.5396 I-2.7104 J5.7977 F600
G2 X-24.3285 Y-2.8935 I21.0477 J12.5396 F600
G2 X-24.3285 Y2.8935 I2.7617 J2.8935 F600
G2 X-21.0477 Y12.5396 I24.3285 J-2.8935 F600
G2 X-12.5396 Y21.0477 I5.7977 J2.7104 F600
G2 X-2.8935 Y24.3285 I12.5396 J-21.0477 F600
G2 X2.8935 Y24.3285 I2.8935 J-2.7617 F600
G2 X12.5396 Y21.0477 I-2.8935 J-24.3285 F600
G2 X21.0477 Y12.5396 I2.7104 J-5.7977 F600
G1 X21.0477 Y12.5396 F600
G1 Z-2.5000 F120
G2 X24.3285 Y2.8935 I-21.0477 J-12.5396 F600
G2 X24.3285 Y-2.8935 I-2.7617 J-2.8935 F600
G2 X21.0477 Y-12.5396 I-24.3285 J2.8935 F600
G2 X12.5396 Y-21.0477 I-5.7977 J-2.7104 F600
G2 X2.8935 Y-24.3285 I-12.5396 J21.0477 F600
G2 X-2.8935 Y-24.3285 I-2.8935 J2.7617 F600
G2 X-12.5396 Y-21.0477 I2.8935 J24.3285 F600
G2 X-21.0477 Y-12.5396 I-2.7104 J5.7977 F600
G2 X-24.3285 Y-2.8935 I21.0477 J12.5396 F600
G2 X-24.3285 Y2.8935 I2.7617 J2.8935 F600
G2 X-21.0477 Y12.5396 I24.3285 J-2.8935 F600
G2 X-12.5396 Y21.0477 I5.7977 J2.7104 F600
G2 X-2.8935 Y24.3285 I12.5396 J-21.0477 F600
G2 X2.8935 Y24.3285 I2.8935 J-2.7617 F600
G2 X12.5396 Y21.0477 I-2.8935 J-24.3285 F600
G2 X21.0477 Y12.5396 I2.7104 J-5.7977 F600
G1 X21.0477 Y12.5396 F600
G1 Z-3.2000 F120
G2 X24.3285 Y2.8935 I-21.0477 J-12.5396 F600
G2 X24.3285 Y-2.8935 I-2.7617 J-2.8935 F600
G2 X21.0477 Y-12.5396 I-24.3285 J2.8935 F600
G2 X12.5396 Y-21.0477 I-5.7977 J-2.7104 F600
G2 X2.8935 Y-24.3285 I-12.5396 J21.0477 F600
G2 X-2.8935 Y-24.3285 I-2.8935 J2.7617 F600
G2 X-12.5396 Y-21.0477 I2.8935 J24.3285 F600
G2 X-21.0477 Y-12.5396 I-2.7104 J5.7977 F600
G2 X-24.3285 Y-2.8935 I21.0477 J12.5396 F600
G2 X-24.3285 Y2.8935 I2.7617 J2.8935 F600
G2 X-21.0477 Y12.5396 I24.3285 J-2.8935 F600
G2 X-12.5396 Y21.0477 I5.7977 J2.7104 F600
G2 X-2.8935 Y24.3285 I12.5396 J-21.0477 F600
G2 X2.8935 Y24.3285 I2.8935 J-2.7617 F600
G2 X12.5396 Y21.0477 I-2.8935 J-24.3285 F600
G2 X21.0477 Y12.5396 I2.7104 J-5.7977 F600
G1 X21.0477 Y12.5396 F600
G0 Z10.0000

; hole (21 mm²)
G0 Z10.0000
G0 X2.6000 Y0.0000
G1 Z-0.5000 F120
G2 X2.6000 Y-0.0000 I-2.6000 J0.0000 F600
G1 X2.6000 Y0.0000 F600
G1 Z-1.0000 F120
G2 X2.6000 Y-0.0000 I-2.6000 J0.0000 F600
G1 X2.6000 Y0.0000 F600
G1 Z-1.5000 F120
G2 X2.6000 Y-0.0000 I-2.6000 J0.0000 F600
G1 X2.6000 Y0.0000 F600
G1 Z-2.0000 F120
G2 X2.6000 Y-0.0000 I-2.6000 J0.0000 F600
G1 X2.6000 Y0.0000 F600
G1 Z-2.5000 F120
G2 X2.6000 Y-0.0000 I-2.6000 J0.0000 F600
G1 X2.6000 Y0.0000 F600
G1 Z-3.2000 F120
G2 X2.6000 Y-0.0000 I-2.6000 J0.0000 F600
G1 X2.6000 Y0.0000 F600
G0 Z10.0000

; ── DRILL MANUALLY ─────────────────────────────
; DRILL MANUALLY  d≈3.20mm  X≈-15.250 Y≈-15.250  → use 3.2mm drill
; DRILL MANUALLY  d≈3.20mm  X≈0.000 Y≈-21.567  → use 3.2mm drill
; DRILL MANUALLY  d≈3.20mm  X≈15.250 Y≈-15.250  → use 3.2mm drill
; DRILL MANUALLY  d≈3.20mm  X≈-21.567 Y≈0.000  → use 3.2mm drill
; DRILL MANUALLY  d≈3.20mm  X≈-15.250 Y≈15.250  → use 3.2mm drill
; DRILL MANUALLY  d≈3.20mm  X≈21.567 Y≈0.000  → use 3.2mm drill
; DRILL MANUALLY  d≈3.20mm  X≈0.000 Y≈21.567  → use 3.2mm drill
; DRILL MANUALLY  d≈3.20mm  X≈15.250 Y≈15.250  → use 3.2mm drill
; ────────────────────────────────────────────────

G0 Z10.0000
G0 X0 Y0
M5   ; spindle off
M30  ; end of program